sontkdqja-lab/Franka_RL/PickAndPlace/trace_isaac.csv
source,mode,step,sim_time,obs_joint_pos_rel_0,obs_joint_pos_rel_1,obs_joint_pos_rel_2,obs_joint_pos_rel_3,obs_joint_pos_rel_4,obs_joint_pos_rel_5,obs_joint_pos_rel_6,obs_joint_pos_rel_7,obs_joint_pos_rel_8,obs_joint_vel_0,obs_joint_vel_1,obs_joint_vel_2,obs_joint_vel_3,obs_joint_vel_4,obs_joint_vel_5,obs_joint_vel_6,obs_joint_vel_7,obs_joint_vel_8,obs_object_pos_b_0,obs_object_pos_b_1,obs_object_pos_b_2,obs_place_target_0,obs_place_target_1,obs_place_target_2,obs_place_target_3,obs_place_target_4,obs_place_target_5,obs_place_target_6,obs_transport_phase_0,obs_last_action_0,obs_last_action_1,obs_last_action_2,obs_last_action_3,obs_last_action_4,obs_last_action_5,obs_last_action_6,obs_last_action_7,action_0,action_1,action_2,action_3,action_4,action_5,action_6,action_7,arm_target_0,arm_target_1,arm_target_2,arm_target_3,arm_target_4,arm_target_5,arm_target_6,gripper_target_0,gripper_target_1
isaac,policy,0,0.0,0.0,0.0,0.0,0.0,0.0,0.0,0.0,0.0,0.0,0.0,0.0,0.0,0.0,0.0,0.0,0.0,0.0,0.0,0.4000000059604645,-0.10000000149011612,0.02500000037252903,0.5,0.0,0.30000001192092896,1.0,0.0,0.0,0.0,0.0,0.0,0.0,0.0,0.0,0.0,0.0,0.0,0.0,-5.935522079467773,6.997474193572998,-6.900917053222656,4.442236423492432,0.8917189836502075,1.2920732498168945,2.3217945098876953,3.814816951751709,-2.9677610397338867,2.929737091064453,-3.450458526611328,-0.5888817310333252,0.44585949182510376,3.6830365657806396,1.9018971920013428,0.03999999910593033,0.03999999910593033
isaac,policy,1,0.02,-0.03113710694015026,0.03506988286972046,-0.017995435744524002,0.03133225440979004,-0.04340052977204323,0.03547191619873047,0.05225348472595215,-0.00021358579397201538,0.0,-2.162391424179077,2.174997568130493,-1.3128305673599243,2.1750006675720215,-2.6094295978546143,1.9742648601531982,2.6099441051483154,0.006627508904784918,0.0030993230175226927,0.4000000059604645,-0.10000000149011612,0.022057004272937775,0.5,0.0,0.30000001192092896,1.0,0.0,0.0,0.0,0.0,-5.935522079467773,6.997474193572998,-6.900917053222656,4.442236423492432,0.8917189836502075,1.2920732498168945,2.3217945098876953,3.814816951751709,-7.848787307739258,8.897592544555664,-3.4553027153015137,5.480021953582764,1.0609041452407837,0.7680751085281372,2.8315460681915283,4.362825870513916,-3.924393653869629,3.879796266555786,-1.7276513576507568,-0.06998896598815918,0.5304520726203918,3.421037435531616,2.156773090362549,0.03999999910593033,0.03999999910593033
isaac,policy,2,0.04,-0.06113189086318016,0.07879140973091125,-0.05893634632229805,0.07398128509521484,-0.01012186799198389,0.08754158020019531,0.1038280725479126,-8.95373523235321e-05,0.0,-1.6096711158752441,2.174997568130493,-2.174999952316284,2.1622095108032227,2.6099939346313477,2.6100003719329834,2.535325050354004,0.017925024032592773,0.03195475414395332,0.3999994397163391,-0.09999937564134598,0.021999921649694443,0.5,0.0,0.30000001192092896,1.0,0.0,0.0,0.0,0.0,-7.848787307739258,8.897592544555664,-3.4553027153015137,5.480021953582764,1.0609041452407837,0.7680751085281372,2.8315460681915283,4.362825870513916,-6.95407772064209,7.474389553070068,-0.12226515263319016,4.846482753753662,-1.850746512413025,-2.0791993141174316,2.3696396350860596,6.127689361572266,-3.477038860321045,3.1681947708129883,-0.06113257631659508,-0.38675856590270996,-0.9253732562065125,1.9974002838134766,1.9258198738098145,0.03999999910593033,0.03999999910593033
isaac,policy,3,0.06,-0.10577110946178436,0.121967613697052,-0.0971621721982956,0.11803412437438965,-0.05709387734532356,0.04574227333068848,0.154044508934021,0.0,0.0,-2.1750028133392334,2.172656774520874,-1.7260819673538208,2.1570942401885986,-2.1130170822143555,-2.4994022846221924,2.2893223762512207,0.017340438440442085,0.0025371545925736427,0.39999938011169434,-0.0999993309378624,0.0219999011605978,0.5,0.0,0.30000001192092896,1.0,0.0,0.0,0.0,0.0,-6.95407772064209,7.474389553070068,-0.12226515263319016,4.846482753753662,-1.850746512413025,-2.0791993141174316,2.3696396350860596,6.127689361572266,-5.044869899749756,7.1343913078308105,2.56713604927063,3.8680479526519775,-2.0250344276428223,-2.6595661640167236,2.026068925857544,8.097390174865723,-2.522434949874878,2.9981956481933594,1.283568024635315,-0.8759759664535522,-1.0125172138214111,1.7072168588638306,1.7540345191955566,0.03999999910593033,0.03999999910593033
isaac,policy,4,0.08,-0.1585274189710617,0.16562572121620178,-0.0907171219587326,0.1613750457763672,-0.06857342272996902,-0.005040407180786133,0.19133120775222778,0.0,-0.00010463222861289978,-2.175001382827759,2.1674559116363525,1.1961065530776978,2.1152217388153076,1.495288610458374,-2.398348093032837,0.6284961104393005,0.012499545700848103,0.004797970410436392,0.39999938011169434,-0.0999993234872818,0.021999893710017204,0.5,0.0,0.30000001192092896,1.0,0.0,0.0,0.0,0.0,-5.044869899749756,7.1343913078308105,2.56713604927063,3.8680479526519775,-2.0250344276428223,-2.6595661640167236,2.026068925857544,8.097390174865723,-4.816965579986572,6.239809513092041,1.708624243736267,2.8330094814300537,-2.50312876701355,-2.7362711429595947,0.971748411655426,9.555290222167969,-2.408482789993286,2.5509047508239746,0.8543121218681335,-1.3934952020645142,-1.251564383506775,1.668864369392395,1.2268742322921753,0.03999999910593033,0.03999999910593033
isaac,policy,5,0.1,-0.20800942182540894,0.20926031470298767,-0.051309939473867416,0.20499157905578613,-0.10066606104373932,-0.05672144889831543,0.24351000785827637,0.0,-0.000165548175573349,-2.174999713897705,2.175001382827759,2.1453850269317627,2.174565553665161,-1.5902786254882812,-2.5857961177825928,2.595918655395508,0.011089115403592587,-0.0003861929289996624,0.39999935030937195,-0.0999993309378624,0.02199988067150116,0.5,0.0,0.30000001192092896,1.0,0.0,0.0,0.0,0.0,-4.816965579986572,6.239809513092041,1.708624243736267,2.8330094814300537,-2.50312876701355,-2.7362711429595947,0.971748411655426,9.555290222167969,-4.829820156097412,7.162120342254639,1.0510183572769165,2.49462890625,-2.588765859603882,-2.7810707092285156,-0.501991868019104,10.166955947875977,-2.414910078048706,3.0120601654052734,0.5255091786384583,-1.562685489654541,-1.294382929801941,1.6464645862579346,0.4900040626525879,0.03999999910593033,0.03999999910593033
isaac,policy,6,0.12,-0.25181952118873596,0.25288596749305725,-0.007854657247662544,0.24824881553649902,-0.15031099319458008,-0.10882115364074707,0.19130706787109375,0.0,0.0,-2.169976234436035,2.1749706268310547,2.175004482269287,2.1750056743621826,-2.6097400188446045,-2.6096737384796143,-2.6100001335144043,0.008778435178101063,0.025277743116021156,0.39999935030937195,-0.0999993160367012,0.021999910473823547,0.5,0.0,0.30000001192092896,1.0,0.0,0.0,0.0,0.0,-4.829820156097412,7.162120342254639,1.0510183572769165,2.49462890625,-2.588765859603882,-2.7810707092285156,-0.501991868019104,10.166955947875977,-4.85800838470459,6.575274467468262,0.8712573051452637,1.776077389717102,-1.8638948202133179,-2.434788942337036,0.28725674748420715,11.18615436553955,-2.429004192352295,2.718637228012085,0.43562865257263184,-1.9219613075256348,-0.9319474101066589,1.8196054697036743,0.8846283555030823,0.03999999910593033,0.03999999910593033
isaac,policy,7,0.14,-0.2943311333656311,0.29652976989746094,0.03566640242934227,0.2912170886993408,-0.20247256755828857,-0.1610546112060547,0.17473524808883667,0.0,0.0,-2.1265952587127686,2.1749846935272217,2.175029993057251,2.174907922744751,-2.610002040863037,-2.6099185943603516,-0.632020115852356,0.002936319913715124,0.013178550638258457,0.39999938011169434,-0.0999993309378624,0.021999886259436607,0.5,0.0,0.30000001192092896,1.0,0.0,0.0,0.0,0.0,-4.85800838470459,6.575274467468262,0.8712573051452637,1.776077389717102,-1.8638948202133179,-2.434788942337036,0.28725674748420715,11.18615436553955,-4.256628036499023,6.516761779785156,0.8922061324119568,1.1543521881103516,-1.482022762298584,-3.033489942550659,0.1064494252204895,11.088801383972168,-2.1283140182495117,2.6893808841705322,0.4461030662059784,-2.2328238487243652,-0.741011381149292,1.5202549695968628,0.794224739074707,0.03999999910593033,0.03999999910593033
isaac,policy,8,0.16,-0.33647406101226807,0.3401581645011902,0.07918854802846909,0.33229970932006836,-0.25434610247612,-0.21323370933532715,0.13532572984695435,0.0,0.0,-2.114738702774048,2.1752607822418213,2.175074815750122,2.0940165519714355,-2.5966591835021973,-2.609997034072876,-1.6646971702575684,0.0056020901538431644,0.019743893295526505,0.39999935030937195,-0.0999993309378624,0.021999867632985115,0.5,0.0,0.30000001192092896,1.0,0.0,0.0,0.0,0.0,-4.256628036499023,6.516761779785156,0.8922061324119568,1.1543521881103516,-1.482022762298584,-3.033489942550659,0.1064494252204895,11.088801383972168,-3.946070432662964,5.853170871734619,0.8368942737579346,0.37072622776031494,-0.9271472692489624,-3.441046714782715,0.32729265093803406,11.241679191589355,-1.973035216331482,2.3575854301452637,0.4184471368789673,-2.6246368885040283,-0.4635736346244812,1.316476583480835,0.9046463370323181,0.03999999910593033,0.03999999910593033
isaac,policy,9,0.18,-0.37854498624801636,0.38320183753967285,0.12264569103717804,0.36243200302124023,-0.30714350938796997,-0.25517964363098145,0.14334774017333984,0.0,0.0,-2.1376960277557373,2.113011598587036,2.1730849742889404,1.1067060232162476,-2.6100013256073,-1.5823588371276855,0.4000779092311859,0.0004965681582689285,0.005134910810738802,0.39999935030937195,-0.0999993309378624,0.021999916061758995,0.5,0.0,0.30000001192092896,1.0,0.0,0.0,0.0,0.0,-3.946070432662964,5.853170871734619,0.8368942737579346,0.37072622776031494,-0.9271472692489624,-3.441046714782715,0.32729265093803406,11.241679191589355,-3.495821714401245,5.932962894439697,0.7185239195823669,0.5064394474029541,-0.13836951553821564,-3.7958953380584717,-0.2730899453163147,10.569408416748047,-1.7479108572006226,2.3974814414978027,0.35926195979118347,-2.5567803382873535,-0.06918475776910782,1.1390522718429565,0.6044549942016602,0.03999999910593033,0.03999999910593033
isaac,policy,10,0.2,-0.4172610938549042,0.4264071583747864,0.1661672294139862,0.3722269535064697,-0.26520514488220215,-0.29383397102355957,0.09114855527877808,-3.471970558166504e-06,0.0,-2.0171539783477783,2.138949394226074,2.173879384994507,0.21917931735515594,2.608247995376587,-1.8463884592056274,-2.6100006103515625,-0.00042798026697710156,0.001992043573409319,0.39999935030937195,-0.0999993234872818,0.021999895572662354,0.5,0.0,0.30000001192092896,1.0,0.0,0.0,0.0,0.0,-3.495821714401245,5.932962894439697,0.7185239195823669,0.5064394474029541,-0.13836951553821564,-3.7958953380584717,-0.2730899453163147,10.569408416748047,-3.434096336364746,5.324361324310303,0.45100027322769165,0.6324406266212463,-0.07437752187252045,-2.775438070297241,-0.5087094306945801,9.372122764587402,-1.717048168182373,2.0931806564331055,0.22550013661384583,-2.4937796592712402,-0.03718876093626022,1.6492809057235718,0.48664528131484985,0.03999999910593033,0.03999999910593033
isaac,policy,11,0.22,-0.45757755637168884,0.46984079480171204,0.209249347448349,0.3718869686126709,-0.2133450210094452,-0.3432784080505371,0.03894913196563721,0.0,0.0,-2.006326198577881,2.1637165546417236,2.0861642360687256,-0.18075545132160187,2.6089985370635986,-2.339437961578369,-2.6100003719329834,0.00023648259229958057,0.0035182274878025055,0.39999938011169434,-0.0999993309378624,0.021999871358275414,0.5,0.0,0.30000001192092896,1.0,0.0,0.0,0.0,0.0,-3.434096336364746,5.324361324310303,0.45100027322769165,0.6324406266212463,-0.07437752187252045,-2.775438070297241,-0.5087094306945801,9.372122764587402,-3.2447004318237305,5.747954368591309,0.1877603381872177,1.0527307987213135,0.1728644222021103,-1.3043564558029175,-1.327769160270691,7.934436798095703,-1.6223502159118652,2.3049771785736084,0.09388016909360886,-2.283634662628174,0.08643221110105515,2.384821653366089,0.07711541652679443,0.03999999910593033,0.03999999910593033
isaac,policy,12,0.24,-0.4917764961719513,0.5135927796363831,0.24236534535884857,0.36678647994995117,-0.16101954877376556,-0.3954892158508301,-0.013256609439849854,0.0,0.0,-1.6810519695281982,2.1753904819488525,1.4612455368041992,-0.20801082253456116,2.6144721508026123,-2.609985828399658,-2.607764720916748,-0.002085995627567172,0.003255018498748541,0.39999935030937195,-0.0999993234872818,0.021999917924404144,0.5,0.0,0.30000001192092896,1.0,0.0,0.0,0.0,0.0,-3.2447004318237305,5.747954368591309,0.1877603381872177,1.0527307987213135,0.1728644222021103,-1.3043564558029175,-1.327769160270691,7.934436798095703,-2.536309242248535,6.2140936851501465,0.5381626486778259,1.4633960723876953,0.26602181792259216,0.22292205691337585,-2.1081533432006836,6.533128261566162,-1.2681546211242676,2.5380468368530273,0.26908132433891296,-2.0783019065856934,0.13301090896129608,3.148460865020752,-0.3130766749382019,0.03999999910593033,0.03999999910593033
isaac,policy,13,0.26,-0.5318590402603149,0.5574741363525391,0.2756083607673645,0.353452205657959,-0.10715042799711227,-0.35614776611328125,-0.06456607580184937,0.0,0.0,-1.9653019905090332,2.1750683784484863,1.583377480506897,-0.3594009280204773,2.6100504398345947,1.5194015502929688,-2.5356638431549072,0.00039063551230356097,0.002100315410643816,0.39999938011169434,-0.0999993309378624,0.021999889984726906,0.5,0.0,0.30000001192092896,1.0,0.0,0.0,0.0,0.0,-2.536309242248535,6.2140936851501465,0.5381626486778259,1.4633960723876953,0.26602181792259216,0.22292205691337585,-2.1081533432006836,6.533128261566162,-2.1598095893859863,4.840278148651123,0.492917001247406,0.5470734238624573,0.21660199761390686,-0.8845685124397278,-3.0982439517974854,5.012434959411621,-1.0799047946929932,1.8511390686035156,0.246458500623703,-2.5364632606506348,0.10830099880695343,2.5947155952453613,-0.8081219792366028,0.03999999910593033,0.03999999910593033
isaac,policy,14,0.28,-0.5691641569137573,0.6008098125457764,0.3042795956134796,0.34546685218811035,-0.055786147713661194,-0.37154459953308105,-0.11676675081253052,0.0,0.0,-1.8418501615524292,2.159412145614624,1.320897102355957,-0.47495052218437195,2.60359787940979,-1.3047245740890503,-2.6100242137908936,0.003116757608950138,0.00275837117806077,0.39999935030937195,-0.0999993234872818,0.021999938413500786,0.5,0.0,0.30000001192092896,1.0,0.0,0.0,0.0,0.0,-2.1598095893859863,4.840278148651123,0.492917001247406,0.5470734238624573,0.21660199761390686,-0.8845685124397278,-3.0982439517974854,5.012434959411621,-0.7517077922821045,5.252641201019287,0.9790823459625244,1.0485656261444092,0.6925384402275085,0.5593926310539246,-4.254874229431152,3.581665277481079,-0.37585389614105225,2.0573205947875977,0.4895411729812622,-2.285717010498047,0.3462692201137543,3.3166961669921875,-1.386437177658081,0.03999999910593033,0.03999999910593033
isaac,policy,15,0.3,-0.5778924822807312,0.644597053527832,0.3046983480453491,0.32706689834594727,-0.0026730895042419434,-0.32748889923095703,-0.1643974781036377,0.0,0.0,-0.21364262700080872,2.1750102043151855,-0.05935429036617279,-0.7326859831809998,2.543923854827881,1.748497724533081,-2.2909655570983887,0.0022229740861803293,0.0008050088654272258,0.39999938011169434,-0.0999993309378624,0.021999914199113846,0.5,0.0,0.30000001192092896,1.0,0.0,0.0,0.0,0.0,-0.7517077922821045,5.252641201019287,0.9790823459625244,1.0485656261444092,0.6925384402275085,0.5593926310539246,-4.254874229431152,3.581665277481079,0.05279088765382767,4.202764987945557,0.99521803855896,0.3991904556751251,1.4030358791351318,-0.19850057363510132,-5.733551025390625,2.662777900695801,0.026395443826913834,1.5323824882507324,0.49760901927948,-2.6104047298431396,0.7015179395675659,2.9377496242523193,-2.1257755756378174,0.03999999910593033,0.03999999910593033
isaac,policy,16,0.32,-0.5483922958374023,0.6882691979408264,0.27343329787254333,0.3053748607635498,0.04957800358533859,-0.27564311027526855,-0.2137230634689331,0.0,-8.58306884765625e-06,1.525844931602478,2.175006628036499,-1.3923383951187134,-1.2007293701171875,2.606884479522705,2.5991597175598145,-2.385016441345215,0.0010135596385225654,-0.0008935318328440189,0.39999935030937195,-0.0999993309378624,0.02199990302324295,0.5,0.0,0.30000001192092896,1.0,0.0,0.0,0.0,0.0,0.05279088765382767,4.202764987945557,0.99521803855896,0.3991904556751251,1.4030358791351318,-0.19850057363510132,-5.733551025390625,2.662777900695801,0.7202430963516235,4.239292621612549,0.6892260909080505,0.3447836637496948,3.066350221633911,-0.06901297718286514,-6.840062141418457,2.018867254257202,0.36012154817581177,1.5506463050842285,0.34461304545402527,-2.637608051300049,1.5331751108169556,3.002493381500244,-2.6790311336517334,0.03999999910593033,0.03999999910593033
isaac,policy,17,0.34,-0.5113760232925415,0.7318829894065857,0.24102061986923218,0.27669620513916016,0.10171046853065491,-0.22343969345092773,-0.2646797001361847,0.0,-7.76723027229309e-06,1.8465607166290283,2.1750049591064453,-1.4862154722213745,-1.5317589044570923,2.6070499420166016,2.6013846397399902,-2.4719321727752686,0.0006732812034897506,-0.00044536159839481115,0.39999935030937195,-0.0999993160367012,0.021999889984726906,0.5,0.0,0.30000001192092896,1.0,0.0,0.0,0.0,0.0,0.7202430963516235,4.239292621612549,0.6892260909080505,0.3447836637496948,3.066350221633911,-0.06901297718286514,-6.840062141418457,2.018867254257202,1.565529465675354,4.643460750579834,0.43071460723876953,0.7230223417282104,4.336688995361328,0.8353525400161743,-7.951537609100342,0.7815364599227905,0.782764732837677,1.752730369567871,0.21535730361938477,-2.448488712310791,2.168344497680664,3.4546761512756348,-3.234768867492676,0.03999999910593033,0.03999999910593033
isaac,policy,18,0.36,-0.46996286511421204,0.7755782604217529,0.20731009542942047,0.24642586708068848,0.15333880484104156,-0.17510581016540527,-0.31384262442588806,0.0,0.0,2.054396867752075,2.1750054359436035,-1.6183186769485474,-1.3692423105239868,2.495542049407959,2.0333504676818848,-2.2789130210876465,0.00046673466567881405,-0.000638321042060852,0.39999938011169434,-0.0999993234872818,0.021999932825565338,0.5,0.0,0.30000001192092896,1.0,0.0,0.0,0.0,0.0,1.565529465675354,4.643460750579834,0.43071460723876953,0.7230223417282104,4.336688995361328,0.8353525400161743,-7.951537609100342,0.7815364599227905,2.5530807971954346,4.7106733322143555,0.28579217195510864,0.49378344416618347,5.445234775543213,1.8504886627197266,-9.137879371643066,-0.7918827533721924,1.2765403985977173,1.7863366603851318,0.14289608597755432,-2.563108205795288,2.7226173877716064,3.9622442722320557,-3.827939748764038,0.0,0.0
isaac,policy,19,0.38,-0.4277268648147583,0.8191957473754883,0.17415954172611237,0.216353178024292,0.2054457813501358,-0.12590789794921875,-0.3640080988407135,-0.004194073379039764,-0.004188716411590576,1.9292720556259155,2.175001621246338,-1.4414044618606567,-1.45628023147583,2.6006147861480713,2.252580404281616,-2.467528820037842,-0.20015327632427216,-0.19998736679553986,0.3999995291233063,-0.09999947249889374,0.02199995331466198,0.5,0.0,0.30000001192092896,1.0,0.0,0.0,0.0,0.0,2.5530807971954346,4.7106733322143555,0.28579217195510864,0.49378344416618347,5.445234775543213,1.8504886627197266,-9.137879371643066,-0.7918827533721924,3.7791903018951416,4.819300651550293,0.3297158479690552,0.3393661677837372,5.721320152282715,2.622224807739258,-9.89087200164795,-1.2040249109268188,1.8895951509475708,1.8406503200531006,0.1648579239845276,-2.640316963195801,2.8606600761413574,4.348112106323242,-4.2044358253479,0.0,0.0
isaac,policy,20,0.4,-0.3884756863117218,0.8628163933753967,0.146051824092865,0.18447208404541016,0.25792092084884644,-0.07471323013305664,-0.41451168060302734,-0.008363626897335052,-0.00835186243057251,1.5778179168701172,2.175004005432129,-0.9403793215751648,-1.5964252948760986,2.6096649169921875,2.476919651031494,-2.4668490886688232,-0.20028354227542877,-0.2000369131565094,0.3999995291233063,-0.09999947249889374,0.021999966353178024,0.5,0.0,0.30000001192092896,1.0,0.0,0.0,0.0,0.0,3.7791903018951416,4.819300651550293,0.3297158479690552,0.3393661677837372,5.721320152282715,2.622224807739258,-9.89087200164795,-1.2040249109268188,4.415457248687744,4.29494047164917,-0.11588695645332336,0.632878303527832,5.735651016235352,2.841390371322632,-10.588951110839844,-2.09112286567688,2.207728624343872,1.578470230102539,-0.05794347822666168,-2.493560791015625,2.867825508117676,4.457695007324219,-4.553475379943848,0.0,0.0
isaac,policy,21,0.42,-0.34298062324523926,0.906424343585968,0.11039578914642334,0.15589475631713867,0.30306458473205566,-0.03260922431945801,-0.45738232135772705,-0.012507302686572075,-0.01247510127723217,2.1793389320373535,2.1751744747161865,-1.8068114519119263,-1.197933316230774,1.848631501197815,1.5871801376342773,-1.7292232513427734,-0.20029661059379578,-0.202109694480896,0.398965448141098,-0.10164134204387665,0.022622954100370407,0.5,0.0,0.30000001192092896,1.0,0.0,0.0,0.0,0.0,4.415457248687744,4.29494047164917,-0.11588695645332336,0.632878303527832,5.735651016235352,2.841390371322632,-10.588951110839844,-2.09112286567688,5.321053981781006,3.253082513809204,0.08270937204360962,1.1235560178756714,5.784759044647217,3.5105457305908203,-11.161613464355469,-3.1742968559265137,2.660526990890503,1.0575412511825562,0.04135468602180481,-2.2482218742370605,2.8923795223236084,4.792272567749023,-4.83980655670166,0.0,0.0
isaac,policy,22,0.44,-0.30049729347229004,0.9502726793289185,0.07789266109466553,0.13853001594543457,0.3514724671840668,0.007773637771606445,-0.49426573514938354,-0.01642541028559208,-0.015580257400870323,1.9134669303894043,2.1750035285949707,-1.330847144126892,-0.3947382867336273,2.1542577743530273,2.052441120147705,-1.134422779083252,-0.16651366651058197,0.1588537096977234,0.39699727296829224,-0.10257348418235779,0.02367893047630787,0.5,0.0,0.30000001192092896,1.0,0.0,0.0,0.0,0.0,5.321053981781006,3.253082513809204,0.08270937204360962,1.1235560178756714,5.784759044647217,3.5105457305908203,-11.161613464355469,-3.1742968559265137,6.2156982421875,-0.13579103350639343,-0.6333106160163879,1.0921096801757812,6.229108810424805,3.309307336807251,-13.198993682861328,-6.732867240905762,3.10784912109375,-0.6368955373764038,-0.31665530800819397,-2.2639451026916504,3.1145544052124023,4.691653728485107,-5.85849666595459,0.0,0.0
isaac,policy,23,0.46,-0.2525995373725891,0.9534822702407837,0.03880752623081207,0.13421845436096191,0.3666873276233673,0.03955960273742676,-0.5098456144332886,-0.02001226134598255,-0.013673802837729454,2.1842575073242188,-1.0322109460830688,-1.641782522201538,-0.0477694533765316,-0.16083219647407532,-1.3323779106140137,-0.9547420740127563,0.21045257151126862,-0.11407656967639923,0.3978726267814636,-0.10414920002222061,0.023385968059301376,0.5,0.0,0.30000001192092896,1.0,0.0,0.0,0.0,0.0,6.2156982421875,-0.13579103350639343,-0.6333106160163879,1.0921096801757812,6.229108810424805,3.309307336807251,-13.198993682861328,-6.732867240905762,5.646744728088379,-5.057456970214844,-1.019593358039856,4.752441883087158,4.544933795928955,4.39311408996582,-13.472582817077637,-11.163498878479004,2.8233723640441895,-3.0977284908294678,-0.509796679019928,-0.4337790012359619,2.2724668979644775,5.233556747436523,-5.995291233062744,0.0,0.0
isaac,policy,24,0.48,-0.20514698326587677,0.930494487285614,-0.002333306707441807,0.15157294273376465,0.3936707377433777,0.014932632446289062,-0.5223685503005981,-0.019078901037573814,-0.014571616426110268,2.175002336502075,-1.2261199951171875,-2.133289337158203,1.5659676790237427,0.942570686340332,-2.1115193367004395,0.32270047068595886,0.03954751417040825,0.03305298089981079,0.4090961515903473,-0.10830473899841309,0.03334419056773186,0.5,0.0,0.30000001192092896,1.0,0.0,0.0,0.0,0.0,5.646744728088379,-5.057456970214844,-1.019593358039856,4.752441883087158,4.544933795928955,4.39311408996582,-13.472582817077637,-11.163498878479004,3.675307273864746,-7.2231950759887695,1.6761375665664673,3.3599703311920166,3.2222397327423096,2.1348938941955566,-13.640918731689453,-11.799810409545898,1.837653636932373,-4.180597305297852,0.8380687832832336,-1.1300147771835327,1.6111198663711548,4.104446887969971,-6.079459190368652,0.0,0.0
isaac,policy,25,0.5,-0.19199532270431519,0.9036377668380737,0.006838931702077389,0.18984007835388184,0.44782885909080505,0.03495049476623535,-0.5489015579223633,-0.01852584257721901,-0.015074782073497772,-0.4679500460624695,-1.3868604898452759,2.1761064529418945,2.1750049591064453,2.598646402359009,2.1152756214141846,-0.8095360398292542,-0.0028789755888283253,0.04654928669333458,0.44106268882751465,-0.11027402430772781,0.05685196816921234,0.5,0.0,0.30000001192092896,1.0,0.0,0.0,0.0,0.0,3.675307273864746,-7.2231950759887695,1.6761375665664673,3.3599703311920166,3.2222397327423096,2.1348938941955566,-13.640918731689453,-11.799810409545898,1.3160995244979858,-6.938268661499023,1.3574854135513306,1.7018183469772339,2.3688299655914307,-3.718733787536621,-13.502224922180176,-13.491076469421387,0.6580497622489929,-4.038134574890137,0.6787427067756653,-1.9590907096862793,1.1844149827957153,1.1776330471038818,-6.010112285614014,0.0,0.0
isaac,policy,26,0.52,-0.16610883176326752,0.8620657920837402,0.020377986133098602,0.2333965301513672,0.4998135268688202,-0.014683246612548828,-0.5912124514579773,-0.018324878066778183,-0.015218183398246765,1.600049376487732,-2.105912446975708,0.880301296710968,2.1750175952911377,2.6100003719329834,-2.1080617904663086,-1.6076393127441406,0.014208296313881874,-0.0018037278205156326,0.46982258558273315,-0.09415845572948456,0.08258630335330963,0.5,0.0,0.30000001192092896,1.0,0.0,0.0,0.0,0.0,1.3160995244979858,-6.938268661499023,1.3574854135513306,1.7018183469772339,2.3688299655914307,-3.718733787536621,-13.502224922180176,-13.491076469421387,-1.0865939855575562,-6.521173477172852,-1.866562843322754,2.7479124069213867,0.9899613261222839,-6.56707763671875,-13.049802780151367,-15.758471488952637,-0.5432969927787781,-3.8295867443084717,-0.933281421661377,-1.4360437393188477,0.49498066306114197,-0.24653887748718262,-5.783901214599609,0.0,0.0
isaac,policy,27,0.54,-0.10732484608888626,0.8188610672950745,-0.014668607152998447,0.2765927314758301,0.4845469295978546,-0.06722903251647949,-0.6246314644813538,-0.018504956737160683,-0.014995068311691284,2.176814079284668,-2.1715331077575684,-1.559251308441162,2.1565980911254883,-0.9404749274253845,-2.4414477348327637,-2.610004425048828,0.05046399310231209,-0.02303759567439556,0.4969252049922943,-0.08089511096477509,0.11177004873752594,0.5,0.0,0.30000001192092896,1.0,0.0,0.0,0.0,0.0,-1.0865939855575562,-6.521173477172852,-1.866562843322754,2.7479124069213867,0.9899613261222839,-6.56707763671875,-13.049802780151367,-15.758471488952637,-1.6789289712905884,-6.0675225257873535,1.0126104354858398,2.900798797607422,1.8851442337036133,-9.028660774230957,-12.315692901611328,-17.416126251220703,-0.8394644856452942,-3.6027612686157227,0.5063052177429199,-1.35960054397583,0.9425721168518066,-1.4773304462432861,-5.41684627532959,0.0,0.0
isaac,policy,28,0.56,-0.13531407713890076,0.7755964994430542,0.02794688194990158,0.3199293613433838,0.5289890170097351,-0.1187596321105957,-0.672615110874176,-0.018482021987438202,-0.015041999518871307,-1.791965365409851,-2.165588855743408,2.17500376701355,2.1738877296447754,1.9276584386825562,-2.595491886138916,-2.1542739868164062,0.028428688645362854,0.0018733520992100239,0.5202091336250305,-0.07128950953483582,0.14276793599128723,0.5,0.0,0.30000001192092896,1.0,0.0,0.0,0.0,0.0,-1.6789289712905884,-6.0675225257873535,1.0126104354858398,2.900798797607422,1.8851442337036133,-9.028660774230957,-12.315692901611328,-17.416126251220703,-2.065333604812622,-4.896059036254883,2.4487292766571045,1.850412130355835,1.7652897834777832,-12.540398597717285,-11.980443000793457,-19.32415008544922,-1.032666802406311,-3.0170295238494873,1.2243646383285522,-1.8847938776016235,0.8826448917388916,-3.23319935798645,-5.249221324920654,0.0,0.0
isaac,policy,29,0.58,-0.17411227524280548,0.7326090335845947,0.07199352979660034,0.36303186416625977,0.5814272165298462,-0.1712503433227539,-0.7232043743133545,-0.01849612593650818,-0.015051612630486488,-2.019819736480713,-2.1550323963165283,2.1747994422912598,2.1750879287719727,2.6100006103515625,-2.5876882076263428,-2.506412982940674,0.03132414445281029,0.0028759301640093327,0.5405018329620361,-0.06560617685317993,0.17592866718769073,0.5,0.0,0.30000001192092896,1.0,0.0,0.0,0.0,0.0,-2.065333604812622,-4.896059036254883,2.4487292766571045,1.850412130355835,1.7652897834777832,-12.540398597717285,-11.980443000793457,-19.32415008544922,-1.8646458387374878,-3.657134771347046,3.3465754985809326,0.11915991455316544,0.4067932367324829,-15.712599754333496,-11.551582336425781,-21.0693359375,-0.9323229193687439,-2.3975672721862793,1.6732877492904663,-2.750420093536377,0.20339661836624146,-4.819299697875977,-5.034790992736816,0.0,0.0
isaac,policy,30,0.6,-0.2208637148141861,0.6890801787376404,0.11486051976680756,0.39246606826782227,0.536117434501648,-0.21116232872009277,-0.7435585260391235,-0.018457910045981407,-0.015062898397445679,-2.179201602935791,-2.17501163482666,2.0524797439575195,0.9630548357963562,-2.5014941692352295,-1.0526484251022339,-2.5451624393463135,0.0240853913128376,0.003793140407651663,0.5547530055046082,-0.06276360899209976,0.2076883465051651,0.5,0.0,0.30000001192092896,1.0,0.0,0.0,0.0,0.0,-1.8646458387374878,-3.657134771347046,3.3465754985809326,0.11915991455316544,0.4067932367324829,-15.712599754333496,-11.551582336425781,-21.0693359375,-1.27199125289917,-2.617783308029175,3.659400701522827,-0.28407853841781616,-0.8283337354660034,-17.48203468322754,-11.718698501586914,-21.917001724243164,-0.635995626449585,-1.8778916597366333,1.8297003507614136,-2.9520392417907715,-0.4141668677330017,-5.704017639160156,-5.118349075317383,0.0,0.0
isaac,policy,31,0.62,-0.26677554845809937,0.645277202129364,0.15844933688640594,0.3970813751220703,0.4881228804588318,-0.23421311378479004,-0.7957653999328613,-0.018300142139196396,-0.015029853209853172,-2.18070650100708,-2.1750190258026123,2.163567066192627,-0.4208008348941803,-2.0184104442596436,0.04687657952308655,-2.6046624183654785,0.032361891120672226,0.007618549279868603,0.5587136149406433,-0.059869520366191864,0.2312450110912323,0.5,0.0,0.30000001192092896,1.0,0.0,0.0,0.0,0.0,-1.27199125289917,-2.617783308029175,3.659400701522827,-0.28407853841781616,-0.8283337354660034,-17.48203468322754,-11.718698501586914,-21.917001724243164,-1.0533949136734009,-2.0843567848205566,3.3132288455963135,0.08942121267318726,-2.0205564498901367,-17.371349334716797,-12.317255973815918,-22.90835189819336,-0.5266974568367004,-1.6111783981323242,1.6566144227981567,-2.765289306640625,-1.0102782249450684,-5.648674964904785,-5.417627811431885,0.0,0.0
isaac,policy,32,0.64,-0.3127867579460144,0.6015787124633789,0.20182983577251434,0.3820812702178955,0.4396650791168213,-0.26465320587158203,-0.8479729890823364,-0.018348328769207,-0.014991290867328644,-2.1767640113830566,-2.175011396408081,2.1119444370269775,-1.1322976350784302,-2.095536947250366,-0.9399350881576538,-2.6061909198760986,0.030467772856354713,0.010529609397053719,0.5524048805236816,-0.05599924176931381,0.24413242936134338,0.5,0.0,0.30000001192092896,1.0,0.0,0.0,0.0,0.0,-1.0533949136734009,-2.0843567848205566,3.3132288455963135,0.08942121267318726,-2.0205564498901367,-17.371349334716797,-12.317255973815918,-22.90835189819336,-1.0051815509796143,-1.7874486446380615,3.060760974884033,1.118050456047058,-3.0233652591705322,-15.696961402893066,-12.928306579589844,-23.53933334350586,-0.5025907754898071,-1.4627243280410767,1.5303804874420166,-2.250974655151367,-1.5116826295852661,-4.811480522155762,-5.723153114318848,0.0,0.0
isaac,policy,33,0.66,-0.35940051078796387,0.5583868026733398,0.2452147752046585,0.36352968215942383,0.3881356120109558,-0.3167393207550049,-0.8984261155128479,-0.018491823226213455,-0.014873838052153587,-2.1750035285949707,-2.137848138809204,2.050290822982788,-0.7847944498062134,-2.5340051651000977,-2.6028707027435303,-2.4592130184173584,0.020180124789476395,0.017201649025082588,0.5405301451683044,-0.051025521010160446,0.25099730491638184,0.5,0.0,0.30000001192092896,1.0,0.0,0.0,0.0,0.0,-1.0051815509796143,-1.7874486446380615,3.060760974884033,1.118050456047058,-3.0233652591705322,-15.696961402893066,-12.928306579589844,-23.53933334350586,-0.5922914743423462,-1.1777279376983643,3.1224682331085205,1.3620468378067017,-3.830017328262329,-13.752571105957031,-13.353267669677734,-23.772991180419922,-0.2961457371711731,-1.157863974571228,1.5612341165542603,-2.128976583480835,-1.9150086641311646,-3.8392856121063232,-5.935633659362793,0.0,0.0
isaac,policy,34,0.68,-0.40314608812332153,0.5152677297592163,0.2886974513530731,0.3495919704437256,0.3398122191429138,-0.3692152500152588,-0.9492123126983643,-0.018522879108786583,-0.014847347512841225,-2.0518290996551514,-2.16428542137146,2.175002336502075,-0.4783928394317627,-2.268143892288208,-2.6024489402770996,-2.4701080322265625,0.019884251058101654,0.014814628288149834,0.5295311808586121,-0.04597761854529381,0.25877028703689575,0.5,0.0,0.30000001192092896,1.0,0.0,0.0,0.0,0.0,-0.5922914743423462,-1.1777279376983643,3.1224682331085205,1.3620468378067017,-3.830017328262329,-13.752571105957031,-13.353267669677734,-23.772991180419922,0.23176981508731842,-0.249770849943161,2.844755172729492,0.8834365010261536,-4.775885105133057,-12.119186401367188,-13.508753776550293,-23.947568893432617,0.11588490754365921,-0.6938854455947876,1.422377586364746,-2.368281602859497,-2.3879425525665283,-3.0225932598114014,-6.013376712799072,0.0,0.0
isaac,policy,35,0.7000000000000001,-0.4347340762615204,0.4718640446662903,0.33213305473327637,0.337066650390625,0.3038978576660156,-0.4169018268585205,-1.0012016296386719,-0.018467560410499573,-0.014916794374585152,-1.088965654373169,-2.1750099658966064,2.1666650772094727,-0.6392932534217834,-0.9898499846458435,-2.1425840854644775,-2.6100013256073,0.017038509249687195,0.014539388939738274,0.5195233821868896,-0.03634251281619072,0.2669195234775543,0.5,0.0,0.30000001192092896,1.0,0.0,0.0,0.0,0.0,0.23176981508731842,-0.249770849943161,2.844755172729492,0.8834365010261536,-4.775885105133057,-12.119186401367188,-13.508753776550293,-23.947568893432617,0.6627172231674194,0.5729912519454956,0.7755817174911499,0.790911078453064,-6.339255332946777,-9.745884895324707,-13.30513858795166,-24.258821487426758,0.3313586115837097,-0.2825043797492981,0.38779085874557495,-2.4145443439483643,-3.1696276664733887,-1.8359425067901611,-5.911569118499756,0.0,0.0
isaac,policy,36,0.72,-0.3965015113353729,0.4328799843788147,0.3179897367954254,0.32482361793518066,0.2547787129878998,-0.4679841995239258,-1.0512233972549438,-0.018475383520126343,-0.014808954671025276,1.9794673919677734,-1.8767530918121338,-0.6530976295471191,-0.5587245225906372,-2.432880401611328,-2.596343994140625,-2.499157667160034,0.030083943158388138,0.020549211651086807,0.5080949664115906,-0.021272888407111168,0.27279216051101685,0.5,0.0,0.30000001192092896,1.0,0.0,0.0,0.0,0.0,0.6627172231674194,0.5729912519454956,0.7755817174911499,0.790911078453064,-6.339255332946777,-9.745884895324707,-13.30513858795166,-24.258821487426758,1.9924910068511963,0.8870203495025635,-1.1124647855758667,1.1666635274887085,-8.067981719970703,-4.6811699867248535,-12.90757942199707,-24.30547332763672,0.9962455034255981,-0.12548983097076416,-0.5562323927879333,-2.226668119430542,-4.033990859985352,0.6964149475097656,-5.712789535522461,0.0,0.0
isaac,policy,37,0.74,-0.33373135328292847,0.4032861590385437,0.2747851014137268,0.3177964687347412,0.20318900048732758,-0.5205276012420654,-1.1034491062164307,-0.01855411008000374,-0.01472962275147438,2.178724765777588,-1.2603774070739746,-1.5875656604766846,-0.045912887901067734,-2.56058406829834,-2.6123414039611816,-2.610002279281616,0.021389417350292206,0.034212563186883926,0.49689748883247375,-0.00951655488461256,0.27695170044898987,0.5,0.0,0.30000001192092896,1.0,0.0,0.0,0.0,0.0,1.9924910068511963,0.8870203495025635,-1.1124647855758667,1.1666635274887085,-8.067981719970703,-4.6811699867248535,-12.90757942199707,-24.30547332763672,4.8299360275268555,1.0282256603240967,-0.7710732817649841,0.9042398929595947,-8.883129119873047,0.9870011210441589,-12.495505332946777,-24.136930465698242,2.4149680137634277,-0.05488717555999756,-0.38553664088249207,-2.357880115509033,-4.441564559936523,3.5305004119873047,-5.5067524909973145,0.0,0.0
isaac,policy,38,0.76,-0.28011855483055115,0.38658636808395386,0.2313021868467331,0.30612945556640625,0.15774089097976685,-0.4818096160888672,-1.1525079011917114,-0.018548082560300827,-0.014790002256631851,2.175006866455078,-0.6043382287025452,-1.9029444456100464,-0.3648832440376282,-2.5871951580047607,1.9220365285873413,-2.5990936756134033,0.03968996927142143,0.013683352619409561,0.4987078905105591,-0.006668807938694954,0.2847957909107208,0.5,0.0,0.30000001192092896,1.0,0.0,0.0,0.0,0.0,4.8299360275268555,1.0282256603240967,-0.7710732817649841,0.9042398929595947,-8.883129119873047,0.9870011210441589,-12.495505332946777,-24.136930465698242,7.361868858337402,0.6424382925033569,-1.2681248188018799,0.30463072657585144,-8.805718421936035,4.672072887420654,-12.303155899047852,-24.070636749267578,3.680934429168701,-0.24778085947036743,-0.6340624094009399,-2.657684564590454,-4.402859210968018,5.3730363845825195,-5.410577774047852,0.0,0.0
isaac,policy,39,0.78,-0.23311570286750793,0.3749749958515167,0.1877635419368744,0.28884363174438477,0.10534289479255676,-0.42984938621520996,-1.2047044038772583,-0.018406270071864128,-0.014879312366247177,2.174414873123169,-0.6300907731056213,-2.0943305492401123,-1.0747123956680298,-2.601536512374878,2.609506607055664,-2.6100013256073,0.036517105996608734,0.014613127335906029,0.4999743402004242,-0.006803516298532486,0.2894929349422455,0.5,0.0,0.30000001192092896,1.0,0.0,0.0,0.0,0.0,7.361868858337402,0.6424382925033569,-1.2681248188018799,0.30463072657585144,-8.805718421936035,4.672072887420654,-12.303155899047852,-24.070636749267578,9.25687026977539,0.6331167221069336,-1.7735108137130737,1.2293946743011475,-7.970250606536865,7.776319980621338,-12.340997695922852,-23.865314483642578,4.628435134887695,-0.2524416446685791,-0.8867554068565369,-2.1953024864196777,-3.9851253032684326,6.925159931182861,-5.429498672485352,0.0,0.0
isaac,policy,40,0.8,-0.18849438428878784,0.3678591251373291,0.1444208174943924,0.27396106719970703,0.053541041910648346,-0.396714448928833,-1.2545894384384155,-0.01844688691198826,-0.014890702441334724,2.1750032901763916,-0.1759725958108902,-2.1321206092834473,-0.2896157503128052,-2.589695930480957,0.7288959622383118,-2.38618540763855,0.032695356756448746,0.010988996364176273,0.4987892508506775,-0.006846455857157707,0.2904796004295349,0.5,0.0,0.30000001192092896,1.0,0.0,0.0,0.0,0.0,9.25687026977539,0.6331167221069336,-1.7735108137130737,1.2293946743011475,-7.970250606536865,7.776319980621338,-12.340997695922852,-23.865314483642578,10.452476501464844,0.357957661151886,-1.9613161087036133,0.9276869297027588,-6.751535415649414,9.389689445495605,-12.677995681762695,-23.837852478027344,5.226238250732422,-0.3900211751461029,-0.9806580543518066,-2.346156597137451,-3.375767707824707,7.731844902038574,-5.597997665405273,0.0,0.0
isaac,policy,41,0.8200000000000001,-0.14438027143478394,0.3661417067050934,0.1009613499045372,0.26386570930480957,0.0028284217696636915,-0.3606288433074951,-1.3030868768692017,-0.018476681783795357,-0.014881020411849022,2.1750009059906006,-0.09265491366386414,-2.1603281497955322,-0.35823309421539307,-2.59018611907959,1.3335306644439697,-2.3870396614074707,0.029798515141010284,0.01098179817199707,0.49956169724464417,-0.006465631537139416,0.29157546162605286,0.5799999833106995,-0.36000001430511475,0.11500000208616257,1.0,0.0,0.0,0.0,1.0,10.452476501464844,0.357957661151886,-1.9613161087036133,0.9276869297027588,-6.751535415649414,9.389689445495605,-12.677995681762695,-23.837852478027344,0.8395315408706665,11.637306213378906,-11.482696533203125,3.7594988346099854,-3.822483777999878,14.660277366638184,-11.404474258422852,-24.85477066040039,0.41976577043533325,5.249652862548828,-5.7413482666015625,-0.9302505254745483,-1.911241888999939,10.367138862609863,-4.961236953735352,0.0,0.0
isaac,policy,42,0.84,-0.10039817541837692,0.3998005986213684,0.05974118039011955,0.2959928512573242,-0.048308856785297394,-0.3536512851715088,-1.3527123928070068,-0.018579639494419098,-0.01479250192642212,2.175001382827759,2.173539161682129,-2.016322612762451,2.171297550201416,-2.574216365814209,0.47768598794937134,-2.424020767211914,0.042981188744306564,0.014703243970870972,0.5096439123153687,-0.005050777457654476,0.29077139496803284,0.5799999833106995,-0.36000001430511475,0.11500000208616257,1.0,0.0,0.0,0.0,1.0,0.8395315408706665,11.637306213378906,-11.482696533203125,3.7594988346099854,-3.822483777999878,14.660277366638184,-11.404474258422852,-24.85477066040039,-2.6132404804229736,9.098342895507812,-14.316679954528809,1.0928808450698853,-0.3183084726333618,14.574019432067871,-11.10653305053711,-25.416521072387695,-1.3066202402114868,3.9801714420318604,-7.158339977264404,-2.263559579849243,-0.1591542363166809,10.324009895324707,-4.8122663497924805,0.0,0.0
isaac,policy,43,0.86,-0.12521709501743317,0.4435041844844818,0.07699000090360641,0.33265185356140137,-0.09324829280376434,-0.31130361557006836,-1.4049019813537598,-0.01852097362279892,-0.014850115403532982,-2.1691153049468994,2.175027847290039,1.6500009298324585,1.8415852785110474,-1.7447576522827148,2.079671859741211,-2.6100008487701416,0.023416616022586823,0.011006554588675499,0.526392936706543,-0.008912893943488598,0.29127267003059387,0.5799999833106995,-0.36000001430511475,0.11500000208616257,1.0,0.0,0.0,0.0,1.0,-2.6132404804229736,9.098342895507812,-14.316679954528809,1.0928808450698853,-0.3183084726333618,14.574019432067871,-11.10653305053711,-25.416521072387695,-3.6758785247802734,8.651809692382812,-15.018562316894531,0.28503844141960144,2.3520607948303223,12.783985137939453,-11.301962852478027,-25.50501823425293,-1.8379392623901367,3.7569048404693604,-7.509281158447266,-2.667480707168579,1.1760303974151611,9.42899227142334,-4.9099812507629395,0.0,0.0
isaac,policy,44,0.88,-0.15320707857608795,0.4861031174659729,0.0935511440038681,0.3533792495727539,-0.043024636805057526,-0.2594490051269531,-1.456817865371704,-0.0184891726821661,-0.015005342662334442,-2.163813591003418,2.063408374786377,1.4437605142593384,0.6900837421417236,2.6005916595458984,2.610002040863037,-2.60079026222229,0.025206640362739563,0.0019928980618715286,0.5396233201026917,-0.015330525115132332,0.2870428264141083,0.5799999833106995,-0.36000001430511475,0.11500000208616257,1.0,0.0,0.0,0.0,1.0,-3.6758785247802734,8.651809692382812,-15.018562316894531,0.28503844141960144,2.3520607948303223,12.783985137939453,-11.301962852478027,-25.50501823425293,-4.00810432434082,8.27871036529541,-14.595858573913574,0.9539849758148193,3.517786741256714,12.014517784118652,-12.201956748962402,-25.06987953186035,-2.00405216217041,3.570355176925659,-7.297929286956787,-2.333007335662842,1.758893370628357,9.044259071350098,-5.359978199005127,0.0,0.0
isaac,policy,45,0.9,-0.18357640504837036,0.5297451615333557,0.10440077632665634,0.3661177158355713,-0.0014969126787036657,-0.21274662017822266,-1.5018380880355835,-0.0185124222189188,-0.014996135607361794,-2.1726245880126953,2.1750035285949707,1.0850237607955933,0.6566476225852966,1.9210456609725952,2.1074585914611816,-2.0839180946350098,0.025111107155680656,0.001542136538773775,0.5483295917510986,-0.02675721049308777,0.27716562151908875,0.5799999833106995,-0.36000001430511475,0.11500000208616257,1.0,0.0,0.0,0.0,1.0,-4.00810432434082,8.27871036529541,-14.595858573913574,0.9539849758148193,3.517786741256714,12.014517784118652,-12.201956748962402,-25.06987953186035,-4.417294502258301,7.849599361419678,-14.08868408203125,1.4550760984420776,4.054810523986816,11.585118293762207,-13.00737476348877,-24.487804412841797,-2.2086472511291504,3.355799674987793,-7.044342041015625,-2.0824618339538574,2.027405261993408,8.829559326171875,-5.7626872062683105,0.0,0.0
isaac,policy,46,0.92,-0.21524415910243988,0.573512077331543,0.11075962334871292,0.3814249038696289,0.03549299016594887,-0.18052124977111816,-1.5405821800231934,-0.018519217148423195,-0.01499130018055439,-2.177109479904175,2.1750123500823975,0.8099019527435303,1.068047285079956,1.3504270315170288,0.7700285315513611,-1.444262146949768,0.03491171821951866,-0.0021496396511793137,0.5550171732902527,-0.042084887623786926,0.2657527029514313,0.5799999833106995,-0.36000001430511475,0.11500000208616257,1.0,0.0,0.0,0.0,1.0,-4.417294502258301,7.849599361419678,-14.08868408203125,1.4550760984420776,4.054810523986816,11.585118293762207,-13.00737476348877,-24.487804412841797,-4.923929691314697,7.715113162994385,-13.695598602294922,1.3690024614334106,4.52467679977417,10.683978080749512,-13.697652816772461,-23.990392684936523,-2.4619648456573486,3.2885565757751465,-6.847799301147461,-2.1254987716674805,2.262338399887085,8.378989219665527,-6.107826232910156,0.0,0.0
isaac,policy,47,0.9400000000000001,-0.24776022136211395,0.6172140836715698,0.11396030336618423,0.3995342254638672,0.07659822702407837,-0.14668679237365723,-1.580418348312378,-0.018511245027184486,-0.014989892020821571,-2.1591408252716064,2.17500901222229,0.6130180954933167,1.1090278625488281,1.6738706827163696,1.1586265563964844,-1.627397894859314,0.038525164127349854,-0.0017340886406600475,0.5618654489517212,-0.060909174382686615,0.2555103003978729,0.5799999833106995,-0.36000001430511475,0.11500000208616257,1.0,0.0,0.0,0.0,1.0,-4.923929691314697,7.715113162994385,-13.695598602294922,1.3690024614334106,4.52467679977417,10.683978080749512,-13.697652816772461,-23.990392684936523,-5.240540504455566,7.513208389282227,-12.982056617736816,1.3409982919692993,4.737579345703125,9.694438934326172,-14.139731407165527,-23.41946792602539,-2.620270252227783,3.1876041889190674,-6.491028308868408,-2.139500856399536,2.3687896728515625,7.884219169616699,-6.3288655281066895,0.0,0.0
isaac,policy,48,0.96,-0.28095531463623047,0.6608455181121826,0.11418183892965317,0.418881893157959,0.12037207186222076,-0.10933303833007812,-1.6225051879882812,-0.018504738807678223,-0.014989113435149193,-2.13244891166687,2.1750071048736572,0.4162514805793762,1.128387451171875,1.8963688611984253,1.4359757900238037,-1.8327181339263916,0.03538872301578522,-0.0009745598072186112,0.5681664943695068,-0.08316119015216827,0.2458839863538742,0.5799999833106995,-0.36000001430511475,0.11500000208616257,1.0,0.0,0.0,0.0,1.0,-5.240540504455566,7.513208389282227,-12.982056617736816,1.3409982919692993,4.737579345703125,9.694438934326172,-14.139731407165527,-23.41946792602539,-5.621360778808594,7.306476593017578,-12.04999828338623,1.3361810445785522,4.797522068023682,8.531383514404297,-14.485904693603516,-22.764728546142578,-2.810680389404297,3.084238290786743,-6.024999141693115,-2.14190936088562,2.398761034011841,7.302691459655762,-6.501952171325684,0.0,0.0
isaac,policy,49,0.98,-0.31226834654808044,0.7044007182121277,0.10728488117456436,0.43930888175964355,0.16157366335391998,-0.0706477165222168,-1.6636250019073486,-0.018495934084057808,-0.014992235228419304,-2.1168150901794434,2.1750049591064453,0.11928089708089828,1.154960036277771,1.8020579814910889,1.5702006816864014,-1.8316365480422974,0.03439471498131752,-0.0009327877196483314,0.5729860067367554,-0.10955777764320374,0.23636750876903534,0.5799999833106995,-0.36000001430511475,0.11500000208616257,1.0,0.0,0.0,0.0,1.0,-5.621360778808594,7.306476593017578,-12.04999828338623,1.3361810445785522,4.797522068023682,8.531383514404297,-14.485904693603516,-22.764728546142578,-5.977583408355713,7.106046199798584,-10.744115829467773,1.3371723890304565,4.75563907623291,7.116313457489014,-14.997405052185059,-22.038131713867188,-2.9887917041778564,2.984023094177246,-5.372057914733887,-2.141413688659668,2.377819538116455,6.595156669616699,-6.757702350616455,0.0,0.0
isaac,policy,50,1.0,-0.3448207378387451,0.7479109764099121,0.09606514871120453,0.46036386489868164,0.20342876017093658,-0.030331134796142578,-1.7056348323822021,-0.018478967249393463,-0.015001973137259483,-2.118399143218994,2.1750035285949707,-0.15604567527770996,1.1653172969818115,1.8682507276535034,1.715164065361023,-1.909711480140686,0.0343148447573185,-0.0011083630379289389,0.5754970908164978,-0.1404385268688202,0.22675104439258575,0.5799999833106995,-0.36000001430511475,0.11500000208616257,1.0,0.0,0.0,0.0,1.0,-5.977583408355713,7.106046199798584,-10.744115829467773,1.3371723890304565,4.75563907623291,7.116313457489014,-14.997405052185059,-22.038131713867188,-6.292416095733643,6.83875036239624,-8.976502418518066,1.4000240564346313,4.55266809463501,5.3033857345581055,-15.832401275634766,-21.217378616333008,-3.1462080478668213,2.850375175476074,-4.488251209259033,-2.10998797416687,2.276334047317505,5.688693046569824,-7.175200462341309,0.0,0.0
isaac,policy,51,1.02,-0.37749505043029785,0.7914066910743713,0.07834324985742569,0.4824025630950928,0.24321506917476654,0.012441635131835938,-1.74656081199646,-0.018463969230651855,-0.015009365975856781,-2.1104555130004883,2.1750032901763916,-0.5112759470939636,1.2234644889831543,1.7556629180908203,1.8660465478897095,-1.8645633459091187,0.03670382872223854,-0.0019142612582072616,0.5750665664672852,-0.17629647254943848,0.21731171011924744,0.5799999833106995,-0.36000001430511475,0.11500000208616257,1.0,0.0,0.0,0.0,1.0,-6.292416095733643,6.83875036239624,-8.976502418518066,1.4000240564346313,4.55266809463501,5.3033857345581055,-15.832401275634766,-21.217378616333008,-6.403251647949219,6.551167011260986,-6.385045051574707,1.604427695274353,4.276433944702148,2.816652774810791,-16.93259048461914,-20.436996459960938,-3.2016258239746094,2.7065834999084473,-3.1925225257873535,-2.0077860355377197,2.138216972351074,4.445326328277588,-7.725295066833496,0.0,0.0
isaac,policy,52,1.04,-0.4096834361553192,0.834953784942627,0.0518387071788311,0.5077905654907227,0.2779659926891327,0.05644989013671875,-1.7838654518127441,-0.018455570563673973,-0.015013301745057106,-2.0756704807281494,2.175004243850708,-0.9998999834060669,1.4682189226150513,1.400875449180603,1.8352433443069458,-1.5980080366134644,0.04108130931854248,-0.004364701919257641,0.5713016390800476,-0.2179531306028366,0.2089601308107376,0.5799999833106995,-0.36000001430511475,0.11500000208616257,1.0,0.0,0.0,0.0,1.0,-6.403251647949219,6.551167011260986,-6.385045051574707,1.604427695274353,4.276433944702148,2.816652774810791,-16.93259048461914,-20.436996459960938,-5.940916061401367,6.325016975402832,-2.6266684532165527,1.7908469438552856,3.6136128902435303,-0.6505816578865051,-18.333648681640625,-19.82209014892578,-2.9704580307006836,2.59350848197937,-1.3133342266082764,-1.914576530456543,1.8068064451217651,2.7117090225219727,-8.425824165344238,0.0,0.0
isaac,policy,53,1.06,-0.43634000420570374,0.878329873085022,0.008475197479128838,0.5493171215057373,0.303634911775589,0.008977174758911133,-1.8118932247161865,-0.018357595428824425,-0.015059705823659897,-1.470366358757019,2.17211651802063,-2.161416530609131,2.1736552715301514,1.322072148323059,-2.6100025177001953,-1.529261827468872,0.02597782388329506,0.005875478498637676,0.5591096878051758,-0.25893616676330566,0.19276970624923706,0.5799999833106995,-0.36000001430511475,0.11500000208616257,1.0,0.0,0.0,0.0,1.0,-5.940916061401367,6.325016975402832,-2.6266684532165527,1.7908469438552856,3.6136128902435303,-0.6505816578865051,-18.333648681640625,-19.82209014892578,-3.8866727352142334,5.143116474151611,1.9632059335708618,2.6410272121429443,1.6415494680404663,-2.6992101669311523,-19.65734100341797,-19.498437881469727,-1.9433363676071167,2.0025582313537598,0.9816029667854309,-1.4894863367080688,0.8207747340202332,1.6873948574066162,-9.08767032623291,0.0,0.0
isaac,policy,54,1.08,-0.4979507327079773,0.9221585988998413,0.017520815134048462,0.5929257869720459,0.35596176981925964,-0.0393221378326416,-1.8530728816986084,-0.018439074978232384,-0.014967305585741997,-2.1794075965881348,2.166130542755127,0.07499361038208008,2.175034999847412,2.4714841842651367,-2.325648546218872,-1.3538066148757935,0.0454079695045948,-0.017301645129919052,0.5489659309387207,-0.28970086574554443,0.17693287134170532,0.5799999833106995,-0.36000001430511475,0.11500000208616257,1.0,0.0,0.0,0.0,1.0,-3.8866727352142334,5.143116474151611,1.9632059335708618,2.6410272121429443,1.6415494680404663,-2.6992101669311523,-19.65734100341797,-19.498437881469727,-2.3759095668792725,4.139094352722168,2.33903431892395,3.597506046295166,-1.5913854837417603,-2.6277923583984375,-21.190216064453125,-19.486846923828125,-1.1879547834396362,1.500547170639038,1.169517159461975,-1.011246919631958,-0.7956927418708801,1.7231037616729736,-9.854107856750488,0.0,0.0
isaac,policy,55,1.1,-0.5585907697677612,0.9661062955856323,0.04772644490003586,0.6365976333618164,0.33776745200157166,-0.08139491081237793,-1.8892602920532227,-0.01851893588900566,-0.014985473826527596,-2.1768012046813965,2.168877363204956,1.3478732109069824,2.175022840499878,0.5385003089904785,-1.89281165599823,-2.4550600051879883,0.05365925282239914,-0.02526692859828472,0.5467402935028076,-0.30501896142959595,0.16221177577972412,0.5799999833106995,-0.36000001430511475,0.11500000208616257,1.0,0.0,0.0,0.0,1.0,-2.3759095668792725,4.139094352722168,2.33903431892395,3.597506046295166,-1.5913854837417603,-2.6277923583984375,-21.190216064453125,-19.486846923828125,-1.792701005935669,2.9296491146087646,0.953565239906311,4.217782974243164,-3.775456190109253,-1.0087482929229736,-22.45821762084961,-19.63784408569336,-0.8963505029678345,0.8958245515823364,0.4767826199531555,-0.701108455657959,-1.8877280950546265,2.532625675201416,-10.48810863494873,0.0,0.0
isaac,policy,56,1.12,-0.6064891815185547,1.0098148584365845,0.08033580332994461,0.6801538467407227,0.2966115474700928,-0.13327646255493164,-1.9384281635284424,-0.01846473664045334,-0.014973191544413567,-2.1750051975250244,2.174687385559082,1.6316206455230713,2.172978639602661,-1.6270719766616821,-2.586306095123291,-2.5564017295837402,0.05382890626788139,-0.00407668761909008,0.5472259521484375,-0.30994486808776855,0.14649972319602966,0.5799999833106995,-0.36000001430511475,0.11500000208616257,1.0,0.0,0.0,0.0,1.0,-1.792701005935669,2.9296491146087646,0.953565239906311,4.217782974243164,-3.775456190109253,-1.0087482929229736,-22.45821762084961,-19.63784408569336,-0.8232306241989136,1.462425708770752,0.1523245871067047,5.022205829620361,-4.591364860534668,1.492897868156433,-23.66789436340332,-19.862802505493164,-0.4116153120994568,0.16221284866333008,0.07616229355335236,-0.29889702796936035,-2.295682430267334,3.7834489345550537,-11.092947006225586,0.0,0.0
isaac,policy,57,1.1400000000000001,-0.6071688532829285,1.0526279211044312,0.06584817171096802,0.7225618362426758,0.2478148639202118,-0.11897039413452148,-1.9864342212677002,-0.018573561683297157,-0.014858117327094078,0.9080708026885986,2.003070831298828,-1.736060380935669,2.087559223175049,-2.407651424407959,1.488847017288208,-2.385498523712158,0.04034646600484848,0.008768575266003609,0.5523275136947632,-0.3241078853607178,0.13833829760551453,0.5799999833106995,-0.36000001430511475,0.11500000208616257,1.0,0.0,0.0,0.0,1.0,-0.8232306241989136,1.462425708770752,0.1523245871067047,5.022205829620361,-4.591364860534668,1.492897868156433,-23.66789436340332,-19.862802505493164,-0.33423537015914917,1.2143654823303223,1.0200190544128418,3.514296770095825,-3.4720213413238525,2.3802175521850586,-24.71110725402832,-19.958364486694336,-0.16711768507957458,0.038182735443115234,0.5100095272064209,-1.0528515577316284,-1.7360106706619263,4.227108955383301,-11.614553451538086,0.0,0.0
isaac,policy,58,1.16,-0.6075280904769897,1.0952980518341064,0.058767009526491165,0.7659289836883545,0.20781376957893372,-0.07192063331604004,-2.038072109222412,-0.018553538247942924,-0.014878064393997192,-0.43968865275382996,1.996137022972107,0.4148009121417999,2.174806833267212,-1.5091056823730469,2.037839412689209,-2.6100010871887207,0.0238816998898983,0.004421694669872522,0.5633314251899719,-0.33801358938217163,0.1352105289697647,0.5799999833106995,-0.36000001430511475,0.11500000208616257,1.0,0.0,0.0,0.0,1.0,-0.33423537015914917,1.2143654823303223,1.0200190544128418,3.514296770095825,-3.4720213413238525,2.3802175521850586,-24.71110725402832,-19.958364486694336,-0.3020714223384857,0.4850841760635376,0.09884744882583618,2.727879047393799,-2.142853260040283,1.1307684183120728,-25.699024200439453,-19.99395751953125,-0.15103571116924286,-0.3264579176902771,0.04942372441291809,-1.4460604190826416,-1.0714266300201416,3.602384090423584,-12.108511924743652,0.0,0.0
isaac,policy,59,1.18,-0.5792953968048096,1.1318371295928955,0.023580944165587425,0.808739423751831,0.15793032944202423,-0.029453277587890625,-2.0835304260253906,-0.01854780875146389,-0.01484386995434761,1.8710813522338867,1.5284388065338135,-2.175001859664917,2.174184799194336,-2.3269834518432617,1.3362599611282349,-2.37699556350708,0.022923842072486877,0.011296167969703674,0.5747160911560059,-0.3505416810512543,0.13473987579345703,0.5799999833106995,-0.36000001430511475,0.11500000208616257,1.0,0.0,0.0,0.0,1.0,-0.3020714223384857,0.4850841760635376,0.09884744882583618,2.727879047393799,-2.142853260040283,1.1307684183120728,-25.699024200439453,-19.99395751953125,-0.8070257902145386,0.7209123373031616,-0.05303920432925224,1.3439539670944214,-0.1423269361257553,-1.1567076444625854,-26.43423080444336,-20.13619613647461,-0.4035128951072693,-0.2085438370704651,-0.02651960216462612,-2.1380228996276855,-0.07116346806287766,2.458646059036255,-12.476115226745605,0.0,0.0
isaac,policy,60,1.2,-0.5449949502944946,1.1496572494506836,-0.017798803746700287,0.8369429111480713,0.10513707995414734,-0.07666468620300293,-2.1289594173431396,-0.018358280882239342,-0.014835888519883156,1.5713733434677124,0.22314871847629547,-1.8714964389801025,0.3929458558559418,-2.609773874282837,-2.5542774200439453,-2.21769642829895,0.045864593237638474,0.004370385780930519,0.5743747353553772,-0.3522190749645233,0.12720981240272522,0.5799999833106995,-0.36000001430511475,0.11500000208616257,1.0,0.0,0.0,0.0,1.0,-0.8070257902145386,0.7209123373031616,-0.05303920432925224,1.3439539670944214,-0.1423269361257553,-1.1567076444625854,-26.43423080444336,-20.13619613647461,-1.1952409744262695,0.7582619190216064,-0.19416537880897522,3.1406896114349365,1.556284785270691,-1.01535165309906,-26.83712387084961,-20.475160598754883,-0.5976204872131348,-0.18986904621124268,-0.09708268940448761,-1.2396551370620728,0.7781423926353455,2.5293240547180176,-12.67756175994873,0.0,0.0
isaac,policy,61,1.22,-0.5251830220222473,1.160093069076538,-0.03472667932510376,0.8550915718078613,0.14811939001083374,-0.12949275970458984,-2.1783106327056885,-0.018692858517169952,-0.014651961624622345,0.6045763492584229,0.6033642888069153,-0.4214395582675934,1.4638476371765137,1.9870402812957764,-2.61000657081604,-2.234393358230591,0.03394037485122681,0.0018435465171933174,0.5725497007369995,-0.3495825231075287,0.1203904002904892,0.5799999833106995,-0.36000001430511475,0.11500000208616257,1.0,0.0,0.0,0.0,1.0,-1.1952409744262695,0.7582619190216064,-0.19416537880897522,3.1406896114349365,1.556284785270691,-1.01535165309906,-26.83712387084961,-20.475160598754883,-2.6552553176879883,0.721321165561676,-1.3579035997390747,2.8957836627960205,2.087494373321533,-0.9030522704124451,-27.396879196166992,-20.502763748168945,-1.3276276588439941,-0.20833942294120789,-0.6789517998695374,-1.3621081113815308,1.0437471866607666,2.5854737758636475,-12.957439422607422,0.0,0.0
isaac,policy,62,1.24,-0.5208900570869446,1.1745606660842896,-0.042048871517181396,0.8904581069946289,0.18464277684688568,-0.1820363998413086,-2.2200160026550293,-0.018670212477445602,-0.014721604064106941,-0.12192728370428085,0.6260882019996643,-0.3890150785446167,1.9881805181503296,0.7161926031112671,-2.61000657081604,-1.32514488697052,0.03835248574614525,0.002484075026586652,0.5747327208518982,-0.3527030944824219,0.11856429278850555,0.5799999833106995,-0.36000001430511475,0.11500000208616257,1.0,0.0,0.0,0.0,1.0,-2.6552553176879883,0.721321165561676,-1.3579035997390747,2.8957836627960205,2.087494373321533,-0.9030522704124451,-27.396879196166992,-20.502763748168945,-2.6895885467529297,0.9267773032188416,-0.05109082907438278,2.173708438873291,2.5902793407440186,-2.1775829792022705,-27.82330894470215,-20.56280517578125,-1.3447942733764648,-0.10561135411262512,-0.02554541453719139,-1.7231457233428955,1.2951396703720093,1.9482084512710571,-13.170654296875,0.0,0.0
isaac,policy,63,1.26,-0.5589964389801025,1.183711290359497,-0.005673474166542292,0.9214237928390503,0.23415207862854004,-0.2345423698425293,-2.27044415473938,-0.018646162003278732,-0.014767900109291077,-2.1287901401519775,0.12133023142814636,2.0270164012908936,1.1283986568450928,2.3469371795654297,-2.6100049018859863,-2.287916421890259,0.023633437231183052,0.0019233215134590864,0.5769700407981873,-0.3538811504840851,0.1187206506729126,0.5799999833106995,-0.36000001430511475,0.11500000208616257,1.0,0.0,0.0,0.0,1.0,-2.6895885467529297,0.9267773032188416,-0.05109082907438278,2.173708438873291,2.5902793407440186,-2.1775829792022705,-27.82330894470215,-20.56280517578125,-2.188652992248535,1.1144158840179443,0.13920974731445312,2.642426013946533,2.1341686248779297,-3.0431997776031494,-27.637636184692383,-20.527315139770508,-1.0943264961242676,-0.01179206371307373,0.06960487365722656,-1.4887869358062744,1.0670843124389648,1.5154000520706177,-13.077817916870117,0.0,0.0
isaac,policy,64,1.28,-0.6019838452339172,1.1893107891082764,0.03511717915534973,0.9470300674438477,0.2840176522731781,-0.2870981693267822,-2.3211019039154053,-0.018693367019295692,-0.014733636751770973,-2.1489040851593018,0.20343492925167084,2.0000150203704834,1.3407950401306152,2.3084843158721924,-2.6100056171417236,-2.3748743534088135,0.02460937574505806,0.00206212536431849,0.5781855583190918,-0.3538512885570526,0.11997982859611511,0.5799999833106995,-0.36000001430511475,0.11500000208616257,1.0,0.0,0.0,0.0,1.0,-2.188652992248535,1.1144158840179443,0.13920974731445312,2.642426013946533,2.1341686248779297,-3.0431997776031494,-27.637636184692383,-20.527315139770508,-1.5806119441986084,1.3397817611694336,0.43957358598709106,2.4229631423950195,1.1718336343765259,-3.3961846828460693,-27.411823272705078,-20.433622360229492,-0.7903059720993042,0.1008908748626709,0.21978679299354553,-1.5985183715820312,0.5859168171882629,1.3389075994491577,-12.964911460876465,0.0,0.0
isaac,policy,65,1.3,-0.6457554697990417,1.1956146955490112,0.07729613035917282,0.9730303287506104,0.33635616302490234,-0.33962130546569824,-2.3730506896972656,-0.018680812790989876,-0.014743680134415627,-2.1773698329925537,0.19738464057445526,2.1197762489318848,1.1890124082565308,2.620868682861328,-2.6100056171417236,-2.550583839416504,0.025849636644124985,0.0014863028191030025,0.5803225040435791,-0.3528929650783539,0.12236633896827698,0.5799999833106995,-0.36000001430511475,0.11500000208616257,1.0,0.0,0.0,0.0,1.0,-1.5806119441986084,1.3397817611694336,0.43957358598709106,2.4229631423950195,1.1718336343765259,-3.3961846828460693,-27.411823272705078,-20.433622360229492,-0.7626783847808838,1.4284017086029053,0.4558485746383667,2.3877930641174316,-0.3287966847419739,-3.158144235610962,-27.146194458007812,-20.388629913330078,-0.3813391923904419,0.14520084857940674,0.22792428731918335,-1.6161034107208252,-0.16439834237098694,1.4579278230667114,-12.832097053527832,0.0,0.0
isaac,policy,66,1.32,-0.6660317778587341,1.201073408126831,0.08723889291286469,0.9987435340881348,0.29044395685195923,-0.3919668197631836,-2.3904335498809814,-0.018606610596179962,-0.014806795865297318,-0.20294591784477234,0.11455017328262329,-0.4368457496166229,1.1722383499145508,-2.367830991744995,-2.6100046634674072,-2.077122449874878,0.02546394243836403,0.003908007871359587,0.577701210975647,-0.35732996463775635,0.12378275394439697,0.5799999833106995,-0.36000001430511475,0.11500000208616257,1.0,0.0,0.0,0.0,1.0,-0.7626783847808838,1.4284017086029053,0.4558485746383667,2.3877930641174316,-0.3287966847419739,-3.158144235610962,-27.146194458007812,-20.388629913330078,0.7513185739517212,1.783130407333374,1.8743326663970947,2.0129215717315674,-0.7644336819648743,-2.0988943576812744,-26.996660232543945,-20.26954460144043,0.3756592869758606,0.3225651979446411,0.9371663331985474,-1.8035391569137573,-0.38221684098243713,1.9875527620315552,-12.757329940795898,0.0,0.0
isaac,policy,67,1.34,-0.6705560684204102,1.204724669456482,0.08955872803926468,1.0161454677581787,0.24769626557826996,-0.4379706382751465,-2.440312147140503,-0.01863386295735836,-0.01466628909111023,-0.14909712970256805,0.044718824326992035,0.5284414887428284,0.470132052898407,-1.2492132186889648,-1.775568962097168,-2.5926170349121094,0.03311965614557266,0.0025750515051186085,0.5750573873519897,-0.35652419924736023,0.12334410846233368,0.5799999833106995,-0.36000001430511475,0.11500000208616257,1.0,0.0,0.0,0.0,1.0,0.7513185739517212,1.783130407333374,1.8743326663970947,2.0129215717315674,-0.7644336819648743,-2.0988943576812744,-26.996660232543945,-20.26954460144043,1.0408952236175537,1.3688957691192627,0.24311216175556183,2.5733370780944824,-1.3935000896453857,0.3288140296936035,-26.919736862182617,-20.226200103759766,0.5204476118087769,0.11544787883758545,0.12155608087778091,-1.5233314037322998,-0.6967500448226929,3.201406955718994,-12.718868255615234,0.0,0.0
isaac,policy,68,1.36,-0.6330546140670776,1.2072192430496216,0.05221059173345566,1.0195504426956177,0.20047464966773987,-0.396622896194458,-2.4885427951812744,-0.018674276769161224,-0.014583911746740341,2.1164469718933105,0.08391249924898148,-2.1037755012512207,0.27007168531417847,-2.6071712970733643,1.8931342363357544,-2.2191474437713623,0.0245115477591753,0.014391097240149975,0.5784338712692261,-0.3633740246295929,0.1253025084733963,0.5799999833106995,-0.36000001430511475,0.11500000208616257,1.0,0.0,0.0,0.0,1.0,1.0408952236175537,1.3688957691192627,0.24311216175556183,2.5733370780944824,-1.3935000896453857,0.3288140296936035,-26.919736862182617,-20.226200103759766,0.984053373336792,1.581512689590454,0.39043283462524414,1.1715285778045654,-0.2438463717699051,0.7334427833557129,-26.736507415771484,-20.153610229492188,0.492026686668396,0.22175633907318115,0.19521641731262207,-2.2242355346679688,-0.12192318588495255,3.403721332550049,-12.627253532409668,0.0,0.0
isaac,policy,69,1.3800000000000001,-0.5915706753730774,1.2010791301727295,0.013422316871583462,0.9993705749511719,0.14750584959983826,-0.3445918560028076,-2.533656120300293,-0.01865406334400177,-0.01461370661854744,2.0670859813690186,-0.8236732482910156,-1.8062093257904053,-2.066145420074463,-2.6100032329559326,2.6033263206481934,-2.04476261138916,0.018019208684563637,0.016451561823487282,0.5783105492591858,-0.3649791479110718,0.12535540759563446,0.5799999833106995,-0.36000001430511475,0.11500000208616257,1.0,0.0,0.0,0.0,1.0,0.984053373336792,1.581512689590454,0.39043283462524414,1.1715285778045654,-0.2438463717699051,0.7334427833557129,-26.736507415771484,-20.153610229492188,0.5854398608207703,1.4327666759490967,-0.13165715336799622,2.946274518966675,1.2530919313430786,1.9138399362564087,-26.530548095703125,-20.158002853393555,0.29271993041038513,0.14738333225250244,-0.06582857668399811,-1.3368626832962036,0.6265459656715393,3.993919849395752,-12.524273872375488,0.0,0.0
isaac,policy,70,1.4000000000000001,-0.5480111241340637,1.195001244544983,-0.020161785185337067,0.9739266633987427,0.18874388933181763,-0.3119163513183594,-2.580159902572632,-0.018684256821870804,-0.014707714319229126,2.166314125061035,-0.03401615843176842,-1.661201000213623,-0.4127037525177002,1.8904451131820679,0.3232767581939697,-1.9429360628128052,0.037178173661231995,-0.00529569573700428,0.578097403049469,-0.3580614924430847,0.12238477170467377,0.5799999833106995,-0.36000001430511475,0.11500000208616257,1.0,0.0,0.0,0.0,1.0,0.5854398608207703,1.4327666759490967,-0.13165715336799622,2.946274518966675,1.2530919313430786,1.9138399362564087,-26.530548095703125,-20.158002853393555,-1.040099024772644,0.9114338159561157,-1.685187578201294,2.6520676612854004,1.6408767700195312,2.575340509414673,-26.98252296447754,-20.10673713684082,-0.520049512386322,-0.11328309774398804,-0.842593789100647,-1.4839661121368408,0.8204383850097656,4.324670314788818,-12.750261306762695,0.0,0.0
isaac,policy,71,1.42,-0.501128077507019,1.1967523097991943,-0.06315018236637115,0.9653868675231934,0.2319173663854599,-0.28104066848754883,-2.6206674575805664,-0.01862160675227642,-0.014800600707530975,2.175001621246338,-0.010124198161065578,-2.1475558280944824,-0.20317232608795166,1.600144863128662,0.5838690400123596,-1.5870460271835327,0.02089298889040947,0.004144563339650631,0.5800052285194397,-0.3575597405433655,0.12185204029083252,0.5799999833106995,-0.36000001430511475,0.11500000208616257,1.0,0.0,0.0,0.0,1.0,-1.040099024772644,0.9114338159561157,-1.685187578201294,2.6520676612854004,1.6408767700195312,2.575340509414673,-26.98252296447754,-20.10673713684082,-2.163017511367798,0.9277132749557495,-1.4680248498916626,2.2785844802856445,2.2373416423797607,1.7597852945327759,-27.29712677001953,-20.12519073486328,-1.081508755683899,-0.10514336824417114,-0.7340124249458313,-1.6707077026367188,1.1186708211898804,3.9168925285339355,-12.907563209533691,0.0,0.0
isaac,policy,72,1.44,-0.46258655190467834,1.1959631443023682,-0.10517892241477966,0.9537184238433838,0.27069687843322754,-0.24228215217590332,-2.657893180847168,-0.018519090488553047,-0.014904610812664032,1.673898696899414,-0.2721393406391144,-2.1540985107421875,-0.6479235887527466,0.8733566999435425,0.9693241119384766,-1.070806622505188,0.036513540893793106,-0.0077690863981842995,0.579312264919281,-0.36239010095596313,0.12357531487941742,0.5799999833106995,-0.36000001430511475,0.11500000208616257,1.0,0.0,0.0,0.0,1.0,-2.163017511367798,0.9277132749557495,-1.4680248498916626,2.2785844802856445,2.2373416423797607,1.7597852945327759,-27.29712677001953,-20.12519073486328,-2.504694700241089,1.1119732856750488,0.10647657513618469,2.483685255050659,2.8359076976776123,0.19144290685653687,-27.54083251953125,-20.296255111694336,-1.2523473501205444,-0.013013362884521484,0.053238287568092346,-1.5681573152542114,1.4179538488388062,3.132721424102783,-13.02941608428955,0.0,0.0
isaac,policy,73,1.46,-0.4899124503135681,1.1922762393951416,-0.07312646508216858,0.9410200119018555,0.3125741183757782,-0.19081687927246094,-2.705186367034912,-0.01846558414399624,-0.014951873570680618,-2.056952953338623,-0.2446703165769577,2.17500376701355,-0.4887125492095947,1.2292866706848145,2.5640828609466553,-1.6856781244277954,0.036370035260915756,-0.00026758480817079544,0.581308901309967,-0.3647598624229431,0.12615449726581573,0.5799999833106995,-0.36000001430511475,0.11500000208616257,1.0,0.0,0.0,0.0,1.0,-2.504694700241089,1.1119732856750488,0.10647657513618469,2.483685255050659,2.8359076976776123,0.19144290685653687,-27.54083251953125,-20.296255111694336,-2.516172409057617,1.1886367797851562,0.5502727627754211,2.373505115509033,2.9757351875305176,-2.8158257007598877,-27.51089859008789,-20.53807830810547,-1.2580862045288086,0.025318384170532227,0.27513638138771057,-1.6232473850250244,1.4878675937652588,1.6290870904922485,-13.014449119567871,0.0,0.0
isaac,policy,74,1.48,-0.5326786041259766,1.1884009838104248,-0.029981547966599464,0.9428243637084961,0.3598913848400116,-0.24125289916992188,-2.753410577774048,-0.018468456342816353,-0.014976521953940392,-2.172539234161377,-0.2982345521450043,2.1793181896209717,0.05785782262682915,2.433656930923462,-2.6100056171417236,-2.3362557888031006,0.0165997464209795,0.001257951371371746,0.5768951177597046,-0.35905468463897705,0.12226438522338867,0.5799999833106995,-0.36000001430511475,0.11500000208616257,1.0,0.0,0.0,0.0,1.0,-2.516172409057617,1.1886367797851562,0.5502727627754211,2.373505115509033,2.9757351875305176,-2.8158257007598877,-27.51089859008789,-20.53807830810547,-2.1940951347351074,1.1056511402130127,0.38323521614074707,3.3674099445343018,1.5707162618637085,-3.1954658031463623,-27.226520538330078,-20.592487335205078,-1.0970475673675537,-0.01617443561553955,0.19161760807037354,-1.1262949705123901,0.7853581309318542,1.4392670392990112,-12.872260093688965,0.0,0.0
isaac,policy,75,1.5,-0.5761294960975647,1.192912220954895,0.013478447683155537,0.9623821973800659,0.41209426522254944,-0.29367709159851074,-2.8053431510925293,-0.01854526624083519,-0.014884686097502708,-2.1781694889068604,0.4651060998439789,2.1771926879882812,1.7075598239898682,2.5009632110595703,-2.6100072860717773,-2.5666282176971436,0.031198279932141304,0.0009639008203521371,0.5777083039283752,-0.35551851987838745,0.12142921984195709,0.5799999833106995,-0.36000001430511475,0.11500000208616257,1.0,0.0,0.0,0.0,1.0,-2.1940951347351074,1.1056511402130127,0.38323521614074707,3.3674099445343018,1.5707162618637085,-3.1954658031463623,-27.226520538330078,-20.592487335205078,-2.011289596557617,1.1532597541809082,0.33360767364501953,2.3979201316833496,-0.18841047585010529,-3.5434412956237793,-27.000347137451172,-20.582738876342773,-1.0056447982788086,0.007629871368408203,0.16680383682250977,-1.6110398769378662,-0.09420523792505264,1.2652792930603027,-12.759173393249512,0.0,0.0
isaac,policy,76,1.52,-0.6198334097862244,1.2021491527557373,0.05258793383836746,0.9938861131668091,0.36435961723327637,-0.3458850383758545,-2.824098825454712,-0.01842590421438217,-0.015010571107268333,-2.1766743659973145,0.2264668047428131,1.9564597606658936,1.2934645414352417,-2.5888023376464844,-2.610004186630249,-2.0561726093292236,0.024782443419098854,0.0001819570316001773,0.5795806050300598,-0.35735324025154114,0.12328705191612244,0.5799999833106995,-0.36000001430511475,0.11500000208616257,1.0,0.0,0.0,0.0,1.0,-2.011289596557617,1.1532597541809082,0.33360767364501953,2.3979201316833496,-0.18841047585010529,-3.5434412956237793,-27.000347137451172,-20.582738876342773,-0.666669487953186,1.2618439197540283,1.0300915241241455,2.336965560913086,-0.9091827869415283,-3.4721593856811523,-26.751380920410156,-20.58664894104004,-0.333334743976593,0.06192195415496826,0.5150457620620728,-1.641517162322998,-0.45459139347076416,1.3009202480316162,-12.634690284729004,0.0,0.0
isaac,policy,77,1.54,-0.6622312664985657,1.2067583799362183,0.09500914067029953,1.0149993896484375,0.31623682379722595,-0.39814329147338867,-2.875314235687256,-0.018356965854763985,-0.014966551214456558,-1.9379454851150513,0.01672055572271347,2.086594343185425,0.7665442824363708,-2.0712080001831055,-2.610004425048828,-2.592486619949341,0.030142251402139664,0.0021414889488369226,0.579281747341156,-0.3556057810783386,0.12471058964729309,0.5799999833106995,-0.36000001430511475,0.11500000208616257,1.0,0.0,0.0,0.0,1.0,-0.666669487953186,1.2618439197540283,1.0300915241241455,2.336965560913086,-0.9091827869415283,-3.4721593856811523,-26.751380920410156,-20.58664894104004,0.23972336947917938,1.3448987007141113,0.4528934359550476,2.5464744567871094,-1.5039652585983276,-2.2179465293884277,-26.46092987060547,-20.60634994506836,0.11986168473958969,0.10344934463500977,0.2264467179775238,-1.5367627143859863,-0.7519826292991638,1.9280266761779785,-12.48946475982666,0.0,0.0
isaac,policy,78,1.56,-0.6467199921607971,1.2074575424194336,0.07178328931331635,1.0326166152954102,0.273412823677063,-0.4504826068878174,-2.926532506942749,-0.01833481155335903,-0.014941588044166565,1.7787272930145264,-0.08763246983289719,-2.172389030456543,0.8619486689567566,-1.7873669862747192,-2.61000394821167,-2.590466022491455,0.0336565338075161,0.00956728495657444,0.5745716094970703,-0.35756197571754456,0.12484081089496613,0.5799999833106995,-0.36000001430511475,0.11500000208616257,1.0,0.0,0.0,0.0,1.0,0.23972336947917938,1.3448987007141113,0.4528934359550476,2.5464744567871094,-1.5039652585983276,-2.2179465293884277,-26.46092987060547,-20.60634994506836,0.7164506912231445,1.8038318157196045,0.9632740020751953,1.857040286064148,-1.6773595809936523,-0.09069771319627762,-26.123788833618164,-20.503957748413086,0.35822534561157227,0.33291590213775635,0.48163700103759766,-1.8814797401428223,-0.8386797904968262,2.9916510581970215,-12.320894241333008,0.0,0.0
isaac,policy,79,1.58,-0.6079587936401367,1.2054853439331055,0.03296389430761337,1.0280675888061523,0.23723894357681274,-0.40445470809936523,-2.9774892330169678,-0.01850370690226555,-0.014805709943175316,1.9681497812271118,-0.2744278609752655,-1.6832284927368164,-0.6762489676475525,-1.603416919708252,2.582456588745117,-2.5859622955322266,0.02033666893839836,0.011681383475661278,0.576979398727417,-0.3644174337387085,0.12747512757778168,0.5799999833106995,-0.36000001430511475,0.11500000208616257,1.0,0.0,0.0,0.0,1.0,0.7164506912231445,1.8038318157196045,0.9632740020751953,1.857040286064148,-1.6773595809936523,-0.09069771319627762,-26.123788833618164,-20.503957748413086,0.4393233358860016,1.5458896160125732,0.1417963206768036,1.76106595993042,-0.8975874185562134,0.7264655232429504,-25.83230209350586,-20.349210739135742,0.2196616679430008,0.20394480228424072,0.0708981603384018,-1.929466962814331,-0.4487937092781067,3.4002327919006348,-12.175150871276855,0.0,0.0
isaac,policy,80,1.6,-0.5655696988105774,1.1982407569885254,-0.0037349206395447254,1.0046802759170532,0.18739032745361328,-0.3522989749908447,-3.0273656845092773,-0.01845634914934635,-0.014762099832296371,2.1141412258148193,-0.6205928325653076,-1.7408990859985352,-1.6667170524597168,-2.2962257862091064,2.583028793334961,-2.583556890487671,0.031325627118349075,0.01447977963835001,0.5772422552108765,-0.36475247144699097,0.12748248875141144,0.5799999833106995,-0.36000001430511475,0.11500000208616257,1.0,0.0,0.0,0.0,1.0,0.4393233358860016,1.5458896160125732,0.1417963206768036,1.76106595993042,-0.8975874185562134,0.7264655232429504,-25.83230209350586,-20.349210739135742,-0.2290252149105072,1.3520331382751465,-0.6011136174201965,2.704942464828491,0.5856244564056396,1.7320475578308105,-25.563270568847656,-20.307043075561523,-0.1145126074552536,0.10701656341552734,-0.30055680871009827,-1.4575287103652954,0.2928122282028198,3.9030237197875977,-12.040635108947754,0.0,0.0
isaac,policy,81,1.62,-0.5203658938407898,1.192891240119934,-0.04129144549369812,0.9810196161270142,0.20061305165290833,-0.3136610984802246,-3.0794284343719482,-0.018450409173965454,-0.01491604559123516,2.1750025749206543,-0.148980975151062,-1.8515477180480957,-0.674625813961029,1.2435904741287231,0.8477752804756165,-2.5762381553649902,0.01795499213039875,0.010358336381614208,0.5772117376327515,-0.3609677851200104,0.125691220164299,0.5799999833106995,-0.36000001430511475,0.11500000208616257,1.0,0.0,0.0,0.0,1.0,-0.2290252149105072,1.3520331382751465,-0.6011136174201965,2.704942464828491,0.5856244564056396,1.7320475578308105,-25.563270568847656,-20.307043075561523,-1.5533796548843384,0.9341568946838379,-1.3542499542236328,2.588073492050171,1.4453425407409668,2.110870838165283,-25.721481323242188,-20.24408721923828,-0.7766898274421692,-0.10192155838012695,-0.6771249771118164,-1.5159631967544556,0.7226712703704834,4.092435359954834,-12.11974048614502,0.0,0.0
isaac,policy,82,1.6400000000000001,-0.47465619444847107,1.1922452449798584,-0.08429047465324402,0.9666653871536255,0.24625176191329956,-0.27677440643310547,-3.1240739822387695,-0.018444063141942024,-0.014978175982832909,2.1219048500061035,-0.12984654307365417,-2.175004243850708,-0.5032379031181335,1.6291849613189697,0.8487529754638672,-1.6619294881820679,0.02043738029897213,0.0032476820051670074,0.5778984427452087,-0.3611026406288147,0.12546923756599426,0.5799999833106995,-0.36000001430511475,0.11500000208616257,1.0,0.0,0.0,0.0,1.0,-1.5533796548843384,0.9341568946838379,-1.3542499542236328,2.588073492050171,1.4453425407409668,2.110870838165283,-25.721481323242188,-20.24408721923828,-2.55753493309021,1.0050204992294312,-0.9571272134780884,2.3897316455841064,2.116452217102051,1.1386117935180664,-26.050031661987305,-20.312301635742188,-1.278767466545105,-0.06648975610733032,-0.4785636067390442,-1.6151341199874878,1.0582261085510254,3.6063058376312256,-12.284015655517578,0.0,0.0
isaac,policy,83,1.6600000000000001,-0.47432515025138855,1.1900498867034912,-0.0791497752070427,0.9534844160079956,0.2871994376182556,-0.23333358764648438,-3.1686851978302,-0.018459737300872803,-0.014974113553762436,-1.2518857717514038,-0.28720733523368835,1.4986188411712646,-0.5445480942726135,0.9984890818595886,1.2292524576187134,-1.4205975532531738,0.025788042694330215,-0.002893683034926653,0.5798073410987854,-0.3614465296268463,0.12642036378383636,0.5799999833106995,-0.36000001430511475,0.11500000208616257,1.0,0.0,0.0,0.0,1.0,-2.55753493309021,1.0050204992294312,-0.9571272134780884,2.3897316455841064,2.116452217102051,1.1386117935180664,-26.050031661987305,-20.312301635742188,-2.953855276107788,1.0632692575454712,-0.7237667441368103,2.6789543628692627,2.655949831008911,-1.1455793380737305,-26.349645614624023,-20.562519073486328,-1.476927638053894,-0.0373653769493103,-0.36188337206840515,-1.4705227613449097,1.3279749155044556,2.464210271835327,-12.433822631835938,0.0,0.0
isaac,policy,84,1.68,-0.5129570960998535,1.187387228012085,-0.03864742070436478,0.9561344385147095,0.32096067070961,-0.27987146377563477,-3.2087457180023193,-0.018431633710861206,-0.014990925788879395,-2.0082051753997803,-0.15963846445083618,1.861297845840454,0.34032684564590454,1.3696998357772827,-2.6100072860717773,-1.5927151441574097,0.030960379168391228,-0.00029017403721809387,0.5762141942977905,-0.3554306924343109,0.12261022627353668,0.5799999833106995,-0.36000001430511475,0.11500000208616257,1.0,0.0,0.0,0.0,1.0,-2.953855276107788,1.0632692575454712,-0.7237667441368103,2.6789543628692627,2.655949831008911,-1.1455793380737305,-26.349645614624023,-20.562519073486328,-2.5532000064849854,0.9818235635757446,-0.10127513855695724,3.2400317192077637,1.9636586904525757,-1.9556827545166016,-26.45755958557129,-20.77134132385254,-1.2766000032424927,-0.07808822393417358,-0.05063756927847862,-1.1899840831756592,0.9818293452262878,2.0591585636138916,-12.48777961730957,0.0,0.0
isaac,policy,85,1.7,-0.5553063750267029,1.1919187307357788,0.0007756258710287511,0.9763113260269165,0.3696892261505127,-0.3320746421813965,-3.258524179458618,-0.018458176404237747,-0.014941642060875893,-2.1168181896209717,0.3532801568508148,1.8760498762130737,1.547560214996338,2.0600130558013916,-2.61000657081604,-2.249189615249634,0.03206357732415199,0.002474201377481222,0.5761578679084778,-0.3535758852958679,0.1218029111623764,0.5799999833106995,-0.36000001430511475,0.11500000208616257,1.0,0.0,0.0,0.0,1.0,-2.5532000064849854,0.9818235635757446,-0.10127513855695724,3.2400317192077637,1.9636586904525757,-1.9556827545166016,-26.45755958557129,-20.77134132385254,-2.050290822982788,1.1443493366241455,0.5180041790008545,2.43398380279541,0.6138104200363159,-2.597886323928833,-26.310514450073242,-20.81426429748535,-1.025145411491394,0.0031746625900268555,0.25900208950042725,-1.593008041381836,0.30690521001815796,1.7380567789077759,-12.414257049560547,0.0,0.0
isaac,policy,86,1.72,-0.5998690724372864,1.199087381362915,0.04055911675095558,1.0044974088668823,0.360567182302475,-0.38416171073913574,-3.2932446002960205,-0.018459314480423927,-0.01495569758117199,-2.1776819229125977,0.13856713473796844,1.9772669076919556,1.161269187927246,-0.9773439764976501,-2.61000657081604,-2.173866033554077,0.027214093133807182,-0.001813052105717361,0.5773226618766785,-0.35501420497894287,0.12371018528938293,0.5799999833106995,-0.36000001430511475,0.11500000208616257,1.0,0.0,0.0,0.0,1.0,-2.050290822982788,1.1443493366241455,0.5180041790008545,2.43398380279541,0.6138104200363159,-2.597886323928833,-26.310514450073242,-20.81426429748535,-0.8845782279968262,1.3268449306488037,0.8448417782783508,2.3726613521575928,-0.5034018754959106,-2.6660220623016357,-26.07349395751953,-20.808378219604492,-0.4422891139984131,0.09442245960235596,0.4224208891391754,-1.6236692667007446,-0.2517009377479553,1.7039889097213745,-12.295746803283691,0.0,0.0
isaac,policy,87,1.74,-0.6441975235939026,1.2028104066848755,0.08313660323619843,1.0248616933822632,0.3104627728462219,-0.4362637996673584,-3.34246563911438,-0.018380016088485718,-0.01494428887963295,-2.1057918071746826,0.00701080122962594,2.1329424381256104,0.7775229215621948,-2.342963218688965,-2.610003709793091,-2.585355758666992,0.03098098561167717,0.0018592409323900938,0.5761268138885498,-0.3549608290195465,0.1253923922777176,0.5799999833106995,-0.36000001430511475,0.11500000208616257,1.0,0.0,0.0,0.0,1.0,-0.8845782279968262,1.3268449306488037,0.8448417782783508,2.3726613521575928,-0.5034018754959106,-2.6660220623016357,-26.07349395751953,-20.808378219604492,0.26751023530960083,1.3581480979919434,0.647491455078125,2.558349609375,-1.0902458429336548,-1.6410192251205444,-25.706331253051758,-20.804473876953125,0.13375511765480042,0.11007404327392578,0.3237457275390625,-1.530825138092041,-0.5451229214668274,2.2164902687072754,-12.112165451049805,0.0,0.0
isaac,policy,88,1.76,-0.635942816734314,1.2037323713302612,0.0664549469947815,1.0423072576522827,0.2669540047645569,-0.48839306831359863,-3.3936092853546143,-0.01831577531993389,-0.014989091083407402,1.6635756492614746,-0.08614468574523926,-2.172975540161133,0.8560745120048523,-1.832277536392212,-2.610004186630249,-2.5843281745910645,0.03326789289712906,0.010193152353167534,0.5712231397628784,-0.35809698700904846,0.12603305280208588,0.5799999833106995,-0.36000001430511475,0.11500000208616257,1.0,0.0,0.0,0.0,1.0,0.26751023530960083,1.3581480979919434,0.647491455078125,2.558349609375,-1.0902458429336548,-1.6410192251205444,-25.706331253051758,-20.804473876953125,1.013201117515564,1.8152260780334473,1.2564198970794678,1.8247044086456299,-1.4504989385604858,0.36460208892822266,-25.276962280273438,-20.739337921142578,0.506600558757782,0.33861303329467773,0.6282099485397339,-1.897647738456726,-0.7252494692802429,3.2193009853363037,-11.897480964660645,0.0,0.0
isaac,policy,89,1.78,-0.5990431308746338,1.2012676000595093,0.028861219063401222,1.0362303256988525,0.22843681275844574,-0.43909740447998047,-3.4442708492279053,-0.01848701201379299,-0.014782620593905449,1.9097343683242798,-0.309230774641037,-1.5841999053955078,-0.7652776837348938,-1.6144297122955322,2.584094285964966,-2.5798213481903076,0.02870013378560543,0.01395263709127903,0.5738815665245056,-0.3662121593952179,0.12907472252845764,0.5799999833106995,-0.36000001430511475,0.11500000208616257,1.0,0.0,0.0,0.0,1.0,1.013201117515564,1.8152260780334473,1.2564198970794678,1.8247044086456299,-1.4504989385604858,0.36460208892822266,-25.276962280273438,-20.739337921142578,0.7872675657272339,1.5152087211608887,0.24595950543880463,1.8024051189422607,-0.7764683961868286,1.2007383108139038,-24.902090072631836,-20.6312198638916,0.39363378286361694,0.18860435485839844,0.12297975271940231,-1.9087973833084106,-0.3882341980934143,3.637369155883789,-11.710044860839844,0.0,0.0
isaac,policy,90,1.8,-0.5570881962776184,1.1934759616851807,-0.006006570067256689,1.011592984199524,0.17820359766483307,-0.38676881790161133,-3.49448299407959,-0.018438134342432022,-0.01474323682487011,2.095966100692749,-0.6399250626564026,-1.626862645149231,-1.7055705785751343,-2.327690839767456,2.5853374004364014,-2.579439640045166,0.042477916926145554,0.013662558048963547,0.5749166011810303,-0.36626389622688293,0.12934143841266632,0.5799999833106995,-0.36000001430511475,0.11500000208616257,1.0,0.0,0.0,0.0,1.0,0.7872675657272339,1.5152087211608887,0.24595950543880463,1.8024051189422607,-0.7764683961868286,1.2007383108139038,-24.902090072631836,-20.6312198638916,0.015197932720184326,1.3650133609771729,-0.7422841191291809,2.690251588821411,0.6620036363601685,2.206403970718384,-24.560447692871094,-20.612586975097656,0.007598966360092163,0.11350667476654053,-0.37114205956459045,-1.4648741483688354,0.33100181818008423,4.140202045440674,-11.539223670959473,0.0,0.0
isaac,policy,91,1.82,-0.5112605690956116,1.18766450881958,-0.043011076748371124,0.986656665802002,0.20360799133777618,-0.3489365577697754,-3.5464491844177246,-0.018452372401952744,-0.014930734410881996,2.1750025749206543,-0.1700119823217392,-1.82674241065979,-0.7213526964187622,1.8994829654693604,0.6274800896644592,-2.5519869327545166,0.01227136142551899,0.014574323780834675,0.5754363536834717,-0.3613313138484955,0.12732896208763123,0.5799999833106995,-0.36000001430511475,0.11500000208616257,1.0,0.0,0.0,0.0,1.0,0.015197932720184326,1.3650133609771729,-0.7422841191291809,2.690251588821411,0.6620036363601685,2.206403970718384,-24.560447692871094,-20.612586975097656,-1.3314087390899658,0.9738745093345642,-1.5291707515716553,2.6185760498046875,1.3356870412826538,2.6172444820404053,-24.68145179748535,-20.562475204467773,-0.6657043695449829,-0.0820627510547638,-0.7645853757858276,-1.5007119178771973,0.6678435206413269,4.3456220626831055,-11.599725723266602,0.0,0.0
isaac,policy,92,1.84,-0.4652757942676544,1.187172532081604,-0.08633559197187424,0.9724684953689575,0.2524890899658203,-0.31565356254577637,-3.5878727436065674,-0.018456995487213135,-0.014967497438192368,2.1537294387817383,-0.09490251541137695,-2.1750054359436035,-0.46101564168930054,1.914055585861206,0.6820700168609619,-1.6210174560546875,0.01791299320757389,0.006117317825555801,0.5761309862136841,-0.3608475923538208,0.12663882970809937,0.5799999833106995,-0.36000001430511475,0.11500000208616257,1.0,0.0,0.0,0.0,1.0,-1.3314087390899658,0.9738745093345642,-1.5291707515716553,2.6185760498046875,1.3356870412826538,2.6172444820404053,-24.68145179748535,-20.562475204467773,-2.352623224258423,1.0371373891830444,-1.1401939392089844,2.373615026473999,1.8722199201583862,1.6666083335876465,-24.981189727783203,-20.609582901000977,-1.1763116121292114,-0.05043131113052368,-0.5700969696044922,-1.6231924295425415,0.9361099600791931,3.8703041076660156,-11.749594688415527,0.0,0.0
isaac,policy,93,1.86,-0.45112794637680054,1.1859130859375,-0.09810768812894821,0.9594851732254028,0.29507604241371155,-0.2738621234893799,-3.6300437450408936,-0.01846606843173504,-0.014974251389503479,-0.1934187263250351,-0.22858458757400513,0.19332891702651978,-0.5454409122467041,1.1308584213256836,1.1187735795974731,-1.4525868892669678,0.01677210070192814,0.00020866142585873604,0.5772745013237,-0.36255118250846863,0.1273539811372757,0.5799999833106995,-0.36000001430511475,0.11500000208616257,1.0,0.0,0.0,0.0,1.0,-2.352623224258423,1.0371373891830444,-1.1401939392089844,2.373615026473999,1.8722199201583862,1.6666083335876465,-24.981189727783203,-20.609582901000977,-2.8633594512939453,1.0552313327789307,-0.38370460271835327,2.610675096511841,2.4531776905059814,-0.37079671025276184,-25.225460052490234,-20.757043838500977,-1.4316797256469727,-0.041384339332580566,-0.19185230135917664,-1.5046623945236206,1.2265888452529907,2.8516016006469727,-11.871729850769043,0.0,0.0
isaac,policy,94,1.8800000000000001,-0.4875655174255371,1.1838428974151611,-0.057801369577646255,0.9537121057510376,0.3332567811012268,-0.25449275970458984,-3.6382853984832764,-0.018455304205417633,-0.014958759769797325,-2.0776429176330566,-0.1486908495426178,2.1061959266662598,-0.06462680548429489,1.6630244255065918,0.36388057470321655,9.934883564710617e-07,0.024798013269901276,0.000675577437505126,0.5783182382583618,-0.3617972135543823,0.12712791562080383,0.5799999833106995,-0.36000001430511475,0.11500000208616257,1.0,0.0,0.0,0.0,1.0,-2.8633594512939453,1.0552313327789307,-0.38370460271835327,2.610675096511841,2.4531776905059814,-0.37079671025276184,-25.225460052490234,-20.757043838500977,-2.709157943725586,1.114531397819519,0.08684806525707245,2.748051404953003,2.1450424194335938,-2.92932391166687,-25.869747161865234,-21.139713287353516,-1.354578971862793,-0.011734306812286377,0.043424032628536224,-1.4359742403030396,1.0725212097167969,1.5723379850387573,-12.193873405456543,0.0,0.0
isaac,policy,95,1.9000000000000001,-0.5306521654129028,1.184885025024414,-0.015062657184898853,0.9648547172546387,0.3835534155368805,-0.30632638931274414,-3.6382834911346436,-0.018432457000017166,-0.014872299507260323,-2.1563644409179688,0.044786710292100906,2.1104037761688232,0.7520014643669128,2.39491868019104,-2.608642816543579,6.689224392175674e-07,0.02950284443795681,0.007004845887422562,0.5766416788101196,-0.3562328815460205,0.12390533089637756,0.5799999833106995,-0.36000001430511475,0.11500000208616257,1.0,0.0,0.0,0.0,1.0,-2.709157943725586,1.114531397819519,0.08684806525707245,2.748051404953003,2.1450424194335938,-2.92932391166687,-25.869747161865234,-21.139713287353516,-2.374619245529175,1.093179702758789,-0.11746526509523392,3.0304036140441895,0.51812744140625,-3.6448938846588135,-26.402456283569336,-21.45807647705078,-1.1873096227645874,-0.022410154342651367,-0.05873263254761696,-1.2947981357574463,0.259063720703125,1.2145529985427856,-12.460227966308594,0.0,0.0
isaac,policy,96,1.92,-0.5728824734687805,1.192068099975586,0.0202975831925869,0.9910374879837036,0.35299476981163025,-0.35825252532958984,-3.6382977962493896,-0.018421538174152374,-0.014970527961850166,-2.1031579971313477,0.4050985872745514,1.6436896324157715,1.6528995037078857,-2.2918765544891357,-2.6086602210998535,7.640774128958583e-07,0.025758828967809677,0.004628463182598352,0.5766204595565796,-0.3582204580307007,0.12439900636672974,0.5799999833106995,-0.36000001430511475,0.11500000208616257,1.0,0.0,0.0,0.0,1.0,-2.374619245529175,1.093179702758789,-0.11746526509523392,3.0304036140441895,0.51812744140625,-3.6448938846588135,-26.402456283569336,-21.45807647705078,-1.2094974517822266,1.2109194993972778,1.105290412902832,2.3340799808502197,-0.10881425440311432,-4.223519325256348,-26.665546417236328,-21.584444046020508,-0.6047487258911133,0.03645974397659302,0.552645206451416,-1.6429599523544312,-0.05440712720155716,0.9252402782440186,-12.59177303314209,0.0,0.0
isaac,policy,97,1.94,-0.618683397769928,1.1994984149932861,0.0627131387591362,1.0182780027389526,0.30133745074272156,-0.4095442295074463,-3.6382975578308105,-0.018473666161298752,-0.014943215996026993,-2.1769657135009766,0.11923842877149582,2.1175637245178223,1.0164700746536255,-2.5246737003326416,-2.609218120574951,1.0494186426512897e-06,0.024103963747620583,-0.005683240946382284,0.5773735046386719,-0.3596523702144623,0.12617245316505432,0.5799999833106995,-0.36000001430511475,0.11500000208616257,1.0,0.0,0.0,0.0,1.0,-1.2094974517822266,1.2109194993972778,1.105290412902832,2.3340799808502197,-0.10881425440311432,-4.223519325256348,-26.665546417236328,-21.584444046020508,-0.03820982575416565,1.391211748123169,0.8837909698486328,2.4139039516448975,-0.6590927243232727,-3.860762357711792,-26.84483528137207,-21.722835540771484,-0.019104912877082825,0.12660586833953857,0.4418954849243164,-1.6030479669570923,-0.32954636216163635,1.1066187620162964,-12.681417465209961,0.0,0.0
isaac,policy,98,1.96,-0.6336982250213623,1.2024695873260498,0.07398166507482529,1.0368424654006958,0.25390082597732544,-0.461561918258667,-3.638296365737915,-0.018448708578944206,-0.014969009906053543,0.20347881317138672,-0.027451766654849052,-0.4181964099407196,0.7689982056617737,-2.025092840194702,-2.6089725494384766,4.601643013302237e-07,0.024160141125321388,0.0013654264621436596,0.5748965740203857,-0.3599134087562561,0.12689246237277985,0.5799999833106995,-0.36000001430511475,0.11500000208616257,1.0,0.0,0.0,0.0,1.0,-0.03820982575416565,1.391211748123169,0.8837909698486328,2.4139039516448975,-0.6590927243232727,-3.860762357711792,-26.84483528137207,-21.722835540771484,0.5971724987030029,1.8032407760620117,0.625878632068634,2.1886000633239746,-0.9081894159317017,-2.1728999614715576,-27.109235763549805,-21.792579650878906,0.29858624935150146,0.33262038230895996,0.312939316034317,-1.7156999111175537,-0.45409470796585083,1.9505499601364136,-12.813617706298828,0.0,0.0
isaac,policy,99,1.98,-0.6009755730628967,1.2032575607299805,0.03505149856209755,1.049869179725647,0.2086103856563568,-0.5115017890930176,-3.638296604156494,-0.018479587510228157,-0.014918692409992218,2.0271894931793213,-0.055994875729084015,-2.145477056503296,0.41397708654403687,-1.9552172422409058,-2.2573604583740234,5.197071004658937e-07,0.03470110148191452,0.0022847866639494896,0.5694928765296936,-0.360851913690567,0.1260540634393692,0.5799999833106995,-0.36000001430511475,0.11500000208616257,1.0,0.0,0.0,0.0,1.0,0.5971724987030029,1.8032407760620117,0.625878632068634,2.1886000633239746,-0.9081894159317017,-2.1728999614715576,-27.109235763549805,-21.792579650878906,0.7977074384689331,1.678025722503662,0.18807204067707062,2.2852275371551514,-0.8013522624969482,0.4150162935256958,-27.2783145904541,-21.8471736907959,0.39885371923446655,0.27001285552978516,0.09403602033853531,-1.6673861742019653,-0.4006761312484741,3.2445080280303955,-12.898157119750977,0.0,0.0
isaac,policy,100,2.0,-0.5590497255325317,1.204359769821167,-0.005762570071965456,1.0439605712890625,0.15808482468128204,-0.4641225337982178,-3.638296127319336,-0.018411755561828613,-0.0148868877440691,2.1032841205596924,0.0009245577966794372,-1.9579663276672363,-0.3743114471435547,-2.605210065841675,2.280534029006958,5.350884748622775e-07,0.03346711024641991,0.009797069244086742,0.5729081034660339,-0.366603821516037,0.12741607427597046,0.5799999833106995,-0.36000001430511475,0.11500000208616257,1.0,0.0,0.0,0.0,1.0,0.7977074384689331,1.678025722503662,0.18807204067707062,2.2852275371551514,-0.8013522624969482,0.4150162935256958,-27.2783145904541,-21.8471736907959,0.7150987386703491,1.3599388599395752,-0.003930967301130295,1.8724470138549805,0.6176685094833374,1.352586269378662,-27.363786697387695,-21.84531021118164,0.35754936933517456,0.1109694242477417,-0.0019654836505651474,-1.8737764358520508,0.3088342547416687,3.7132930755615234,-12.940893173217773,0.0,0.0
isaac,policy,101,2.02,-0.516242265701294,1.2010658979415894,-0.041413791477680206,1.020682692527771,0.19193558394908905,-0.41185855865478516,-3.638280153274536,-0.018503865227103233,-0.014893246814608574,2.1289925575256348,-0.4712420701980591,-1.663323163986206,-1.715745449066162,2.566389322280884,2.590026378631592,7.017515599727631e-07,0.022231804206967354,-0.0014430820010602474,0.5756274461746216,-0.3631104826927185,0.12568311393260956,0.5799999833106995,-0.36000001430511475,0.11500000208616257,1.0,0.0,0.0,0.0,1.0,0.7150987386703491,1.3599388599395752,-0.003930967301130295,1.8724470138549805,0.6176685094833374,1.352586269378662,-27.363786697387695,-21.84531021118164,-0.676513671875,1.0476720333099365,-1.2505772113800049,2.9525227546691895,1.4376481771469116,2.4651601314544678,-27.657203674316406,-21.675661087036133,-0.3382568359375,-0.04516398906707764,-0.6252886056900024,-1.3337385654449463,0.7188240885734558,4.269579887390137,-13.087601661682129,0.0,0.0
isaac,policy,102,2.04,-0.46989068388938904,1.1987367868423462,-0.08411168307065964,1.001649022102356,0.23720556497573853,-0.3861830234527588,-3.6382715702056885,-0.018438076600432396,-0.014995930716395378,2.174966335296631,-0.017131581902503967,-2.15801739692688,-0.31951606273651123,1.6096222400665283,-0.05430978536605835,8.498318493366241e-07,0.011608636938035488,0.010018238797783852,0.5749635100364685,-0.35911813378334045,0.12301532924175262,0.5799999833106995,-0.36000001430511475,0.11500000208616257,1.0,0.0,0.0,0.0,1.0,-0.676513671875,1.0476720333099365,-1.2505772113800049,2.9525227546691895,1.4376481771469116,2.4651601314544678,-27.657203674316406,-21.675661087036133,-1.6374115943908691,0.9479181170463562,-1.2914828062057495,2.582498788833618,1.8293706178665161,2.463243007659912,-27.943578720092773,-21.600778579711914,-0.8187057971954346,-0.0950409471988678,-0.6457414031028748,-1.518750548362732,0.9146853089332581,4.268621444702148,-13.230789184570312,0.0,0.0
