sontkdqja-lab/Franka_RL/PickAndPlace/trace_mujoco.csv
source,mode,step,sim_time,obs_joint_pos_rel_0,obs_joint_pos_rel_1,obs_joint_pos_rel_2,obs_joint_pos_rel_3,obs_joint_pos_rel_4,obs_joint_pos_rel_5,obs_joint_pos_rel_6,obs_joint_pos_rel_7,obs_joint_pos_rel_8,obs_joint_vel_0,obs_joint_vel_1,obs_joint_vel_2,obs_joint_vel_3,obs_joint_vel_4,obs_joint_vel_5,obs_joint_vel_6,obs_joint_vel_7,obs_joint_vel_8,obs_object_pos_b_0,obs_object_pos_b_1,obs_object_pos_b_2,obs_place_target_0,obs_place_target_1,obs_place_target_2,obs_place_target_3,obs_place_target_4,obs_place_target_5,obs_place_target_6,obs_transport_phase_0,obs_last_action_0,obs_last_action_1,obs_last_action_2,obs_last_action_3,obs_last_action_4,obs_last_action_5,obs_last_action_6,obs_last_action_7,action_0,action_1,action_2,action_3,action_4,action_5,action_6,action_7,arm_target_0,arm_target_1,arm_target_2,arm_target_3,arm_target_4,arm_target_5,arm_target_6,gripper_target_0,gripper_target_1
mujoco,policy,116,2.32,-3.169614865328185e-05,0.1342826783657074,0.0025418265722692013,-0.22306299209594727,-0.0011241046013310552,-0.03734111785888672,0.002385556697845459,-1.2814998626708984e-06,1.0989606380462646e-06,0.00264359381981194,-0.03324880450963974,0.0034494884312152863,0.007728660944849253,-0.0009225140674971044,0.004104079212993383,-0.0001728173956507817,-1.0694315051296144e-06,9.252447057406243e-07,0.4000000059604645,-0.10000000149011612,0.01999996416270733,0.5,0.0,0.30000001192092896,1.0,0.0,0.0,0.0,0.0,0.0,0.0,0.0,0.0,0.0,0.0,0.0,0.0,-0.5251219272613525,5.257267951965332,-6.520734786987305,8.534418106079102,2.09964919090271,4.090585231781006,-0.6495978236198425,-2.4017276763916016,-0.26256096363067627,2.05963397026062,-3.2603673934936523,1.4572091102600098,1.049824595451355,5.082292556762695,0.41620108485221863,0.0,0.0
mujoco,policy,117,2.34,0.05727439746260643,0.16794994473457336,-0.08212591707706451,-0.1985001564025879,0.00034358163247816265,-0.002329111099243164,-0.05468869209289551,-0.0134256761521101,-0.013282498344779015,4.434160232543945,2.9500808715820312,-6.803157806396484,2.3360869884490967,-0.2312905341386795,2.395235300064087,-3.2780444622039795,-0.5612959861755371,-0.5525672435760498,0.4000000059604645,-0.10000000149011612,0.01999996416270733,0.5,0.0,0.30000001192092896,1.0,0.0,0.0,0.0,0.0,-0.5251219272613525,5.257267951965332,-6.520734786987305,8.534418106079102,2.09964919090271,4.090585231781006,-0.6495978236198425,-2.4017276763916016,-5.855250835418701,8.07490062713623,-4.7585859298706055,5.512814521789551,2.0013020038604736,5.502120018005371,0.46379780769348145,4.703338146209717,-2.9276254177093506,3.4684503078460693,-2.3792929649353027,-0.053592681884765625,1.0006510019302368,5.788060188293457,0.9728989005088806,0.03999999910593033,0.03999999910593033
mujoco,policy,118,2.36,0.08011625707149506,0.2564083933830261,-0.18380796909332275,-0.12175559997558594,-0.03839503228664398,0.04494524002075195,-0.02091735601425171,-0.009188313037157059,-0.008717324584722519,-0.9222142696380615,5.595671653747559,-3.9547836780548096,4.981367588043213,-1.6313080787658691,2.4509799480438232,2.2147929668426514,0.1808670163154602,0.19365708529949188,0.4000000059604645,-0.10000000149011612,0.01999996416270733,0.5,0.0,0.30000001192092896,1.0,0.0,0.0,0.0,0.0,-5.855250835418701,8.07490062713623,-4.7585859298706055,5.512814521789551,2.0013020038604736,5.502120018005371,0.46379780769348145,4.703338146209717,-7.686028957366943,8.248937606811523,-1.3991106748580933,3.937878131866455,2.5717124938964844,1.6824026107788086,2.3461990356445312,7.205441951751709,-3.8430144786834717,3.555468797683716,-0.6995553374290466,-0.8410608768463135,1.2858562469482422,3.8782012462615967,1.9140994548797607,0.03999999910593033,0.03999999910593033
mujoco,policy,119,2.38,-0.03507615998387337,0.39482927322387695,-0.16888245940208435,0.00632023811340332,-0.04113426432013512,0.09305453300476074,0.029972493648529053,-0.0062207989394664764,-0.005658980458974838,-8.413737297058105,7.882536888122559,3.3580524921417236,7.627120494842529,0.6413853764533997,2.5211260318756104,2.8377394676208496,0.12584146857261658,0.12319169193506241,0.4000000059604645,-0.10000000149011612,0.01999996416270733,0.5,0.0,0.30000001192092896,1.0,0.0,0.0,0.0,0.0,-7.686028957366943,8.248937606811523,-1.3991106748580933,3.937878131866455,2.5717124938964844,1.6824026107788086,2.3461990356445312,7.205441951751709,-6.533397197723389,4.320285797119141,2.628551721572876,-0.14217716455459595,-0.6131892204284668,-4.341468334197998,3.1413660049438477,11.544079780578613,-3.2666985988616943,1.5911428928375244,1.314275860786438,-2.8810884952545166,-0.3065946102142334,0.8662657737731934,2.311682939529419,0.03999999910593033,0.03999999910593033
mujoco,policy,120,2.4,-0.44808533787727356,0.5529543161392212,0.16233612596988678,0.16453957557678223,-0.04968235641717911,0.09100484848022461,0.09958493709564209,-0.004000797867774963,-0.0038777440786361694,-24.056795120239258,7.95035982131958,21.078449249267578,7.968724250793457,-0.7755904197692871,-0.9055147767066956,3.302178144454956,0.09620898216962814,0.06884424388408661,0.4000000059604645,-0.10000000149011612,0.01999996416270733,0.5,0.0,0.30000001192092896,1.0,0.0,0.0,0.0,0.0,-6.533397197723389,4.320285797119141,2.628551721572876,-0.14217716455459595,-0.6131892204284668,-4.341468334197998,3.1413660049438477,11.544079780578613,-8.790670394897461,1.376652717590332,-1.5886118412017822,-1.8634201288223267,-3.4169976711273193,-8.398456573486328,3.8250062465667725,16.6063232421875,-4.3953351974487305,0.11932635307312012,-0.7943059206008911,-3.7417099475860596,-1.7084988355636597,-1.1622283458709717,2.653503179550171,0.03999999910593033,0.03999999910593033
mujoco,policy,121,2.42,-0.5958881974220276,0.6986513733863831,0.23258785903453827,0.3052997589111328,-0.13306297361850739,0.047936439514160156,0.15105950832366943,-0.0027440637350082397,-0.002484966069459915,-2.947873830795288,6.713906764984131,-1.4389163255691528,6.2490105628967285,-5.031714916229248,-2.452754020690918,2.0160250663757324,0.05047888681292534,0.05886804684996605,0.4000000059604645,-0.10000000149011612,0.01999996416270733,0.5,0.0,0.30000001192092896,1.0,0.0,0.0,0.0,0.0,-8.790670394897461,1.376652717590332,-1.5886118412017822,-1.8634201288223267,-3.4169976711273193,-8.398456573486328,3.8250062465667725,16.6063232421875,0.49856308102607727,2.428591012954712,8.069473266601562,-4.329236030578613,-3.3352291584014893,-12.490659713745117,1.6689534187316895,14.299005508422852,0.24928154051303864,0.6452955007553101,4.034736633300781,-4.974617958068848,-1.6676145792007446,-3.208329916000366,1.5754766464233398,0.03999999910593033,0.03999999910593033
mujoco,policy,122,2.44,-0.6682605743408203,0.8313777446746826,0.2519261837005615,0.4150054454803467,-0.16323739290237427,0.010396480560302734,0.19974881410598755,-0.0016983188688755035,-0.001770026981830597,-3.324204921722412,6.486719131469727,1.6746673583984375,4.822181224822998,-0.38524407148361206,-1.778023362159729,2.9340474605560303,0.04242899641394615,0.030393801629543304,0.4000000059604645,-0.10000000149011612,0.01999996416270733,0.5,0.0,0.30000001192092896,1.0,0.0,0.0,0.0,0.0,0.49856308102607727,2.428591012954712,8.069473266601562,-4.329236030578613,-3.3352291584014893,-12.490659713745117,1.6689534187316895,14.299005508422852,2.9117562770843506,0.7043925523757935,8.544610023498535,-4.214420318603516,-2.627265214920044,-12.935810089111328,-1.2083864212036133,14.227470397949219,1.4558781385421753,-0.21680372953414917,4.272305011749268,-4.917210102081299,-1.313632607460022,-3.4309051036834717,0.13680678606033325,0.03999999910593033,0.03999999910593033
mujoco,policy,123,2.46,-0.7050831913948059,0.9393153190612793,0.26776236295700073,0.4796264171600342,-0.15018373727798462,-0.039481163024902344,0.1555088758468628,-0.0010576434433460236,-0.0012443549931049347,-1.2313435077667236,4.583116054534912,0.6112211346626282,2.0053627490997314,0.2814362049102783,-2.7900311946868896,-2.7938718795776367,0.0275456253439188,0.020586170256137848,0.4000000059604645,-0.10000000149011612,0.01999996416270733,0.5,0.0,0.30000001192092896,1.0,0.0,0.0,0.0,0.0,2.9117562770843506,0.7043925523757935,8.544610023498535,-4.214420318603516,-2.627265214920044,-12.935810089111328,-1.2083864212036133,14.227470397949219,3.928886651992798,-0.1024354100227356,8.032329559326172,-3.824995517730713,-0.5026106238365173,-11.871711730957031,-1.6688717603683472,13.930096626281738,1.964443325996399,-0.6202176809310913,4.016164779663086,-4.722497940063477,-0.25130531191825867,-2.8988559246063232,-0.09343588352203369,0.03999999910593033,0.03999999910593033
mujoco,policy,124,2.48,-0.7206423878669739,1.0064219236373901,0.2815309166908264,0.48497629165649414,-0.1381215751171112,-0.10196995735168457,0.09522122144699097,-0.0006181634962558746,-0.0009095259010791779,-0.46797728538513184,2.41909122467041,0.7779433727264404,-1.094799518585205,0.585210919380188,-3.273190498352051,-2.935978651046753,0.018219880759716034,0.013781499117612839,0.4000000059604645,-0.10000000149011612,0.01999996416270733,0.5,0.0,0.30000001192092896,1.0,0.0,0.0,0.0,0.0,3.928886651992798,-0.1024354100227356,8.032329559326172,-3.824995517730713,-0.5026106238365173,-11.871711730957031,-1.6688717603683472,13.930096626281738,5.024162769317627,1.106724739074707,7.179052352905273,-1.5157191753387451,0.8402562141418457,-9.5363187789917,-2.7360281944274902,11.727328300476074,2.5120813846588135,-0.015637636184692383,3.5895261764526367,-3.567859649658203,0.42012810707092285,-1.7311594486236572,-0.6270141005516052,0.03999999910593033,0.03999999910593033
mujoco,policy,125,2.5,-0.7247512340545654,1.0456206798553467,0.3110447824001312,0.4398376941680908,-0.05951172485947609,-0.15540575981140137,0.02552741765975952,-0.00030366331338882446,-0.0007092803716659546,0.08626286685466766,1.6209356784820557,1.8015995025634766,-3.024513006210327,4.9877729415893555,-2.606809616088867,-3.063763380050659,0.012316085398197174,0.008962711319327354,0.4000000059604645,-0.10000000149011612,0.01999996416270733,0.5,0.0,0.30000001192092896,1.0,0.0,0.0,0.0,0.0,5.024162769317627,1.106724739074707,7.179052352905273,-1.5157191753387451,0.8402562141418457,-9.5363187789917,-2.7360281944274902,11.727328300476074,4.035280227661133,2.9479827880859375,3.8083081245422363,0.32497909665107727,0.9531758427619934,-6.189990520477295,-4.973769187927246,7.549705505371094,2.0176401138305664,0.9049913883209229,1.9041540622711182,-2.647510290145874,0.4765879213809967,-0.05799531936645508,-1.745884656906128,0.03999999910593033,0.03999999910593033
mujoco,policy,126,2.52,-0.7167434096336365,1.0879888534545898,0.354650616645813,0.38945817947387695,0.03447962552309036,-0.18180346488952637,-0.020688891410827637,0.0002987310290336609,-0.0005330778658390045,0.7887774109840393,1.8398971557617188,2.0763044357299805,-1.9848977327346802,3.4764416217803955,1.7675634622573853,-1.6096458435058594,0.08526071906089783,0.011759158223867416,0.4000000059604645,-0.10000000149011612,0.01999996416270733,0.5,0.0,0.30000001192092896,1.0,0.0,0.0,0.0,0.0,4.035280227661133,2.9479827880859375,3.8083081245422363,0.32497909665107727,0.9531758427619934,-6.189990520477295,-4.973769187927246,7.549705505371094,2.8928964138031006,1.5586795806884766,-0.15019719302654266,-1.1242375373840332,0.6015022993087769,-5.681844234466553,-8.533935546875,2.390281915664673,1.4464482069015503,0.21033978462219238,-0.07509859651327133,-3.3721187114715576,0.3007511496543884,0.19607782363891602,-3.525967836380005,0.03999999910593033,0.03999999910593033
mujoco,policy,127,2.54,-0.5819326043128967,1.0836395025253296,0.2589164674282074,0.3532435894012451,0.0744333267211914,-0.12176036834716797,-0.07174122333526611,0.0010584555566310883,0.0002456866204738617,9.865174293518066,-1.400256633758545,-8.047857284545898,-1.6779814958572388,2.874190092086792,3.3907787799835205,-2.497126340866089,-0.0015899844001978636,0.06409621238708496,0.4000000059604645,-0.10000000149011612,0.01999996416270733,0.5,0.0,0.30000001192092896,1.0,0.0,0.0,0.0,0.0,2.8928964138031006,1.5586795806884766,-0.15019719302654266,-1.1242375373840332,0.6015022993087769,-5.681844234466553,-8.533935546875,2.390281915664673,1.3324285745620728,2.677172899246216,-3.1635921001434326,-0.32302650809288025,3.119694471359253,-2.3500819206237793,-9.231340408325195,-3.9913675785064697,0.6662142872810364,0.769586443901062,-1.5817960500717163,-2.971513271331787,1.5598472356796265,1.8619589805603027,-3.8746702671051025,0.0,0.0
mujoco,policy,128,2.56,-0.2894899249076843,1.04873526096344,-0.0026342812925577164,0.32927417755126953,0.13491088151931763,-0.06821775436401367,-0.11853694915771484,-0.002061396837234497,0.003101728856563568,17.479711532592773,-1.5064513683319092,-15.909385681152344,-0.8956317901611328,3.3576395511627197,1.9192408323287964,-2.261730194091797,-0.28304243087768555,0.20148074626922607,0.4000000059604645,-0.10000000149011612,0.01999996416270733,0.5,0.0,0.30000001192092896,1.0,0.0,0.0,0.0,0.0,1.3324285745620728,2.677172899246216,-3.1635921001434326,-0.32302650809288025,3.119694471359253,-2.3500819206237793,-9.231340408325195,-3.9913675785064697,-1.2176499366760254,-1.2390244007110596,-4.729998588562012,1.9251155853271484,3.70127534866333,4.433496952056885,-10.255888938903809,-6.407113552093506,-0.6088249683380127,-1.1885122060775757,-2.364999294281006,-1.8474421501159668,1.850637674331665,5.253748416900635,-4.38694429397583,0.0,0.0
mujoco,policy,129,2.58,-0.029572386294603348,1.0224144458770752,-0.2305724024772644,0.3199348449707031,0.1941668540239334,-0.045739173889160156,-0.17125016450881958,-0.012280276045203209,-0.0018108636140823364,10.110323905944824,-1.229087471961975,-8.7727689743042,-0.06232850253582001,2.317091464996338,0.855627715587616,-2.802074909210205,-0.5785945653915405,-0.8000484704971313,0.4000000059604645,-0.10000000149011612,0.01999996416270733,0.5,0.0,0.30000001192092896,1.0,0.0,0.0,0.0,0.0,-1.2176499366760254,-1.2390244007110596,-4.729998588562012,1.9251155853271484,3.70127534866333,4.433496952056885,-10.255888938903809,-6.407113552093506,-5.527149200439453,1.7955236434936523,-5.452281951904297,-2.290266752243042,1.7335654497146606,3.117156505584717,-7.323366641998291,3.1627721786499023,-2.7635746002197266,0.3287618160247803,-2.7261409759521484,-3.9551334381103516,0.8667827248573303,4.595578193664551,-2.9206833839416504,0.03999999910593033,0.03999999910593033
mujoco,policy,130,2.6,0.09117098152637482,0.9980119466781616,-0.33594533801078796,0.3054983615875244,0.22440995275974274,0.017292022705078125,-0.23962551355361938,-0.008252296596765518,-0.0012756511569023132,3.7421088218688965,-1.2975847721099854,-3.523613929748535,-1.1652859449386597,0.8063626289367676,3.886152505874634,-3.6413516998291016,0.16994217038154602,0.029372498393058777,0.4000000059604645,-0.10000000149011612,0.01999996416270733,0.5,0.0,0.30000001192092896,1.0,0.0,0.0,0.0,0.0,-5.527149200439453,1.7955236434936523,-5.452281951904297,-2.290266752243042,1.7335654497146606,3.117156505584717,-7.323366641998291,3.1627721786499023,-2.8957977294921875,-1.285923719406128,0.8833664655685425,-1.2788578271865845,1.8425239324569702,-2.8821470737457275,-7.388782024383545,-0.022827431559562683,-1.4478988647460938,-1.2119618654251099,0.44168323278427124,-3.4494287967681885,0.9212619662284851,1.5959264039993286,-2.9533910751342773,0.0,0.0
mujoco,policy,131,2.62,-0.04782396927475929,0.9365979433059692,-0.1658768504858017,0.2742288112640381,0.28864872455596924,0.03718209266662598,-0.3082667589187622,-0.018607961013913155,-0.014424122869968414,-12.72648811340332,-3.9289746284484863,14.65488052368164,-2.141573429107666,3.199028491973877,-1.348362922668457,-3.094813108444214,-0.44238170981407166,-0.5390334725379944,0.4000000059604645,-0.10000000149011612,0.01999996416270733,0.5,0.0,0.30000001192092896,1.0,0.0,0.0,0.0,0.0,-2.8957977294921875,-1.285923719406128,0.8833664655685425,-1.2788578271865845,1.8425239324569702,-2.8821470737457275,-7.388782024383545,-0.022827431559562683,-8.898978233337402,1.7189445495605469,-4.74759578704834,-3.950620412826538,-5.821798324584961,-11.704244613647461,-0.365456223487854,9.764911651611328,-4.449489116668701,0.29047226905822754,-2.37379789352417,-4.7853102684021,-2.9108991622924805,-2.815122365951538,0.5582718849182129,0.03999999910593033,0.03999999910593033
mujoco,policy,132,2.64,-0.16437476873397827,0.8687440752983093,-0.06531963497400284,0.22185111045837402,0.19070561230182648,-0.03199648857116699,-0.27403682470321655,-0.012676075100898743,-0.009428638964891434,-2.714289426803589,-3.1372506618499756,0.5933229923248291,-2.9449474811553955,-6.405059814453125,-3.4540348052978516,0.9905679225921631,0.25471246242523193,0.20739926397800446,0.4000000059604645,-0.10000000149011612,0.01999996416270733,0.5,0.0,0.30000001192092896,1.0,0.0,0.0,0.0,0.0,-8.898978233337402,1.7189445495605469,-4.74759578704834,-3.950620412826538,-5.821798324584961,-11.704244613647461,-0.365456223487854,9.764911651611328,-3.504772186279297,1.9473931789398193,3.5515246391296387,1.2037148475646973,-4.543234348297119,-8.045281410217285,1.7931607961654663,6.5040106773376465,-1.7523860931396484,0.40469658374786377,1.7757623195648193,-2.2081425189971924,-2.2716171741485596,-0.9856407642364502,1.637580394744873,0.03999999910593033,0.03999999910593033
mujoco,policy,133,2.66,-0.46771764755249023,0.8266135454177856,0.22321854531764984,0.1826796531677246,0.13210046291351318,-0.08763504028320312,-0.2176910638809204,-0.008280497044324875,-0.006393298506736755,-20.284666061401367,-0.9683597683906555,19.879764556884766,-1.258682131767273,-2.3622565269470215,-3.2753069400787354,3.404965877532959,0.17468959093093872,0.13231097161769867,0.4000000059604645,-0.10000000149011612,0.01999996416270733,0.5,0.0,0.30000001192092896,1.0,0.0,0.0,0.0,0.0,-3.504772186279297,1.9473931789398193,3.5515246391296387,1.2037148475646973,-4.543234348297119,-8.045281410217285,1.7931607961654663,6.5040106773376465,-8.340316772460938,1.7614715099334717,-3.794011354446411,-1.4153989553451538,-6.956111907958984,-7.069926738739014,0.10074400901794434,12.742609977722168,-4.170158386230469,0.31173574924468994,-1.8970056772232056,-3.5176994800567627,-3.478055953979492,-0.49796342849731445,0.7913720011711121,0.03999999910593033,0.03999999910593033
mujoco,policy,134,2.68,-0.6302077174186707,0.8084031343460083,0.3284774124622345,0.15314984321594238,0.008845911361277103,-0.1492481231689453,-0.17278766632080078,-0.005757540464401245,-0.00398433580994606,-3.634159564971924,-0.9036521315574646,-0.44499921798706055,-1.676862359046936,-6.726390361785889,-2.5425682067871094,1.6960893869400024,0.11223204433917999,0.09141729027032852,0.4000000059604645,-0.10000000149011612,0.01999996416270733,0.5,0.0,0.30000001192092896,1.0,0.0,0.0,0.0,0.0,-8.340316772460938,1.7614715099334717,-3.794011354446411,-1.4153989553451538,-6.956111907958984,-7.069926738739014,0.10074400901794434,12.742609977722168,0.11462618410587311,6.746264457702637,4.191549777984619,1.9146689176559448,-3.408991575241089,-4.010603904724121,-0.6097971200942993,5.0422043800354,0.057313092052936554,2.8041322231292725,2.0957748889923096,-1.8526654243469238,-1.7044957876205444,1.0316979885101318,0.43610143661499023,0.03999999910593033,0.03999999910593033
mujoco,policy,135,2.7,-0.7239018082618713,0.8275160193443298,0.3749189078807831,0.15406227111816406,-0.026699278503656387,-0.20368123054504395,-0.20109277963638306,-0.003697700798511505,-0.002770058810710907,-4.441404342651367,2.3859992027282715,3.129605293273926,1.443859338760376,-0.6779692769050598,-3.003965377807617,-1.0154274702072144,0.08375677466392517,0.05147937685251236,0.4000000059604645,-0.10000000149011612,0.01999996416270733,0.5,0.0,0.30000001192092896,1.0,0.0,0.0,0.0,0.0,0.11462618410587311,6.746264457702637,4.191549777984619,1.9146689176559448,-3.408991575241089,-4.010603904724121,-0.6097971200942993,5.0422043800354,0.9188433885574341,3.9955272674560547,3.523888111114502,0.7145504951477051,-2.726553201675415,-1.8504750728607178,-3.636396884918213,4.593795299530029,0.45942169427871704,1.4287636280059814,1.761944055557251,-2.4527246952056885,-1.3632766008377075,2.111762523651123,-1.0771985054016113,0.03999999910593033,0.03999999910593033
mujoco,policy,136,2.72,-0.764264702796936,0.8997064828872681,0.4099578559398651,0.19784045219421387,-0.02944032847881317,-0.24851489067077637,-0.23800426721572876,-0.0023620538413524628,-0.0019306838512420654,-0.9174681901931763,4.565895080566406,1.4811018705368042,2.803936243057251,-0.0744982585310936,-2.017681837081909,-1.8871171474456787,0.055801279842853546,0.03407057002186775,0.4000000059604645,-0.10000000149011612,0.01999996416270733,0.5,0.0,0.30000001192092896,1.0,0.0,0.0,0.0,0.0,0.9188433885574341,3.9955272674560547,3.523888111114502,0.7145504951477051,-2.726553201675415,-1.8504750728607178,-3.636396884918213,4.593795299530029,1.6363705396652222,2.0735111236572266,1.2833753824234009,-2.8446462154388428,1.0132930278778076,-2.4094784259796143,-6.075772285461426,3.231815814971924,0.8181852698326111,0.4677555561065674,0.6416876912117004,-4.232323169708252,0.5066465139389038,1.8322607278823853,-2.2968862056732178,0.03999999910593033,0.03999999910593033
mujoco,policy,137,2.74,-0.6858983039855957,0.979793906211853,0.3505961000919342,0.2445814609527588,0.019169427454471588,-0.2737288475036621,-0.30296260118484497,-0.0016037598252296448,-0.0012464672327041626,5.983741760253906,3.2377827167510986,-4.915534973144531,2.012031078338623,2.441265106201172,-0.5363745093345642,-2.0457422733306885,0.023837247863411903,0.03181377425789833,0.4000000059604645,-0.10000000149011612,0.01999996416270733,0.5,0.0,0.30000001192092896,1.0,0.0,0.0,0.0,0.0,1.6363705396652222,2.0735111236572266,1.2833753824234009,-2.8446462154388428,1.0132930278778076,-2.4094784259796143,-6.075772285461426,3.231815814971924,4.233563423156738,2.82232928276062,0.16732831299304962,-4.140112400054932,6.799651622772217,-1.212197184562683,-8.186796188354492,-1.2914738655090332,2.116781711578369,0.8421646356582642,0.08366415649652481,-4.880056381225586,3.3998258113861084,2.430901288986206,-3.352398157119751,0.0,0.0
mujoco,policy,138,2.7600000000000002,-0.5051358342170715,1.0076193809509277,0.17863629758358002,0.2769346237182617,0.05535367131233215,-0.2717623710632324,-0.35014623403549194,-0.00340903177857399,-0.013985423371195793,10.186070442199707,0.10982485115528107,-9.76353931427002,1.1949427127838135,2.729557514190674,-0.075310617685318,-2.86271071434021,-0.16831253468990326,-0.5175368785858154,0.4000134766101837,-0.10234764218330383,0.02015492506325245,0.5,0.0,0.30000001192092896,1.0,0.0,0.0,0.0,0.0,4.233563423156738,2.82232928276062,0.16732831299304962,-4.140112400054932,6.799651622772217,-1.212197184562683,-8.186796188354492,-1.2914738655090332,5.830580711364746,3.563321113586426,-0.7686213254928589,-3.6120314598083496,7.407341957092285,2.493912935256958,-9.769567489624023,-4.962996006011963,2.915290355682373,1.212660551071167,-0.38431066274642944,-4.616015434265137,3.7036709785461426,4.283956527709961,-4.1437835693359375,0.0,0.0
mujoco,policy,139,2.7800000000000002,-0.2586011290550232,1.0005465745925903,-0.05529187247157097,0.2812685966491699,0.12612463533878326,-0.23580503463745117,-0.42224356532096863,-0.00901300460100174,-0.020688852295279503,13.221449851989746,-0.4374552071094513,-12.158047676086426,-0.4692707359790802,4.149558067321777,2.5214967727661133,-4.0970330238342285,-0.3466532528400421,-0.2229415327310562,0.40073275566101074,-0.10700143873691559,0.023758413270115852,0.5,0.0,0.30000001192092896,1.0,0.0,0.0,0.0,0.0,5.830580711364746,3.563321113586426,-0.7686213254928589,-3.6120314598083496,7.407341957092285,2.493912935256958,-9.769567489624023,-4.962996006011963,4.444717884063721,0.9316500425338745,-2.320406436920166,-1.1037439107894897,7.115187644958496,6.529001712799072,-9.863811492919922,-5.322397232055664,2.2223589420318604,-0.10317498445510864,-1.160203218460083,-3.3618719577789307,3.557593822479248,6.3015007972717285,-4.190905570983887,0.0,0.0
mujoco,policy,140,2.8000000000000003,0.07355979830026627,0.9929165244102478,-0.3620818555355072,0.25434327125549316,0.20238077640533447,-0.18846511840820312,-0.48363256454467773,-0.01805633306503296,-0.02399873174726963,18.230592727661133,0.008701572194695473,-16.84292984008789,-2.0567774772644043,3.5933823585510254,2.1149678230285645,-2.9207944869995117,-0.4574916660785675,-0.16132064163684845,0.40278953313827515,-0.11743979156017303,0.0289694182574749,0.5,0.0,0.30000001192092896,1.0,0.0,0.0,0.0,0.0,4.444717884063721,0.9316500425338745,-2.320406436920166,-1.1037439107894897,7.115187644958496,6.529001712799072,-9.863811492919922,-5.322397232055664,0.772526741027832,-0.32715463638305664,-3.5653462409973145,1.9370285272598267,5.404111385345459,9.215412139892578,-9.26341438293457,-4.072572708129883,0.386263370513916,-0.7325773239135742,-1.7826731204986572,-1.8414857387542725,2.7020556926727295,7.644705772399902,-3.89070725440979,0.0,0.0
mujoco,policy,141,2.82,0.37941601872444153,1.0022614002227783,-0.6473431587219238,0.22761011123657227,0.25289270281791687,-0.1713554859161377,-0.5422682166099548,-0.02541608363389969,-0.02727765217423439,12.96992015838623,0.6596220135688782,-12.254007339477539,-0.8157077431678772,2.0166280269622803,0.5118189454078674,-3.142556667327881,-0.3049265742301941,-0.14380832016468048,0.4036950469017029,-0.1349809318780899,0.04319148510694504,0.5,0.0,0.30000001192092896,1.0,0.0,0.0,0.0,0.0,0.772526741027832,-0.32715463638305664,-3.5653462409973145,1.9370285272598267,5.404111385345459,9.215412139892578,-9.26341438293457,-4.072572708129883,-0.03574666380882263,-0.4086269736289978,-0.4445062279701233,2.612447738647461,6.36929178237915,8.659571647644043,-10.046632766723633,-4.717538833618164,-0.017873331904411316,-0.7733135223388672,-0.22225311398506165,-1.5037760734558105,3.184645891189575,7.366786003112793,-4.282316207885742,0.0,0.0
mujoco,policy,142,2.84,0.43092837929725647,0.9875566363334656,-0.6607559323310852,0.24396181106567383,0.34508994221687317,-0.12612271308898926,-0.5891734957695007,-0.03013942949473858,-0.03157707303762436,-3.1341512203216553,-1.6771892309188843,5.48720121383667,2.0147101879119873,4.80097770690918,2.3160500526428223,-2.122011184692383,-0.2005259096622467,-0.27453160285949707,0.4366222023963928,-0.1408257931470871,0.06068035587668419,0.5,0.0,0.30000001192092896,1.0,0.0,0.0,0.0,0.0,-0.03574666380882263,-0.4086269736289978,-0.4445062279701233,2.612447738647461,6.36929178237915,8.659571647644043,-10.046632766723633,-4.717538833618164,-5.3805694580078125,0.14879101514816284,-4.275137424468994,2.441709518432617,5.530529499053955,2.5868520736694336,-5.849520206451416,-3.345360040664673,-2.6902847290039062,-0.4946044981479645,-2.137568712234497,-1.5891451835632324,2.7652647495269775,4.330426216125488,-2.183760166168213,0.0,0.0
mujoco,policy,143,2.86,0.386922687292099,0.9594676494598389,-0.6025955080986023,0.29882264137268066,0.3714670240879059,-0.12201142311096191,-0.6497259140014648,-0.03359217196702957,-0.03452674672007561,-1.9374406337738037,-1.2277909517288208,1.7009668350219727,3.2800660133361816,0.2789068818092346,-0.3687170445919037,-3.5749006271362305,-0.14194190502166748,-0.10637389123439789,0.49212348461151123,-0.13248415291309357,0.07457119226455688,0.5,0.0,0.30000001192092896,1.0,0.0,0.0,0.0,0.0,-5.3805694580078125,0.14879101514816284,-4.275137424468994,2.441709518432617,5.530529499053955,2.5868520736694336,-5.849520206451416,-3.345360040664673,-4.990846157073975,1.3471136093139648,0.6655938625335693,2.48980450630188,6.134482383728027,-0.2954259216785431,-2.9827466011047363,-3.842895030975342,-2.4954230785369873,0.10455679893493652,0.33279693126678467,-1.565097689628601,3.0672411918640137,2.889286994934082,-0.7503733038902283,0.0,0.0
mujoco,policy,144,2.88,0.1610797494649887,0.9321038722991943,-0.3556617796421051,0.39657163619995117,0.4356207847595215,-0.11593270301818848,-0.7081836462020874,-0.035635221749544144,-0.03647589683532715,-15.578938484191895,-0.8134098649024963,17.03853988647461,5.871155738830566,3.3544983863830566,-0.6652997732162476,-2.706233024597168,-0.08966386318206787,-0.07519502192735672,0.5485050678253174,-0.12309014052152634,0.08448930829763412,0.5,0.0,0.30000001192092896,1.0,0.0,0.0,0.0,0.0,-4.990846157073975,1.3471136093139648,0.6655938625335693,2.48980450630188,6.134482383728027,-0.2954259216785431,-2.9827466011047363,-3.842895030975342,-6.881089210510254,3.3842790126800537,-2.573310136795044,2.228088617324829,2.4821040630340576,-6.943325519561768,6.128213882446289,4.049324035644531,-3.440544605255127,1.123139500617981,-1.286655068397522,-1.6959556341171265,1.2410520315170288,-0.4346628189086914,3.8051068782806396,0.03999999910593033,0.03999999910593033
mujoco,policy,145,2.9,0.02003832720220089,0.9586808681488037,-0.2234351933002472,0.5348031520843506,0.43315836787223816,-0.19762349128723145,-0.6738369464874268,-0.02395927533507347,-0.024093706160783768,-2.9918882846832275,2.61629319190979,1.6149877309799194,7.705474376678467,-0.039763905107975006,-4.579290390014648,2.0198142528533936,0.49050769209861755,0.5139166712760925,0.6048546433448792,-0.1137281283736229,0.09045141935348511,0.5,0.0,0.30000001192092896,1.0,0.0,0.0,0.0,0.0,-6.881089210510254,3.3842790126800537,-2.573310136795044,2.228088617324829,2.4821040630340576,-6.943325519561768,6.128213882446289,4.049324035644531,-2.8755290508270264,4.149341106414795,4.774640083312988,4.248950004577637,-1.9211891889572144,-2.5099244117736816,8.803318977355957,5.984306335449219,-1.4377645254135132,1.5056705474853516,2.387320041656494,-0.6855249404907227,-0.9605945944786072,1.7820377349853516,5.142659664154053,0.03999999910593033,0.03999999910593033
mujoco,policy,146,2.92,-0.22109252214431763,1.0417795181274414,0.023393485695123672,0.7310059070587158,0.4138790965080261,-0.24028944969177246,-0.5956367254257202,-0.015776855871081352,-0.016125094145536423,-15.508901596069336,5.836988925933838,16.95008087158203,11.497452735900879,-1.7253189086914062,-1.9752323627471924,3.866868734359741,0.33667439222335815,0.33049657940864563,0.6611722111701965,-0.10439810901880264,0.09246393293142319,0.5,0.0,0.30000001192092896,1.0,0.0,0.0,0.0,0.0,-2.8755290508270264,4.149341106414795,4.774640083312988,4.248950004577637,-1.9211891889572144,-2.5099244117736816,8.803318977355957,5.984306335449219,-1.8811861276626587,4.311532497406006,2.924102544784546,1.7424423694610596,-6.3550872802734375,0.8387694358825684,8.31872844696045,12.517265319824219,-0.9405930638313293,1.586766242980957,1.462051272392273,-1.9387787580490112,-3.1775436401367188,3.4563846588134766,4.900364398956299,0.03999999910593033,0.03999999910593033
mujoco,policy,147,2.94,-0.5025991201400757,1.1990845203399658,0.366305947303772,0.9540992975234985,0.3613433539867401,-0.2018134593963623,-0.5331575870513916,-0.010419568046927452,-0.010755013674497604,-12.509958267211914,9.393808364868164,16.987262725830078,10.786148071289062,-3.4515349864959717,3.2584919929504395,2.731390953063965,0.2234257012605667,0.21970799565315247,0.7174578309059143,-0.09510008990764618,0.09057485312223434,0.5,0.0,0.30000001192092896,1.0,0.0,0.0,0.0,0.0,-1.8811861276626587,4.311532497406006,2.924102544784546,1.7424423694610596,-6.3550872802734375,0.8387694358825684,8.31872844696045,12.517265319824219,-0.5447790622711182,5.707919597625732,0.5137702226638794,-0.6128209233283997,-4.611616611480713,0.9817568063735962,3.867140531539917,12.829058647155762,-0.2723895311355591,2.2849597930908203,0.2568851113319397,-3.116410493850708,-2.3058083057403564,3.5278782844543457,2.674570322036743,0.03999999910593033,0.03999999910593033
mujoco,policy,148,2.96,-0.6184718608856201,1.3698194026947021,0.5512458682060242,1.1275267601013184,0.26996099948883057,-0.13275504112243652,-0.4924922287464142,-0.007062185555696487,-0.0069932155311107635,-2.4650347232818604,7.5937347412109375,5.129469394683838,6.941006183624268,-4.807156562805176,3.939598560333252,1.9111465215682983,0.1415448635816574,0.15228676795959473,0.7737113833427429,-0.0858340710401535,0.08479376882314682,0.5,0.0,0.30000001192092896,1.0,0.0,0.0,0.0,0.0,-0.5447790622711182,5.707919597625732,0.5137702226638794,-0.6128209233283997,-4.611616611480713,0.9817568063735962,3.867140531539917,12.829058647155762,0.6825042963027954,6.834268093109131,-0.741052508354187,-1.2351568937301636,-2.280653238296509,-0.7115639448165894,-0.843425452709198,10.518284797668457,0.3412521481513977,2.8481340408325195,-0.3705262541770935,-3.4275784492492676,-1.1403266191482544,2.681217908859253,0.3192872703075409,0.03999999910593033,0.03999999910593033
mujoco,policy,149,2.98,-0.5777470469474792,1.4757606983184814,0.5084494948387146,1.2412642240524292,0.18533635139465332,-0.12287712097167969,-0.47954994440078735,-0.004844244569540024,-0.0044865235686302185,4.549752712249756,3.807617664337158,-6.5644850730896,4.436957836151123,-3.73233699798584,-0.6332879662513733,0.538158118724823,0.0948418453335762,0.10042978078126907,0.8299329876899719,-0.07660005986690521,0.07512068003416061,0.5,0.0,0.30000001192092896,1.0,0.0,0.0,0.0,0.0,0.6825042963027954,6.834268093109131,-0.741052508354187,-1.2351568937301636,-2.280653238296509,-0.7115639448165894,-0.843425452709198,10.518284797668457,2.939986228942871,7.77749490737915,3.7982239723205566,-0.04438960924744606,-1.4301151037216187,-2.276900291442871,-2.329099416732788,5.32429313659668,1.4699931144714355,3.3197474479675293,1.8991119861602783,-2.8321948051452637,-0.7150575518608093,1.8985497951507568,-0.42354971170425415,0.03999999910593033,0.03999999910593033
mujoco,policy,150,3.0,-0.5485019087791443,1.563251256942749,0.478412926197052,1.2856640815734863,0.14784987270832062,-0.11821126937866211,-0.5361351370811462,-0.0029733553528785706,-0.0032189413905143738,-0.38889428973197937,4.6328864097595215,1.5732775926589966,0.6613895893096924,-1.7234749794006348,0.286965012550354,-3.0125510692596436,0.07555488497018814,0.05400000885128975,0.8861225247383118,-0.06739804148674011,0.06155559420585632,0.5,0.0,0.30000001192092896,1.0,0.0,0.0,0.0,0.0,2.939986228942871,7.77749490737915,3.7982239723205566,-0.04438960924744606,-1.4301151037216187,-2.276900291442871,-2.329099416732788,5.32429313659668,4.376084327697754,6.777929782867432,0.7204919457435608,5.155608654022217,1.0099883079528809,0.8232892751693726,-3.116419553756714,3.2266104221343994,2.188042163848877,2.81996488571167,0.3602459728717804,-0.23219561576843262,0.5049941539764404,3.4486446380615234,-0.817209780216217,0.03999999910593033,0.03999999910593033
mujoco,policy,151,3.02,-0.4946202039718628,1.6893081665039062,0.4499814808368683,1.3937321901321411,0.18439115583896637,-0.09844303131103516,-0.6015551090240479,-0.002112235873937607,-0.0019986331462860107,4.578287601470947,7.666417121887207,-3.1799025535583496,9.06467342376709,3.255902051925659,1.1747065782546997,-2.8446877002716064,0.037761759012937546,0.04817552864551544,0.942280113697052,-0.0582280233502388,0.04409850761294365,0.5,0.0,0.30000001192092896,1.0,0.0,0.0,0.0,0.0,4.376084327697754,6.777929782867432,0.7204919457435608,5.155608654022217,1.0099883079528809,0.8232892751693726,-3.116419553756714,3.2266104221343994,1.8688815832138062,4.658387184143066,0.9409970045089722,-0.3683703541755676,2.3504045009613037,2.612334728240967,-2.384699583053589,5.988270282745361,0.9344407916069031,1.7601935863494873,0.4704985022544861,-2.994185209274292,1.1752022504806519,4.343167304992676,-0.45134979486465454,0.03999999910593033,0.03999999910593033
mujoco,policy,152,3.04,-0.4111054241657257,1.8034298419952393,0.37891989946365356,1.5041308403015137,0.24880000948905945,0.06750249862670898,-0.6604830026626587,-0.004135649651288986,-0.0004842393100261688,3.533182382583618,3.9406254291534424,-3.177819013595581,2.837757110595703,3.3781769275665283,11.987765312194824,-2.324655771255493,-0.19343553483486176,0.14634792506694794,0.9954304695129395,-0.049090005457401276,0.025722738355398178,0.5,0.0,0.30000001192092896,1.0,0.0,0.0,0.0,0.0,1.8688815832138062,4.658387184143066,0.9409970045089722,-0.3683703541755676,2.3504045009613037,2.612334728240967,-2.384699583053589,5.988270282745361,1.192406177520752,5.331398010253906,-1.5137795209884644,2.4211747646331787,3.559238910675049,-4.6583733558654785,-2.2235476970672607,4.332523822784424,0.596203088760376,2.0966989994049072,-0.7568897604942322,-1.5994125604629517,1.7796194553375244,0.7078132629394531,-0.3707738518714905,0.03999999910593033,0.03999999910593033
mujoco,policy,153,3.06,-0.30019354820251465,1.8464680910110474,0.2398068755865097,1.5656102895736694,0.3198627531528473,0.24514365196228027,-0.6559796333312988,-0.009956292808055878,0.004566751420497894,6.7985734939575195,1.0782063007354736,-9.124465942382812,2.8804216384887695,3.8638415336608887,6.6894049644470215,1.2338650226593018,-0.330976277589798,0.30755847692489624,1.0203702449798584,-0.03998398780822754,0.03158745914697647,0.5,0.0,0.30000001192092896,1.0,0.0,0.0,0.0,0.0,1.192406177520752,5.331398010253906,-1.5137795209884644,2.4211747646331787,3.559238910675049,-4.6583733558654785,-2.2235476970672607,4.332523822784424,-0.011831551790237427,-0.051018744707107544,-0.0008681006729602814,4.473862171173096,-0.7501336336135864,-10.337594985961914,-0.18636202812194824,0.4751126170158386,-0.005915775895118713,-0.5945093631744385,-0.0004340503364801407,-0.5730688571929932,-0.3750668168067932,-2.1317975521087646,0.6478189826011658,0.03999999910593033,0.03999999910593033
mujoco,policy,154,3.08,-0.18918359279632568,1.861937403678894,0.09479965269565582,1.620757818222046,0.3011552095413208,0.3017079830169678,-0.5615679621696472,-0.013062529265880585,0.008599963039159775,4.690982818603516,0.6718045473098755,-5.686380863189697,2.961704730987549,-2.324254274368286,0.36153337359428406,4.234899520874023,0.2552485764026642,0.09048966318368912,1.0442155599594116,-0.03090997040271759,0.03455931693315506,0.5,0.0,0.30000001192092896,1.0,0.0,0.0,0.0,0.0,-0.011831551790237427,-0.051018744707107544,-0.0008681006729602814,4.473862171173096,-0.7501336336135864,-10.337594985961914,-0.18636202812194824,0.4751126170158386,-2.1841177940368652,-6.447198390960693,-3.800450086593628,3.4417757987976074,-1.720677137374878,-15.358843803405762,-0.34764960408210754,-3.962130546569824,-1.0920588970184326,-3.7925992012023926,-1.900225043296814,-1.0891120433807373,-0.860338568687439,-4.642421722412109,0.5671752095222473,0.0,0.0
mujoco,policy,155,3.1,-0.0982263833284378,1.8533501625061035,-0.026119135320186615,1.6465206146240234,0.2196086049079895,0.2804739475250244,-0.4590728282928467,-0.02201198972761631,0.005270369350910187,4.490256309509277,-1.1650413274765015,-6.30706787109375,0.1272452473640442,-4.530920028686523,-1.7737709283828735,4.528502464294434,-0.37798643112182617,-0.44323527812957764,1.0680288076400757,-0.02186795324087143,0.03361613303422928,0.5,0.0,0.30000001192092896,1.0,0.0,0.0,0.0,0.0,-2.1841177940368652,-6.447198390960693,-3.800450086593628,3.4417757987976074,-1.720677137374878,-15.358843803405762,-0.34764960408210754,-3.962130546569824,-5.552172660827637,-8.471965789794922,-6.26088809967041,3.9983198642730713,-0.9653164148330688,-16.96230697631836,0.4491446614265442,-6.829490661621094,-2.7760863304138184,-4.804983139038086,-3.130444049835205,-0.8108400106430054,-0.4826582074165344,-5.444153785705566,0.9655723571777344,0.0,0.0
mujoco,policy,156,3.12,-0.0094198202714324,1.8291053771972656,-0.1671295166015625,1.6471766233444214,0.12566913664340973,0.21859192848205566,-0.39675450325012207,-0.028145212680101395,-0.009291233494877815,4.3341383934021,-1.1675944328308105,-7.562551021575928,0.004972491413354874,-5.054080963134766,-3.779022216796875,2.7160584926605225,-0.2539290189743042,-0.6351766586303711,1.0918101072311401,-0.012857935391366482,0.028780948370695114,0.5,0.0,0.30000001192092896,1.0,0.0,0.0,0.0,0.0,-5.552172660827637,-8.471965789794922,-6.26088809967041,3.9983198642730713,-0.9653164148330688,-16.96230697631836,0.4491446614265442,-6.829490661621094,-7.518328666687012,-10.297186851501465,-3.3169126510620117,5.469082355499268,-0.19135813415050507,-17.035015106201172,3.4022672176361084,-5.473626136779785,-3.759164333343506,-5.717593193054199,-1.6584563255310059,-0.07545876502990723,-0.09567906707525253,-5.480507850646973,2.442133665084839,0.0,0.0
mujoco,policy,157,3.14,0.06333895772695541,1.8353253602981567,-0.3207609951496124,1.7094238996505737,0.021477481350302696,0.12792634963989258,-0.340588241815567,-0.03226073086261749,-0.01947142742574215,3.011725902557373,1.351064920425415,-7.865373134613037,5.2788777351379395,-5.060253143310547,-4.895424842834473,2.687450408935547,-0.1700640618801117,-0.42037680745124817,1.1155593395233154,-0.0038799182511866093,0.020053764805197716,0.5,0.0,0.30000001192092896,1.0,0.0,0.0,0.0,0.0,-7.518328666687012,-10.297186851501465,-3.3169126510620117,5.469082355499268,-0.19135813415050507,-17.035015106201172,3.4022672176361084,-5.473626136779785,-4.858026504516602,-9.228939056396484,4.438181400299072,5.179625511169434,1.185050129890442,-17.529802322387695,6.04841947555542,-1.7963097095489502,-2.429013252258301,-5.183469772338867,2.219090700149536,-0.22018718719482422,0.592525064945221,-5.727901458740234,3.765209674835205,0.0,0.0
mujoco,policy,158,3.16,0.004362551961094141,1.8503021001815796,-0.2126801759004593,1.8527733087539673,-0.04757339879870415,0.047423362731933594,-0.3301917314529419,-0.03468257561326027,-0.02654651179909706,-6.277085304260254,0.5425384640693665,13.978555679321289,7.948890209197998,-3.0319759845733643,-3.966230869293213,0.6893131732940674,-0.10482039302587509,-0.2872806191444397,1.1392766237258911,0.005066099110990763,0.007434581872075796,0.5,0.0,0.30000001192092896,1.0,0.0,0.0,0.0,0.0,-4.858026504516602,-9.228939056396484,4.438181400299072,5.179625511169434,1.185050129890442,-17.529802322387695,6.04841947555542,-1.7963097095489502,-8.36120891571045,-6.364156723022461,-9.938535690307617,7.686576843261719,3.8105461597442627,-16.97441291809082,9.16002368927002,1.296934962272644,-4.180604457855225,-3.7510783672332764,-4.969267845153809,1.0332884788513184,1.9052730798721313,-5.450206756591797,5.321012020111084,0.03999999910593033,0.03999999910593033
mujoco,policy,159,3.18,-0.03140183910727501,1.8761171102523804,-0.14214394986629486,2.0045955181121826,-0.022422747686505318,-0.048557281494140625,-0.27664756774902344,-0.02338068000972271,-0.01744367741048336,0.5896704196929932,1.4109481573104858,-3.1422369480133057,7.297509670257568,3.18510365486145,-5.096341609954834,3.3688433170318604,0.47722652554512024,0.3762161135673523,1.1629619598388672,0.013980116695165634,-0.009076601825654507,0.5,0.0,0.30000001192092896,1.0,0.0,0.0,0.0,0.0,-8.36120891571045,-6.364156723022461,-9.938535690307617,7.686576843261719,3.8105461597442627,-16.97441291809082,9.16002368927002,1.296934962272644,-6.449037075042725,-7.969336032867432,-1.8212827444076538,6.731462001800537,1.45926833152771,-16.6749210357666,11.805074691772461,2.1853320598602295,-3.2245185375213623,-4.553668022155762,-0.9106413722038269,0.5557310581207275,0.729634165763855,-5.3004608154296875,6.643537521362305,0.03999999910593033,0.03999999910593033
mujoco,policy,160,3.2,-0.020060570910573006,1.8994477987289429,-0.2398110181093216,2.1395440101623535,0.03176574036478996,-0.1463937759399414,-0.2138359546661377,-0.01560005359351635,-0.011504005640745163,0.35307636857032776,0.9303218126296997,-5.798271179199219,6.227419853210449,2.3573687076568604,-4.658530235290527,2.9635465145111084,0.32224658131599426,0.24438518285751343,1.186615228652954,0.022862132638692856,-0.02947978489100933,0.5,0.0,0.30000001192092896,1.0,0.0,0.0,0.0,0.0,-6.449037075042725,-7.969336032867432,-1.8212827444076538,6.731462001800537,1.45926833152771,-16.6749210357666,11.805074691772461,2.1853320598602295,-1.340419888496399,-7.188131332397461,9.553997039794922,8.381719589233398,-1.470832347869873,-14.915833473205566,14.097701072692871,6.277304649353027,-0.6702099442481995,-4.1630659103393555,4.776998519897461,1.3808598518371582,-0.7354161739349365,-4.420916557312012,7.78985071182251,0.03999999910593033,0.03999999910593033
mujoco,policy,161,3.22,-0.10006555914878845,1.8994624614715576,-0.049931466579437256,2.2562408447265625,-0.0927288755774498,-0.22050118446350098,-0.17221570014953613,-0.01020490936934948,-0.007787015289068222,-5.320225238800049,-0.337177038192749,16.424264907836914,4.8421711921691895,-7.706040859222412,-3.268702268600464,1.3489112854003906,0.21565085649490356,0.1610638052225113,1.2102364301681519,0.03171215206384659,-0.05377496778964996,0.5,0.0,0.30000001192092896,1.0,0.0,0.0,0.0,0.0,-1.340419888496399,-7.188131332397461,9.553997039794922,8.381719589233398,-1.470832347869873,-14.915833473205566,14.097701072692871,6.277304649353027,-8.340293884277344,-3.25816011428833,-10.563432693481445,11.632295608520508,0.9162898659706116,-11.564992904663086,12.820464134216309,10.209218978881836,-4.170146942138672,-2.198080062866211,-5.281716346740723,3.006147861480713,0.4581449329853058,-2.7454965114593506,7.1512322425842285,0.03999999910593033,0.03999999910593033
mujoco,policy,162,3.24,-0.11298128962516785,1.877805233001709,-0.08666384220123291,2.3152835369110107,-0.015259173698723316,-0.2924966812133789,-0.11122310161590576,-0.007024366408586502,-0.0049133747816085815,0.7946030497550964,-1.5628172159194946,-9.478899955749512,2.0241711139678955,5.599830627441406,-4.169607162475586,4.075063228607178,0.13744065165519714,0.11238788068294525,1.2338258028030396,0.040530167520046234,-0.08196215331554413,0.5,0.0,0.30000001192092896,1.0,0.0,0.0,0.0,0.0,-8.340293884277344,-3.25816011428833,-10.563432693481445,11.632295608520508,0.9162898659706116,-11.564992904663086,12.820464134216309,10.209218978881836,-1.1773262023925781,-4.051085472106934,6.703757286071777,12.845182418823242,-4.575260162353516,-11.224743843078613,17.36063003540039,10.84249496459961,-0.5886631011962891,-2.5945427417755127,3.3518786430358887,3.61259126663208,-2.287630081176758,-2.5753719806671143,9.42131519317627,0.03999999910593033,0.03999999910593033
mujoco,policy,163,3.2600000000000002,-0.18269245326519012,1.8431081771850586,0.08328105509281158,2.354022741317749,-0.13647198677062988,-0.36377644538879395,-0.06198972463607788,-0.00450042262673378,-0.003421202301979065,-4.788478374481201,-1.7772730588912964,15.26773738861084,1.3810778856277466,-7.182457447052002,-3.188241720199585,1.6149325370788574,0.09926920384168625,0.06695439666509628,1.2573829889297485,0.04931618645787239,-0.11404133588075638,0.5,0.0,0.30000001192092896,1.0,0.0,0.0,0.0,0.0,-1.1773262023925781,-4.051085472106934,6.703757286071777,12.845182418823242,-4.575260162353516,-11.224743843078613,17.36063003540039,10.84249496459961,-10.451544761657715,-2.8665969371795654,-15.26633358001709,14.18380069732666,-3.0714271068573,-7.961083889007568,14.568965911865234,11.85994815826416,-5.225772380828857,-2.002298355102539,-7.633166790008545,4.281900405883789,-1.53571355342865,-0.9435420036315918,8.025483131408691,0.03999999910593033,0.03999999910593033
mujoco,policy,164,3.2800000000000002,-0.20754610002040863,1.7865551710128784,0.03120233304798603,2.356034278869629,-0.12078043073415756,-0.4429469108581543,0.015405416488647461,-0.003253743052482605,-0.001997917890548706,-0.07896962761878967,-3.3018553256988525,-9.780566215515137,-0.47710275650024414,0.6361250281333923,-4.591094017028809,4.297674655914307,0.05550358444452286,0.05485677346587181,1.2809083461761475,0.05807020142674446,-0.1500125229358673,0.5,0.0,0.30000001192092896,1.0,0.0,0.0,0.0,0.0,-10.451544761657715,-2.8665969371795654,-15.26633358001709,14.18380069732666,-3.0714271068573,-7.961083889007568,14.568965911865234,11.85994815826416,-3.2552096843719482,-5.430564880371094,2.513460636138916,14.573819160461426,-5.138330459594727,-11.064203262329102,18.910287857055664,11.401437759399414,-1.6276048421859741,-3.2842824459075928,1.256730318069458,4.476909637451172,-2.5691652297973633,-2.4951016902923584,10.196144104003906,0.03999999910593033,0.03999999910593033
mujoco,policy,165,3.3000000000000003,-0.29664817452430725,1.7311261892318726,0.21127644181251526,2.3510897159576416,-0.28898587822914124,-0.5191888809204102,0.0529705286026001,-0.001979745924472809,-0.0015027597546577454,-6.133518218994141,-2.4787707328796387,16.202051162719727,-0.5974576473236084,-8.237264633178711,-3.327392578125,1.308578610420227,0.048169951885938644,0.02506055310368538,1.3044015169143677,0.06679221987724304,-0.18987570703029633,0.5,0.0,0.30000001192092896,1.0,0.0,0.0,0.0,0.0,-3.2552096843719482,-5.430564880371094,2.513460636138916,14.573819160461426,-5.138330459594727,-11.064203262329102,18.910287857055664,11.401437759399414,-13.26043701171875,-4.320268630981445,-19.808908462524414,15.573709487915039,-1.455403447151184,-8.942713737487793,17.177806854248047,12.360331535339355,-6.630218505859375,-2.7291343212127686,-9.904454231262207,4.9768548011779785,-0.727701723575592,-1.434356927871704,9.329903602600098,0.03999999910593033,0.03999999910593033
mujoco,policy,166,3.3200000000000003,-0.34176504611968994,1.6558252573013306,0.15752887725830078,2.3234682083129883,-0.2729859948158264,-0.5965723991394043,0.12028974294662476,-0.001614116132259369,-0.0006884448230266571,-0.855033814907074,-4.2443108558654785,-10.001097679138184,-1.565535306930542,0.5837969183921814,-4.616647720336914,3.8683104515075684,0.019414231181144714,0.0296892449259758,1.3278628587722778,0.07548223435878754,-0.23363088071346283,0.5,0.0,0.30000001192092896,1.0,0.0,0.0,0.0,0.0,-13.26043701171875,-4.320268630981445,-19.808908462524414,15.573709487915039,-1.455403447151184,-8.942713737487793,17.177806854248047,12.360331535339355,-5.093173027038574,-6.306934833526611,-0.6013429760932922,15.048171997070312,-2.4863364696502686,-12.31764030456543,20.88765525817871,11.573954582214355,-2.546586513519287,-3.7224674224853516,-0.3006714880466461,4.714086055755615,-1.2431682348251343,-3.1218202114105225,11.18482780456543,0.03999999910593033,0.03999999910593033
mujoco,policy,167,3.34,-0.38165679574012756,1.5781502723693848,0.037088435143232346,2.2970361709594727,-0.344373881816864,-0.6860041618347168,0.17773598432540894,-0.001112520694732666,-0.00039551034569740295,-2.5798630714416504,-3.6533703804016113,-4.203999996185303,-1.0699132680892944,-4.521364212036133,-4.127621173858643,2.3365561962127686,0.021253209561109543,0.011505896225571632,1.3512921333312988,0.08414025604724884,-0.2812780737876892,0.5,0.0,0.30000001192092896,1.0,0.0,0.0,0.0,0.0,-5.093173027038574,-6.306934833526611,-0.6013429760932922,15.048171997070312,-2.4863364696502686,-12.31764030456543,20.88765525817871,11.573954582214355,-1.3297648429870605,-6.6758880615234375,6.273841857910156,18.526592254638672,-2.894406318664551,-9.951321601867676,23.65668296813965,17.24509620666504,-0.6648824214935303,-3.9069440364837646,3.136920928955078,6.453296184539795,-1.4472031593322754,-1.9386608600616455,12.569341659545898,0.03999999910593033,0.03999999910593033
mujoco,policy,168,3.36,-0.5038219690322876,1.519857406616211,0.21662750840187073,2.291959762573242,-0.5013033151626587,-0.7716078758239746,0.21875083446502686,-0.0005198046565055847,-0.0004739910364151001,-7.519451141357422,-2.4071834087371826,14.243215560913086,-0.06124279648065567,-6.546751976013184,-4.090701580047607,2.042790412902832,0.01972651295363903,0.0014782882062718272,1.3746894598007202,0.09276627004146576,-0.3328172564506531,0.5,0.0,0.30000001192092896,1.0,0.0,0.0,0.0,0.0,-1.3297648429870605,-6.6758880615234375,6.273841857910156,18.526592254638672,-2.894406318664551,-9.951321601867676,23.65668296813965,17.24509620666504,-5.2141804695129395,-2.527332305908203,-6.652029037475586,19.77877426147461,-2.2325267791748047,-6.346492290496826,20.598787307739258,20.811710357666016,-2.6070902347564697,-1.8326661586761475,-3.326014518737793,7.079387187957764,-1.1162633895874023,-0.1362462043762207,11.040393829345703,0.03999999910593033,0.03999999910593033
mujoco,policy,169,3.38,-0.5668436288833618,1.448822021484375,0.15202631056308746,2.275881767272949,-0.4799341559410095,-0.8373196125030518,0.27386826276779175,-0.0006663687527179718,2.0626932382583618e-05,-1.5297553539276123,-3.9246068000793457,-9.97117805480957,-0.9177794456481934,0.4855307638645172,-3.8446643352508545,3.149040460586548,-0.001247747684828937,0.016308678314089775,1.3980547189712524,0.10136029124259949,-0.3882484436035156,0.5,0.0,0.30000001192092896,1.0,0.0,0.0,0.0,0.0,-5.2141804695129395,-2.527332305908203,-6.652029037475586,19.77877426147461,-2.2325267791748047,-6.346492290496826,20.598787307739258,20.811710357666016,3.0472326278686523,-3.4862239360809326,9.569276809692383,20.91970443725586,-3.4895145893096924,-8.127913475036621,23.688940048217773,18.931873321533203,1.5236163139343262,-2.3121118545532227,4.784638404846191,7.649852275848389,-1.7447572946548462,-1.0269567966461182,12.585470199584961,0.03999999910593033,0.03999999910593033
mujoco,policy,170,3.4,-0.665838897228241,1.3942227363586426,0.21718116104602814,2.2872202396392822,-0.596114993095398,-0.9451258182525635,0.33410054445266724,-0.00021224096417427063,-0.0002006813883781433,-6.080465793609619,-2.139296531677246,8.195344924926758,1.2247122526168823,-5.508153915405273,-5.180057525634766,2.683647871017456,0.01562807522714138,-0.006509690545499325,1.4213879108428955,0.10992230474948883,-0.44757160544395447,0.5,0.0,0.30000001192092896,1.0,0.0,0.0,0.0,0.0,3.0472326278686523,-3.4862239360809326,9.569276809692383,20.91970443725586,-3.4895145893096924,-8.127913475036621,23.688940048217773,18.931873321533203,0.06152866780757904,-2.3024203777313232,4.185303211212158,21.641023635864258,-3.466620922088623,-4.837568759918213,21.636215209960938,23.315128326416016,0.03076433390378952,-1.7202101945877075,2.092651605606079,8.01051139831543,-1.7333104610443115,0.6182155609130859,11.559107780456543,0.03999999910593033,0.03999999910593033
mujoco,policy,171,3.42,-0.796798825263977,1.3632166385650635,0.44110697507858276,2.321193218231201,-0.6901804804801941,-1.0439239740371704,0.3904854655265808,-1.4863908290863037e-05,-0.00024953484535217285,-6.458202838897705,-1.0678393840789795,12.455765724182129,2.1792709827423096,-3.9352030754089355,-4.890525817871094,2.9461543560028076,0.00613912520930171,0.00015738271758891642,1.4446892738342285,0.11845232546329498,-0.510786771774292,0.5,0.0,0.30000001192092896,1.0,0.0,0.0,0.0,0.0,0.06152866780757904,-2.3024203777313232,4.185303211212158,21.641023635864258,-3.466620922088623,-4.837568759918213,21.636215209960938,23.315128326416016,-3.094069242477417,-0.3935994505882263,-3.779698133468628,22.049043655395508,-1.622029423713684,-3.3591256141662598,20.800640106201172,24.880672454833984,-1.5470346212387085,-0.7657997608184814,-1.889849066734314,8.214521408081055,-0.811014711856842,1.3574371337890625,11.14132022857666,0.03999999910593033,0.03999999910593033
mujoco,policy,172,3.44,-0.8406754732131958,1.2997283935546875,0.33054113388061523,2.334697961807251,-0.6311730742454529,-1.1035040616989136,0.44856148958206177,-0.00032850727438926697,0.00017032399773597717,-0.683250367641449,-3.9917688369750977,-12.286980628967285,-0.15386363863945007,1.6342310905456543,-3.354827642440796,3.0851500034332275,-0.008726040832698345,0.013903738930821419,1.4679585695266724,0.12695033848285675,-0.5778939723968506,0.5,0.0,0.30000001192092896,1.0,0.0,0.0,0.0,0.0,-3.094069242477417,-0.3935994505882263,-3.779698133468628,22.049043655395508,-1.622029423713684,-3.3591256141662598,20.800640106201172,24.880672454833984,4.675540924072266,-1.7542822360992432,12.153229713439941,22.69508934020996,-2.8510239124298096,-7.562570095062256,24.53461265563965,21.35387420654297,2.337770462036133,-1.4461411237716675,6.076614856719971,8.537544250488281,-1.4255119562149048,-0.7442851066589355,13.008306503295898,0.03999999910593033,0.03999999910593033
mujoco,policy,173,3.46,-0.9285827875137329,1.2523151636123657,0.38827523589134216,2.3605990409851074,-0.759511411190033,-1.2101885080337524,0.5098786950111389,6.258487701416016e-07,-8.893385529518127e-05,-5.462596416473389,-1.669482707977295,8.036934852600098,2.035109281539917,-6.174098968505859,-5.076834201812744,2.7630412578582764,0.011629446409642696,-0.009146363474428654,1.491195797920227,0.13541635870933533,-0.6488931775093079,0.5,0.0,0.30000001192092896,1.0,0.0,0.0,0.0,0.0,4.675540924072266,-1.7542822360992432,12.153229713439941,22.69508934020996,-2.8510239124298096,-7.562570095062256,24.53461265563965,21.35387420654297,0.333113431930542,-1.6232037544250488,5.875307559967041,23.819520950317383,-1.7203820943832397,-4.872555255889893,23.384214401245117,26.21651840209961,0.166556715965271,-1.3806018829345703,2.9376537799835205,9.099760055541992,-0.8601910471916199,0.6007223129272461,12.433107376098633,0.03999999910593033,0.03999999910593033
mujoco,policy,174,3.48,-1.0323134660720825,1.230161190032959,0.584214448928833,2.418717861175537,-0.8375846743583679,-1.3063830137252808,0.5659711956977844,0.00012480467557907104,-0.00020351260900497437,-4.717408180236816,-0.6805703043937683,10.912888526916504,3.6551601886749268,-2.636716842651367,-4.7233476638793945,2.9055423736572266,0.0035863060038536787,-0.003067255485802889,1.5144010782241821,0.14385037124156952,-0.723784327507019,0.5,0.0,0.30000001192092896,1.0,0.0,0.0,0.0,0.0,0.333113431930542,-1.6232037544250488,5.875307559967041,23.819520950317383,-1.7203820943832397,-4.872555255889893,23.384214401245117,26.21651840209961,-3.0298283100128174,0.1684952974319458,-1.2319965362548828,23.83843231201172,0.405849814414978,-3.6146700382232666,23.571399688720703,27.995349884033203,-1.5149141550064087,-0.484752357006073,-0.6159982681274414,9.109216690063477,0.202924907207489,1.229664921760559,12.526700019836426,0.03999999910593033,0.03999999910593033
mujoco,policy,175,3.5,-1.050845742225647,1.1667046546936035,0.41421404480934143,2.4509708881378174,-0.6805192232131958,-1.3627359867095947,0.6225476861000061,-0.00020199641585350037,0.00010601803660392761,0.0899071916937828,-4.120123386383057,-14.710597038269043,0.18917204439640045,7.2992143630981445,-3.223881959915161,2.959404706954956,-0.008192988112568855,0.011441133916378021,1.537574291229248,0.15225239098072052,-0.8025675415992737,0.5,0.0,0.30000001192092896,1.0,0.0,0.0,0.0,0.0,-3.0298283100128174,0.1684952974319458,-1.2319965362548828,23.83843231201172,0.405849814414978,-3.6146700382232666,23.571399688720703,27.995349884033203,5.475539684295654,-0.8965420126914978,14.036355018615723,24.110055923461914,-1.6542621850967407,-8.071782112121582,27.158985137939453,23.363765716552734,2.737769842147827,-1.0172710418701172,7.018177509307861,9.245027542114258,-0.8271310925483704,-0.9988911151885986,14.3204927444458,0.03999999910593033,0.03999999910593033
mujoco,policy,176,3.52,-1.1296418905258179,1.116797924041748,0.49091875553131104,2.4782297611236572,-0.7882510423660278,-1.462950587272644,0.6857228875160217,4.154816269874573e-05,-0.00016069412231445312,-4.763132095336914,-1.8832594156265259,8.856000900268555,2.1251325607299805,-5.197066307067871,-4.680915832519531,2.9158518314361572,0.011311017908155918,-0.00837200228124857,1.560715675354004,0.16062240302562714,-0.8852427005767822,0.5,0.0,0.30000001192092896,1.0,0.0,0.0,0.0,0.0,5.475539684295654,-0.8965420126914978,14.036355018615723,24.110055923461914,-1.6542621850967407,-8.071782112121582,27.158985137939453,23.363765716552734,-0.19806107878684998,-1.3980259895324707,6.1144328117370605,25.630464553833008,-0.4319024682044983,-5.268123149871826,25.871858596801758,28.99042510986328,-0.09903053939342499,-1.2680130004882812,3.0572164058685303,10.005231857299805,-0.21595123410224915,0.4029383659362793,13.676929473876953,0.03999999910593033,0.03999999910593033
mujoco,policy,177,3.54,-1.213289499282837,1.0874319076538086,0.6925169825553894,2.5406038761138916,-0.8112167119979858,-1.5495871305465698,0.7448802590370178,0.00012464821338653564,-0.0002745091915130615,-3.487253427505493,-1.1052145957946777,11.37653636932373,4.016695499420166,0.15516573190689087,-4.340457439422607,3.064164876937866,0.002895060693845153,-0.0017393300076946616,1.583824872970581,0.16896042227745056,-0.9718099236488342,0.5,0.0,0.30000001192092896,1.0,0.0,0.0,0.0,0.0,-0.19806107878684998,-1.3980259895324707,6.1144328117370605,25.630464553833008,-0.4319024682044983,-5.268123149871826,25.871858596801758,28.99042510986328,-4.382637023925781,0.5421907305717468,-1.677736520767212,25.458892822265625,1.750057339668274,-4.315351963043213,26.351009368896484,31.241287231445312,-2.1913185119628906,-0.2979046404361725,-0.838868260383606,9.91944694519043,0.875028669834137,0.8793239593505859,13.916504859924316,0.03999999910593033,0.03999999910593033
mujoco,policy,178,3.56,-1.2454057931900024,1.016920804977417,0.5656675696372986,2.5648932456970215,-0.6321414113044739,-1.6100579500198364,0.8040366768836975,-0.0001644231379032135,4.591047763824463e-05,-1.6132726669311523,-4.6373610496521,-12.088395118713379,-0.769436240196228,8.30262279510498,-2.981142282485962,2.8474838733673096,-0.009150032885372639,0.012303602881729603,1.5999830961227417,0.17535124719142914,-1.0344189405441284,0.5,0.0,0.30000001192092896,1.0,0.0,0.0,0.0,0.0,-4.382637023925781,0.5421907305717468,-1.677736520767212,25.458892822265625,1.750057339668274,-4.315351963043213,26.351009368896484,31.241287231445312,4.639971733093262,-1.027390956878662,12.84858512878418,26.041152954101562,-0.27478015422821045,-8.837242126464844,29.438392639160156,26.549583435058594,2.319985866546631,-1.082695484161377,6.42429256439209,10.210577011108398,-0.13739007711410522,-1.3816211223602295,15.460196495056152,0.03999999910593033,0.03999999910593033
mujoco,policy,179,3.58,-1.3294212818145752,0.956849992275238,0.6544007658958435,2.5850846767425537,-0.6639166474342346,-1.6932353973388672,0.8649598956108093,5.3316354751586914e-05,-0.00013693422079086304,-4.29950475692749,-2.196237087249756,9.154727935791016,2.4820666313171387,-1.680882215499878,-4.261360168457031,3.048153877258301,0.009576886892318726,-0.007485906593501568,1.6000401973724365,0.17710848152637482,-1.0296379327774048,0.5,0.0,0.30000001192092896,1.0,0.0,0.0,0.0,0.0,4.639971733093262,-1.027390956878662,12.84858512878418,26.041152954101562,-0.27478015422821045,-8.837242126464844,29.438392639160156,26.549583435058594,-1.0519450902938843,-0.8936623930931091,5.1718034744262695,26.53485870361328,0.19027388095855713,-5.329868793487549,27.710281372070312,30.689491271972656,-0.5259725451469421,-1.0158312320709229,2.5859017372131348,10.457429885864258,0.09513694047927856,0.37206554412841797,14.59614086151123,0.03999999910593033,0.03999999910593033
mujoco,policy,180,3.6,-1.4000344276428223,0.9204434156417847,0.887331485748291,2.65425968170166,-0.6796764135360718,-1.7712112665176392,0.928236186504364,0.00016532093286514282,-0.00021176040172576904,-2.2622439861297607,-1.603548288345337,12.789473533630371,4.325394153594971,-0.27952054142951965,-3.6489639282226562,3.1772067546844482,0.0031933824066072702,-0.001368233235552907,1.598995327949524,0.1785801202058792,-1.0228137969970703,0.5,0.0,0.30000001192092896,1.0,0.0,0.0,0.0,0.0,-1.0519450902938843,-0.8936623930931091,5.1718034744262695,26.53485870361328,0.19027388095855713,-5.329868793487549,27.710281372070312,30.689491271972656,-6.227842807769775,1.3946142196655273,-4.646399974822998,26.041353225708008,1.2934330701828003,-4.461155891418457,26.942245483398438,32.45682144165039,-3.1139214038848877,0.12830710411071777,-2.323199987411499,10.210676193237305,0.6467165350914001,0.8064219951629639,14.212122917175293,0.03999999910593033,0.03999999910593033
mujoco,policy,181,3.62,-1.4377349615097046,0.8512225151062012,0.7960100173950195,2.6932246685028076,-0.4939725995063782,-1.833457350730896,0.9845148921012878,-7.917359471321106e-05,4.838407039642334e-05,-3.3149266242980957,-4.363653182983398,-10.057480812072754,0.005252396687865257,9.295302391052246,-3.068424701690674,2.6654977798461914,-0.009277441538870335,0.010189017280936241,1.59797203540802,0.18001975119113922,-1.019915223121643,0.5,0.0,0.30000001192092896,1.0,0.0,0.0,0.0,0.0,-6.227842807769775,1.3946142196655273,-4.646399974822998,26.041353225708008,1.2934330701828003,-4.461155891418457,26.942245483398438,32.45682144165039,3.956012010574341,-0.11151212453842163,11.938807487487793,25.834890365600586,-1.5636883974075317,-8.664130210876465,29.228179931640625,26.916610717773438,1.9780060052871704,-0.6247560977935791,5.9694037437438965,10.107444763183594,-0.7818441987037659,-1.29506516456604,15.355090141296387,0.03999999910593033,0.03999999910593033
mujoco,policy,182,3.64,-1.4908230304718018,0.7950536012649536,0.916744589805603,2.7400588989257812,-0.6159331202507019,-1.9002660512924194,1.0412092208862305,3.9614737033843994e-05,-0.00010421499609947205,-0.1271907091140747,-2.104024648666382,9.869009971618652,4.152871131896973,-8.395112991333008,-3.046271562576294,3.0344321727752686,0.00823019165545702,-0.006608322728425264,1.596923589706421,0.18142738938331604,-1.0196986198425293,0.5,0.0,0.30000001192092896,1.0,0.0,0.0,0.0,0.0,3.956012010574341,-0.11151212453842163,11.938807487487793,25.834890365600586,-1.5636883974075317,-8.664130210876465,29.228179931640625,26.916610717773438,-4.580694675445557,-0.2898096442222595,-0.45598119497299194,27.133689880371094,-0.4291679263114929,-5.991754055023193,28.27520751953125,32.91809844970703,-2.2903473377227783,-0.713904857635498,-0.22799059748649597,10.756845474243164,-0.21458396315574646,0.0411229133605957,14.8786039352417,0.03999999910593033,0.03999999910593033
mujoco,policy,183,3.66,-1.5233820676803589,0.7162727117538452,0.7711328864097595,2.764096260070801,-0.4962325692176819,-1.965484619140625,1.0963423252105713,-8.639693260192871e-05,2.415105700492859e-05,-3.9224400520324707,-4.860111236572266,-12.063921928405762,-0.6778720021247864,7.6568684577941895,-3.4309399127960205,2.4230854511260986,-0.005026437342166901,0.00680485600605607,1.5958975553512573,0.18280301988124847,-1.0207905769348145,0.5,0.0,0.30000001192092896,1.0,0.0,0.0,0.0,0.0,-4.580694675445557,-0.2898096442222595,-0.45598119497299194,27.133689880371094,-0.4291679263114929,-5.991754055023193,28.27520751953125,32.91809844970703,5.634247779846191,-0.2878127694129944,14.91228199005127,26.54887580871582,-2.2970292568206787,-8.739541053771973,29.6862735748291,26.432857513427734,2.8171238899230957,-0.7129063606262207,7.456140995025635,10.464437484741211,-1.1485146284103394,-1.332770586013794,15.584136962890625,0.03999999910593033,0.03999999910593033
mujoco,policy,184,3.68,-1.591874599456787,0.6318454146385193,0.8522153496742249,2.7596700191497803,-0.644324779510498,-2.0212910175323486,1.1565606594085693,6.313621997833252e-05,-0.00010647997260093689,-0.7506500482559204,-4.063906192779541,7.617672920227051,-0.2288796454668045,-10.097491264343262,-2.5513060092926025,3.3789286613464355,0.008155860006809235,-0.006967435125261545,1.5948867797851562,0.184125155210495,-1.0219018459320068,0.5,0.0,0.30000001192092896,1.0,0.0,0.0,0.0,0.0,5.634247779846191,-0.2878127694129944,14.91228199005127,26.54887580871582,-2.2970292568206787,-8.739541053771973,29.6862735748291,26.432857513427734,-2.6635429859161377,-1.1984832286834717,3.6459944248199463,27.650657653808594,-1.2279952764511108,-6.120113372802734,28.531578063964844,32.250144958496094,-1.3317714929580688,-1.1682416200637817,1.8229972124099731,11.015329360961914,-0.6139976382255554,-0.023056745529174805,15.006789207458496,0.03999999910593033,0.03999999910593033
mujoco,policy,185,3.7,-1.6399638652801514,0.5474535822868347,1.050034523010254,2.753974437713623,-0.7300572991371155,-2.0780322551727295,1.2249815464019775,0.00010494515299797058,-0.00015212595462799072,-1.504815936088562,-4.321434020996094,9.726078987121582,-0.28539666533470154,-1.6105159521102905,-2.9489076137542725,3.270752429962158,-9.892194793792441e-05,0.0008835993357934058,1.5936020612716675,0.18479575216770172,-1.0207990407943726,0.5,0.0,0.30000001192092896,1.0,0.0,0.0,0.0,0.0,-2.6635429859161377,-1.1984832286834717,3.6459944248199463,27.650657653808594,-1.2279952764511108,-6.120113372802734,28.531578063964844,32.250144958496094,-5.873904705047607,0.7262912392616272,-3.0963551998138428,26.655261993408203,-0.06157214939594269,-5.269144058227539,28.4755859375,32.76447296142578,-2.9369523525238037,-0.2058543860912323,-1.5481775999069214,10.517631530761719,-0.030786074697971344,0.40242791175842285,14.978793144226074,0.03999999910593033,0.03999999910593033
mujoco,policy,186,3.72,-1.6963175535202026,0.441785991191864,0.9483789801597595,2.7323484420776367,-0.5625882148742676,-2.138207197189331,1.2693850994110107,-4.755333065986633e-05,6.970018148422241e-06,-5.824606895446777,-5.747769355773926,-9.5999755859375,-1.0812574625015259,9.389084815979004,-2.912285566329956,1.7394719123840332,-0.005020549520850182,0.0059918188489973545,1.592315912246704,0.18531358242034912,-1.0197112560272217,0.5,0.0,0.30000001192092896,1.0,0.0,0.0,0.0,0.0,-5.873904705047607,0.7262912392616272,-3.0963551998138428,26.655261993408203,-0.06157214939594269,-5.269144058227539,28.4755859375,32.76447296142578,5.013469696044922,-0.29684537649154663,13.79808521270752,26.842226028442383,-2.7826006412506104,-8.769049644470215,30.11411476135254,26.461498260498047,2.506734848022461,-0.7174227237701416,6.89904260635376,10.611112594604492,-1.3913003206253052,-1.347524881362915,15.798057556152344,0.03999999910593033,0.03999999910593033
mujoco,policy,187,3.74,-1.7070132493972778,0.3477172255516052,1.0414677858352661,2.7217018604278564,-0.6967527270317078,-2.1938116550445557,1.335411787033081,2.5667250156402588e-05,-6.070360541343689e-05,3.4170455932617188,-4.3135809898376465,9.404548645019531,-0.8798596858978271,-9.227983474731445,-2.7389819622039795,4.085280418395996,0.0034200591035187244,-0.00263647036626935,1.5910617113113403,0.18579734861850739,-1.0191090106964111,0.5,0.0,0.30000001192092896,1.0,0.0,0.0,0.0,0.0,5.013469696044922,-0.29684537649154663,13.79808521270752,26.842226028442383,-2.7826006412506104,-8.769049644470215,30.11411476135254,26.461498260498047,-5.817571640014648,-0.12782996892929077,-2.200396776199341,27.453903198242188,-1.144300103187561,-5.003482818603516,27.985477447509766,32.39525604248047,-2.908785820007324,-0.6329150199890137,-1.1001983880996704,10.916952133178711,-0.5721500515937805,0.5352585315704346,14.733738899230957,0.03999999910593033,0.03999999910593033
mujoco,policy,188,3.7600000000000002,-1.7131837606430054,0.23742368817329407,0.9268446564674377,2.702362298965454,-0.5830170512199402,-2.249821186065674,1.3793659210205078,-6.077811121940613e-05,3.660470247268677e-05,-3.478912353515625,-5.968429088592529,-10.438508033752441,-0.3154469132423401,6.991398334503174,-2.785188913345337,1.3748902082443237,-0.003540816018357873,0.003777819685637951,1.5898394584655762,0.18623308837413788,-1.0185502767562866,0.5,0.0,0.30000001192092896,1.0,0.0,0.0,0.0,0.0,-5.817571640014648,-0.12782996892929077,-2.200396776199341,27.453903198242188,-1.144300103187561,-5.003482818603516,27.985477447509766,32.39525604248047,3.9819672107696533,-0.12018907070159912,12.924592018127441,26.89765739440918,-2.763068914413452,-8.452508926391602,31.070491790771484,27.067913055419922,1.9909836053848267,-0.6290945410728455,6.462296009063721,10.63882827758789,-1.381534457206726,-1.1892545223236084,16.2762451171875,0.03999999910593033,0.03999999910593033
mujoco,policy,189,3.7800000000000002,-1.7196613550186157,0.14218026399612427,1.0376923084259033,2.701178789138794,-0.7273432016372681,-2.3041844367980957,1.4500198364257812,3.98978590965271e-06,-1.5478581190109253e-05,2.1332006454467773,-4.38060188293457,11.213621139526367,-0.6543517708778381,-8.745101928710938,-2.664992332458496,4.32139253616333,0.0018877328839153051,-0.0015664345119148493,1.588676929473877,0.18660733103752136,-1.0181125402450562,0.5,0.0,0.30000001192092896,1.0,0.0,0.0,0.0,0.0,3.9819672107696533,-0.12018907070159912,12.924592018127441,26.89765739440918,-2.763068914413452,-8.452508926391602,31.070491790771484,27.067913055419922,-6.301690101623535,0.33594995737075806,-2.990701913833618,27.46371078491211,-1.433719515800476,-4.678364276885986,28.37215805053711,32.34335708618164,-3.1508450508117676,-0.40102502703666687,-1.495350956916809,10.921855926513672,-0.716859757900238,0.6978178024291992,14.927079200744629,0.03999999910593033,0.03999999910593033
mujoco,policy,190,3.8000000000000003,-1.7269591093063354,0.032177507877349854,0.9410454034805298,2.692728281021118,-0.6394017934799194,-2.3229293823242188,1.4937717914581299,-1.8913298845291138e-05,3.0025839805603027e-06,-2.5250356197357178,-5.788427352905273,-10.301797866821289,0.5291157960891724,4.995925426483154,-0.20216305553913116,1.387538194656372,-0.001365297706797719,0.0022061129566282034,1.5876708030700684,0.1869126707315445,-1.0178738832473755,0.5,0.0,0.30000001192092896,1.0,0.0,0.0,0.0,0.0,-6.301690101623535,0.33594995737075806,-2.990701913833618,27.46371078491211,-1.433719515800476,-4.678364276885986,28.37215805053711,32.34335708618164,2.522322416305542,-0.11627453565597534,11.527657508850098,26.8338623046875,-2.381565809249878,-8.546581268310547,32.54579544067383,27.75031280517578,1.261161208152771,-0.627137303352356,5.763828754425049,10.606931686401367,-1.190782904624939,-1.236290693283081,17.013896942138672,0.03999999910593033,0.03999999910593033
mujoco,policy,191,3.8200000000000003,-1.7333840131759644,-0.05981314182281494,1.0622080564498901,2.7058112621307373,-0.7911301851272583,-2.357280731201172,1.5664215087890625,-2.7544796466827393e-05,8.936971426010132e-06,1.3386752605438232,-4.276994705200195,12.123251914978027,0.03256002068519592,-8.44521713256836,-2.2716825008392334,4.376194477081299,0.0002650254173204303,3.955529609811492e-05,1.586856722831726,0.18714070320129395,-1.017661213874817,0.5,0.0,0.30000001192092896,1.0,0.0,0.0,0.0,0.0,2.522322416305542,-0.11627453565597534,11.527657508850098,26.8338623046875,-2.381565809249878,-8.546581268310547,32.54579544067383,27.75031280517578,-7.060236930847168,0.6692090630531311,-4.147302150726318,27.534791946411133,-0.9860595464706421,-4.858119487762451,29.50495147705078,32.7430419921875,-3.530118465423584,-0.23439547419548035,-2.073651075363159,10.957395553588867,-0.49302977323532104,0.6079401969909668,15.493475914001465,0.03999999910593033,0.03999999910593033
mujoco,policy,192,3.84,-1.7442150115966797,-0.1644163727760315,0.9574568271636963,2.719508647918701,-0.6589544415473938,-2.3797547817230225,1.6133592128753662,-1.6245990991592407e-05,7.197260856628418e-06,-2.109764814376831,-5.3278985023498535,-11.290746688842773,1.8365068435668945,8.056914329528809,-0.6426581740379333,1.6206729412078857,0.0007493194425478578,-0.0002812529855873436,1.586227297782898,0.18730928003787994,-1.0175237655639648,0.5,0.0,0.30000001192092896,1.0,0.0,0.0,0.0,0.0,-7.060236930847168,0.6692090630531311,-4.147302150726318,27.534791946411133,-0.9860595464706421,-4.858119487762451,29.50495147705078,32.7430419921875,2.4441564083099365,0.7740816473960876,11.911833763122559,26.222686767578125,-2.7197935581207275,-8.654966354370117,33.29677200317383,27.80657196044922,1.2220782041549683,-0.18195918202400208,5.955916881561279,10.30134391784668,-1.3598967790603638,-1.2904832363128662,17.389385223388672,0.03999999910593033,0.03999999910593033
mujoco,policy,193,3.86,-1.7532380819320679,-0.24903887510299683,1.0917388200759888,2.7519047260284424,-0.7894293665885925,-2.41323184967041,1.690605640411377,-1.6763806343078613e-05,8.50483775138855e-06,0.9622289538383484,-4.048058986663818,13.066679954528809,0.5277011394500732,-7.778581142425537,-2.0899875164031982,4.595712184906006,-0.0004749667423311621,9.507259528618306e-05,1.5857775211334229,0.18743117153644562,-1.0174559354782104,0.5,0.0,0.30000001192092896,1.0,0.0,0.0,0.0,0.0,2.4441564083099365,0.7740816473960876,11.911833763122559,26.222686767578125,-2.7197935581207275,-8.654966354370117,33.29677200317383,27.80657196044922,-7.625002861022949,1.2953295707702637,-4.733069896697998,27.43910026550293,-1.5959774255752563,-4.595188617706299,29.767314910888672,32.9852409362793,-3.8125014305114746,0.07866477966308594,-2.366534948348999,10.909549713134766,-0.7979887127876282,0.739405632019043,15.62465763092041,0.03999999910593033,0.03999999910593033
mujoco,policy,194,3.88,-1.7520455121994019,-0.3446729779243469,1.0075085163116455,2.7559969425201416,-0.7103075981140137,-2.392139434814453,1.7381703853607178,8.898600935935974e-05,-8.730590343475342e-05,-0.6149435043334961,-5.046134948730469,-10.836264610290527,-0.022526109591126442,3.997995376586914,2.2601330280303955,1.766393780708313,0.0019942745566368103,-0.0010287625482305884,1.5855087041854858,0.187504842877388,-1.017376184463501,0.5,0.0,0.30000001192092896,1.0,0.0,0.0,0.0,0.0,-7.625002861022949,1.2953295707702637,-4.733069896697998,27.43910026550293,-1.5959774255752563,-4.595188617706299,29.767314910888672,32.9852409362793,0.6525329351425171,0.3385971486568451,9.47861385345459,26.526262283325195,-1.50076425075531,-8.667074203491211,34.088584899902344,28.726566314697266,0.32626646757125854,-0.39970141649246216,4.739306926727295,10.453130722045898,-0.750382125377655,-1.296537160873413,17.78529167175293,0.03999999910593033,0.03999999910593033
mujoco,policy,195,3.9,-1.7394765615463257,-0.4291423559188843,1.1215401887893677,2.748396873474121,-0.8167116045951843,-2.405402660369873,1.8204407691955566,-3.549456596374512e-05,4.13842499256134e-05,1.4176476001739502,-3.741875171661377,12.458566665649414,-0.49547016620635986,-4.615740776062012,-1.9077837467193604,4.6474127769470215,-0.0037323362194001675,0.0029990135226398706,1.5854111909866333,0.18752941489219666,-1.0173988342285156,0.5,0.0,0.30000001192092896,1.0,0.0,0.0,0.0,0.0,0.6525329351425171,0.3385971486568451,9.47861385345459,26.526262283325195,-1.50076425075531,-8.667074203491211,34.088584899902344,28.726566314697266,-8.383410453796387,1.8710606098175049,-6.264275550842285,26.93352508544922,-0.647426426410675,-4.262319087982178,30.081043243408203,32.926177978515625,-4.191705226898193,0.36653029918670654,-3.1321377754211426,10.656763076782227,-0.3237132132053375,0.9058403968811035,15.781521797180176,0.03999999910593033,0.03999999910593033
mujoco,policy,196,3.92,-1.7338258028030396,-0.5152182579040527,1.031784176826477,2.746504068374634,-0.6699675917625427,-2.3737316131591797,1.8697865009307861,0.00010368600487709045,-9.67271625995636e-05,-0.4667903780937195,-4.518918037414551,-11.173361778259277,0.028293872252106667,8.016674995422363,2.981140375137329,1.9713332653045654,0.00402058195322752,-0.003712463192641735,1.5854018926620483,0.18752922117710114,-1.0173583030700684,0.5,0.0,0.30000001192092896,1.0,0.0,0.0,0.0,0.0,-8.383410453796387,1.8710606098175049,-6.264275550842285,26.93352508544922,-0.647426426410675,-4.262319087982178,30.081043243408203,32.926177978515625,0.6960189342498779,0.9499698281288147,9.541983604431152,25.81753158569336,-1.6112159490585327,-8.570483207702637,33.85426330566406,28.367115020751953,0.34800946712493896,-0.09401509165763855,4.770991802215576,10.098766326904297,-0.8056079745292664,-1.248241662979126,17.66813087463379,0.03999999910593033,0.03999999910593033
mujoco,policy,197,3.94,-1.722306251525879,-0.5840451717376709,1.177660584449768,2.7423551082611084,-0.7797203063964844,-2.382544994354248,1.9497861862182617,-3.5472214221954346e-05,4.1600316762924194e-05,1.2108970880508423,-2.8154942989349365,14.195503234863281,-0.24170127511024475,-5.652589797973633,-1.8260211944580078,4.555167198181152,-0.004744481761008501,0.0036751748993992805,1.5854036808013916,0.18752585351467133,-1.0173395872116089,0.5,0.0,0.30000001192092896,1.0,0.0,0.0,0.0,0.0,0.6960189342498779,0.9499698281288147,9.541983604431152,25.81753158569336,-1.6112159490585327,-8.570483207702637,33.85426330566406,28.367115020751953,-10.091184616088867,2.568781614303589,-9.640777587890625,27.0105037689209,-0.15170229971408844,-3.5834150314331055,29.692506790161133,33.23008346557617,-5.045592308044434,0.7153908014297485,-4.8203887939453125,10.69525146484375,-0.07585114985704422,1.2452924251556396,15.58725357055664,0.03999999910593033,0.03999999910593033
mujoco,policy,198,3.96,-1.7180063724517822,-0.6552795171737671,1.0988868474960327,2.743685007095337,-0.632819414138794,-2.351365804672241,1.9992694854736328,0.00012220069766044617,-0.00011721625924110413,-0.4307081997394562,-3.8705074787139893,-10.974933624267578,0.13433413207530975,8.127564430236816,2.8681259155273438,2.0272018909454346,0.005371956620365381,-0.005214404780417681,1.58540678024292,0.187521830201149,-1.0173333883285522,0.5,0.0,0.30000001192092896,1.0,0.0,0.0,0.0,0.0,-10.091184616088867,2.568781614303589,-9.640777587890625,27.0105037689209,-0.15170229971408844,-3.5834150314331055,29.692506790161133,33.23008346557617,-0.713634729385376,1.483588457107544,7.477446556091309,25.233020782470703,-1.0731397867202759,-8.287240982055664,33.71626663208008,28.698467254638672,-0.356817364692688,0.17279422283172607,3.7387232780456543,9.806510925292969,-0.5365698933601379,-1.1066205501556396,17.599132537841797,0.03999999910593033,0.03999999910593033
mujoco,policy,199,3.98,-1.7064197063446045,-0.7095028162002563,1.234574794769287,2.7407844066619873,-0.6795369386672974,-2.3619253635406494,2.0754764080047607,-6.287917494773865e-05,6.54272735118866e-05,1.1966304779052734,-2.041153907775879,13.888670921325684,-0.2985365688800812,-2.1093664169311523,-1.8663965463638306,3.5914247035980225,-0.006490348372608423,0.005606733728200197,1.5854099988937378,0.1875176876783371,-1.0173321962356567,0.5,0.0,0.30000001192092896,1.0,0.0,0.0,0.0,0.0,-0.713634729385376,1.483588457107544,7.477446556091309,25.233020782470703,-1.0731397867202759,-8.287240982055664,33.71626663208008,28.698467254638672,-10.7805757522583,3.2585020065307617,-11.092053413391113,26.417699813842773,-0.18535692989826202,-3.2173428535461426,29.288959503173828,33.15477752685547,-5.39028787612915,1.060250997543335,-5.546026706695557,10.398849487304688,-0.09267846494913101,1.428328514099121,15.385479927062988,0.03999999910593033,0.03999999910593033
mujoco,policy,200,4.0,-1.7021898031234741,-0.7669832706451416,1.164875864982605,2.7424697875976562,-0.5134081840515137,-2.3323678970336914,2.093024969100952,0.0001379065215587616,-0.0001329369843006134,-0.38130882382392883,-3.2640151977539062,-10.533315658569336,0.1651616096496582,8.495951652526855,2.7671031951904297,0.36654409766197205,0.006984072271734476,-0.0069251349195837975,1.5854132175445557,0.1875135600566864,-1.017332911491394,0.5,0.0,0.30000001192092896,1.0,0.0,0.0,0.0,0.0,-10.7805757522583,3.2585020065307617,-11.092053413391113,26.417699813842773,-0.18535692989826202,-3.2173428535461426,29.288959503173828,33.15477752685547,-1.8930541276931763,2.018217086791992,5.756598949432373,24.666885375976562,-0.9631277322769165,-7.804865837097168,33.208656311035156,28.86302947998047,-0.9465270638465881,0.4401085376739502,2.8782994747161865,9.523443222045898,-0.48156386613845825,-0.8654329776763916,17.345327377319336,0.03999999910593033,0.03999999910593033
mujoco,policy,201,4.0200000000000005,-1.694394588470459,-0.8081614971160889,1.3121894598007202,2.7406935691833496,-0.5727192163467407,-2.3447179794311523,2.1348876953125,-5.613267421722412e-05,5.934387445449829e-05,0.7874698638916016,-1.3574881553649902,14.31712818145752,-0.12461914867162704,-2.947291135787964,-1.9376461505889893,2.08903169631958,-0.007081995252519846,0.006539383437484503,1.585416555404663,0.1875094771385193,-1.0173343420028687,0.5,0.0,0.30000001192092896,1.0,0.0,0.0,0.0,0.0,-1.8930541276931763,2.018217086791992,5.756598949432373,24.666885375976562,-0.9631277322769165,-7.804865837097168,33.208656311035156,28.86302947998047,-12.421493530273438,3.5280637741088867,-14.229172706604004,26.566572189331055,0.4030594825744629,-3.098273754119873,29.4417724609375,33.504920959472656,-6.210746765136719,1.1950318813323975,-7.114586353302002,10.473285675048828,0.20152974128723145,1.4878630638122559,15.461886405944824,0.03999999910593033,0.03999999910593033
mujoco,policy,202,4.04,-1.6946433782577515,-0.8541271686553955,1.242895483970642,2.7432730197906494,-0.40892449021339417,-2.3163089752197266,2.132336139678955,0.00015645474195480347,-0.0001476183533668518,-0.4971008598804474,-2.7390971183776855,-10.545930862426758,0.15308254957199097,8.543668746948242,2.713522434234619,-0.39884018898010254,0.007541166618466377,-0.007485357113182545,1.585419774055481,0.18750539422035217,-1.0173360109329224,0.5,0.0,0.30000001192092896,1.0,0.0,0.0,0.0,0.0,-12.421493530273438,3.5280637741088867,-14.229172706604004,26.566572189331055,0.4030594825744629,-3.098273754119873,29.4417724609375,33.504920959472656,-3.5151548385620117,2.419189691543579,3.382477045059204,24.12990379333496,-0.31567519903182983,-7.485698699951172,33.18165969848633,29.031505584716797,-1.7575774192810059,0.6405948400497437,1.691238522529602,9.254951477050781,-0.15783759951591492,-0.7058494091033936,17.331829071044922,0.03999999910593033,0.03999999910593033
mujoco,policy,203,4.0600000000000005,-1.6983636617660522,-0.8925390243530273,1.260239839553833,2.742645025253296,-0.3911970853805542,-2.329329490661621,2.1523849964141846,-8.597970008850098e-06,8.981674909591675e-06,-0.04987969994544983,-1.4546695947647095,5.2385077476501465,-0.051279373466968536,0.5871914029121399,-1.9753111600875854,1.0808855295181274,-0.0049490490928292274,0.004298508632928133,1.5854229927062988,0.18750131130218506,-1.0173377990722656,0.5,0.0,0.30000001192092896,1.0,0.0,0.0,0.0,0.0,-3.5151548385620117,2.419189691543579,3.382477045059204,24.12990379333496,-0.31567519903182983,-7.485698699951172,33.18165969848633,29.031505584716797,-8.210533142089844,2.2478320598602295,-3.984952688217163,25.83895492553711,-0.5595368146896362,-4.655444145202637,31.50918960571289,32.82763671875,-4.105266571044922,0.5549160242080688,-1.9924763441085815,10.109477996826172,-0.2797684073448181,0.709277868270874,16.495594024658203,0.03999999910593033,0.03999999910593033
mujoco,policy,204,4.08,-1.7127246856689453,-0.9356365203857422,1.1153173446655273,2.7445907592773438,-0.2656451463699341,-2.338526487350464,2.143878936767578,0.00013811513781547546,-0.00016513094305992126,-1.1795101165771484,-2.4784185886383057,-12.339953422546387,0.10054045170545578,5.148669719696045,0.16229669749736786,-0.5621662139892578,0.004923397209495306,-0.00602545915171504,1.5854262113571167,0.18749721348285675,-1.0173395872116089,0.5,0.0,0.30000001192092896,1.0,0.0,0.0,0.0,0.0,-8.210533142089844,2.2478320598602295,-3.984952688217163,25.83895492553711,-0.5595368146896362,-4.655444145202637,31.50918960571289,32.82763671875,0.15408110618591309,1.9780080318450928,9.352128028869629,25.434213638305664,-1.7056277990341187,-8.003693580627441,33.168113708496094,28.574905395507812,0.07704055309295654,0.4200040102005005,4.6760640144348145,9.907106399536133,-0.8528138995170593,-0.9648468494415283,17.325056076049805,0.03999999910593033,0.03999999910593033
mujoco,policy,205,4.1,-1.7162084579467773,-0.9603629112243652,1.2506929636001587,2.736543893814087,-0.40390142798423767,-2.372643232345581,2.1679093837738037,-3.2398849725723267e-05,9.462237358093262e-06,0.5063004493713379,-0.5521702170372009,14.279642105102539,-0.8749953508377075,-7.4090657234191895,-2.4233992099761963,0.8984512090682983,-0.0058211516588926315,0.006589924450963736,1.5854294300079346,0.18749311566352844,-1.0173414945602417,0.5,0.0,0.30000001192092896,1.0,0.0,0.0,0.0,0.0,0.15408110618591309,1.9780080318450928,9.352128028869629,25.434213638305664,-1.7056277990341187,-8.003693580627441,33.168113708496094,28.574905395507812,-11.496291160583496,2.9924566745758057,-11.28844165802002,27.614795684814453,-0.18043138086795807,-2.7070982456207275,29.8521785736084,34.052127838134766,-5.748145580291748,0.9272283315658569,-5.64422082901001,10.997398376464844,-0.09021569043397903,1.6834508180618286,15.667089462280273,0.03999999910593033,0.03999999910593033
mujoco,policy,206,4.12,-1.7332860231399536,-0.9858781099319458,1.163387656211853,2.750760078430176,-0.26522529125213623,-2.3504581451416016,2.1544535160064697,0.00015839561820030212,-0.0001761205494403839,-1.3022607564926147,-1.6723034381866455,-11.456476211547852,0.6944809556007385,8.085846900939941,2.581510066986084,-0.8098412156105042,0.0072396984323859215,-0.007324207574129105,1.5854326486587524,0.18748901784420013,-1.017343282699585,0.5,0.0,0.30000001192092896,1.0,0.0,0.0,0.0,0.0,-11.496291160583496,2.9924566745758057,-11.28844165802002,27.614795684814453,-0.18043138086795807,-2.7070982456207275,29.8521785736084,34.052127838134766,-1.0729488134384155,2.795133113861084,7.654397010803223,24.53468132019043,-1.3550878763198853,-7.555482387542725,32.97311782836914,28.725147247314453,-0.5364744067192078,0.8285665512084961,3.8271985054016113,9.457340240478516,-0.6775439381599426,-0.7407412528991699,17.227558135986328,0.03999999910593033,0.03999999910593033
mujoco,policy,207,4.14,-1.736631155014038,-0.9984472990036011,1.3160653114318848,2.7443690299987793,-0.38272997736930847,-2.367004871368408,2.165709972381592,-3.343820571899414e-05,1.720711588859558e-05,0.5688463449478149,-0.03476320952177048,14.858382225036621,-1.064281702041626,-6.943775177001953,-2.1627891063690186,0.3667713403701782,-0.006225788965821266,0.007046003360301256,1.5854358673095703,0.18748492002487183,-1.0173451900482178,0.5,0.0,0.30000001192092896,1.0,0.0,0.0,0.0,0.0,-1.0729488134384155,2.795133113861084,7.654397010803223,24.53468132019043,-1.3550878763198853,-7.555482387542725,32.97311782836914,28.725147247314453,-12.764238357543945,3.311342716217041,-13.939390182495117,27.5361385345459,0.26941052079200745,-2.487593650817871,29.970684051513672,34.31661605834961,-6.382119178771973,1.0866713523864746,-6.969695091247559,10.95806884765625,0.13470526039600372,1.7932031154632568,15.72634220123291,0.03999999910593033,0.03999999910593033
mujoco,policy,208,4.16,-1.7462908029556274,-1.0158928632736206,1.2365338802337646,2.7429873943328857,-0.23903557658195496,-2.342644214630127,2.1513607501983643,0.00016016140580177307,-0.0001706331968307495,-1.0494468212127686,-1.2914279699325562,-11.108112335205078,0.23924770951271057,8.291912078857422,2.565700054168701,-0.739050567150116,0.007301654201000929,-0.0074347564950585365,1.5854390859603882,0.18748080730438232,-1.017346978187561,0.5,0.0,0.30000001192092896,1.0,0.0,0.0,0.0,0.0,-12.764238357543945,3.311342716217041,-13.939390182495117,27.5361385345459,0.26941052079200745,-2.487593650817871,29.970684051513672,34.31661605834961,-2.326523780822754,3.0440990924835205,5.699032783508301,24.15830421447754,-0.6928832530975342,-7.278474807739258,32.86537170410156,28.937767028808594,-1.163261890411377,0.9530495405197144,2.8495163917541504,9.26915168762207,-0.3464416265487671,-0.6022374629974365,17.17368507385254,0.03999999910593033,0.03999999910593033
mujoco,policy,209,4.18,-1.7540524005889893,-1.0171223878860474,1.3879327774047852,2.740692377090454,-0.33627957105636597,-2.3593978881835938,2.1655433177948,-3.8586556911468506e-05,3.308430314064026e-05,-0.060632094740867615,0.6258649230003357,14.450057983398438,-0.2734341323375702,-5.062681198120117,-2.1568408012390137,0.4695824384689331,-0.00733645586296916,0.007487472612410784,1.5854424238204956,0.18747667968273163,-1.0173488855361938,0.5,0.0,0.30000001192092896,1.0,0.0,0.0,0.0,0.0,-2.326523780822754,3.0440990924835205,5.699032783508301,24.15830421447754,-0.6928832530975342,-7.278474807739258,32.86537170410156,28.937767028808594,-13.131159782409668,3.6518733501434326,-14.545228958129883,27.138795852661133,0.6541057825088501,-2.3161232471466064,29.934207916259766,34.30636978149414,-6.565579891204834,1.2569366693496704,-7.272614479064941,10.759397506713867,0.32705289125442505,1.8789383172988892,15.708104133605957,0.03999999910593033,0.03999999910593033
mujoco,policy,210,4.2,-1.7695890665054321,-1.024596095085144,1.3109172582626343,2.742666482925415,-0.1823349893093109,-2.3344004154205322,2.15166974067688,0.00017371401190757751,-0.00017101317644119263,-1.1785402297973633,-0.8530824780464172,-10.884115219116211,0.14598233997821808,8.473395347595215,2.5867626667022705,-0.70572829246521,0.007593924645334482,-0.00759405130520463,1.5854456424713135,0.18747256696224213,-1.0173507928848267,0.5,0.0,0.30000001192092896,1.0,0.0,0.0,0.0,0.0,-13.131159782409668,3.6518733501434326,-14.545228958129883,27.138795852661133,0.6541057825088501,-2.3161232471466064,29.934207916259766,34.30636978149414,-2.876129627227783,3.2908143997192383,4.853762149810791,23.890045166015625,-0.43944859504699707,-7.024149417877197,32.50345993041992,28.955211639404297,-1.4380648136138916,1.0764071941375732,2.4268810749053955,9.13502311706543,-0.21972429752349854,-0.47507476806640625,16.99272918701172,0.03999999910593033,0.03999999910593033
mujoco,policy,211,4.22,-1.7840229272842407,-1.0163880586624146,1.457342505455017,2.7405123710632324,-0.2589164972305298,-2.350511312484741,2.165740728378296,-3.7554651498794556e-05,4.144012928009033e-05,-0.5651965141296387,1.0906438827514648,13.778059005737305,-0.14305081963539124,-3.723888635635376,-2.138392925262451,0.4385533928871155,-0.007309604436159134,0.007430230267345905,1.5854488611221313,0.18746843934059143,-1.01735258102417,0.5,0.0,0.30000001192092896,1.0,0.0,0.0,0.0,0.0,-2.876129627227783,3.2908143997192383,4.853762149810791,23.890045166015625,-0.43944859504699707,-7.024149417877197,32.50345993041992,28.955211639404297,-13.061928749084473,3.8069324493408203,-14.303658485412598,26.86363410949707,0.6651018857955933,-2.10398006439209,29.61927604675293,34.116554260253906,-6.530964374542236,1.3344662189483643,-7.151829242706299,10.621816635131836,0.33255094289779663,1.9850099086761475,15.550638198852539,0.03999999910593033,0.03999999910593033
mujoco,policy,212,4.24,-1.8068089485168457,-1.0151591300964355,1.379653811454773,2.7431962490081787,-0.09875846654176712,-2.3255786895751953,2.15213680267334,0.00018020346760749817,-0.00017159804701805115,-1.4570800065994263,-0.4307398498058319,-10.762207984924316,0.14038704335689545,8.588179588317871,2.5861029624938965,-0.6560272574424744,0.007565116975456476,-0.007719209883362055,1.5854520797729492,0.18746431171894073,-1.0173544883728027,0.5,0.0,0.30000001192092896,1.0,0.0,0.0,0.0,0.0,-13.061928749084473,3.8069324493408203,-14.303658485412598,26.86363410949707,0.6651018857955933,-2.10398006439209,29.61927604675293,34.116554260253906,-2.8770110607147217,3.489053726196289,4.784229278564453,23.73383331298828,-0.5299658179283142,-6.799189567565918,31.893709182739258,28.81478500366211,-1.4385055303573608,1.1755268573760986,2.3921146392822266,9.056917190551758,-0.2649829089641571,-0.3625948429107666,16.687854766845703,0.03999999910593033,0.03999999910593033
mujoco,policy,213,4.26,-1.8276712894439697,-1.0001188516616821,1.519818663597107,2.7389349937438965,-0.2002570927143097,-2.3423845767974854,2.1655476093292236,-1.551210880279541e-05,2.2914260625839233e-05,-0.8438928723335266,1.3626443147659302,12.845620155334473,-0.4323362708091736,-5.3426995277404785,-2.173783540725708,0.4661043584346771,-0.00688721751794219,0.006984795909374952,1.5854554176330566,0.18746016919612885,-1.0173563957214355,0.5,0.0,0.30000001192092896,1.0,0.0,0.0,0.0,0.0,-2.8770110607147217,3.489053726196289,4.784229278564453,23.73383331298828,-0.5299658179283142,-6.799189567565918,31.893709182739258,28.81478500366211,-12.919258117675781,3.638597249984741,-13.85334587097168,26.976009368896484,0.8468468189239502,-2.116236448287964,29.385177612304688,34.128082275390625,-6.459629058837891,1.2502986192703247,-6.92667293548584,10.67800521850586,0.4234234094619751,1.9788817167282104,15.433588981628418,0.03999999910593033,0.03999999910593033
mujoco,policy,214,4.28,-1.8580690622329712,-0.9924468994140625,1.4280567169189453,2.7452914714813232,-0.05243358016014099,-2.3184189796447754,2.154305934906006,0.00018095970153808594,-0.00017578527331352234,-1.747743010520935,-0.07351513206958771,-11.23029899597168,0.25211939215660095,8.315823554992676,2.5910894870758057,-0.5718767046928406,0.007153215818107128,-0.007242185529321432,1.5854586362838745,0.18745602667331696,-1.0173581838607788,0.5,0.0,0.30000001192092896,1.0,0.0,0.0,0.0,0.0,-12.919258117675781,3.638597249984741,-13.85334587097168,26.976009368896484,0.8468468189239502,-2.116236448287964,29.385177612304688,34.128082275390625,-2.3500313758850098,3.5931766033172607,5.533263683319092,23.711589813232422,-0.5726770162582397,-6.8172125816345215,31.511959075927734,28.617046356201172,-1.1750156879425049,1.2275882959365845,2.766631841659546,9.045795440673828,-0.2863385081291199,-0.37160634994506836,16.496978759765625,0.03999999910593033,0.03999999910593033
mujoco,policy,215,4.3,-1.8799184560775757,-0.9691100120544434,1.5803730487823486,2.733428955078125,-0.17074179649353027,-2.3350353240966797,2.1643974781036377,-3.836676478385925e-05,3.589317202568054e-05,-0.635050892829895,1.878247618675232,14.592328071594238,-1.3351762294769287,-6.982120037078857,-2.159599542617798,0.31545376777648926,-0.007469933480024338,0.0077873957343399525,1.585461974143982,0.18745188415050507,-1.0173600912094116,0.5,0.0,0.30000001192092896,1.0,0.0,0.0,0.0,0.0,-2.3500313758850098,3.5931766033172607,5.533263683319092,23.711589813232422,-0.5726770162582397,-6.8172125816345215,31.511959075927734,28.617046356201172,-13.734915733337402,3.4724276065826416,-16.123126983642578,27.544986724853516,1.287312626838684,-1.8313748836517334,29.210981369018555,34.59965515136719,-6.867457866668701,1.167213797569275,-8.061563491821289,10.962493896484375,0.643656313419342,2.1213126182556152,15.346490859985352,0.03999999910593033,0.03999999910593033
mujoco,policy,216,4.32,-1.9110382795333862,-0.9531681537628174,1.5031425952911377,2.7368886470794678,-0.025943800806999207,-2.3134043216705322,2.152377128601074,0.00015646964311599731,-0.00015281513333320618,-2.395251989364624,0.3216956853866577,-10.627613067626953,1.6247458457946777,8.357924461364746,2.2960686683654785,-0.6253460049629211,0.0071507846005260944,-0.007206842303276062,1.5854651927947998,0.18744774162769318,-1.0173619985580444,0.5,0.0,0.30000001192092896,1.0,0.0,0.0,0.0,0.0,-13.734915733337402,3.4724276065826416,-16.123126983642578,27.544986724853516,1.287312626838684,-1.8313748836517334,29.210981369018555,34.59965515136719,-3.1252520084381104,4.043902397155762,4.532368183135986,23.296039581298828,-0.4962756633758545,-6.6391072273254395,31.541635513305664,28.809612274169922,-1.5626260042190552,1.452951192855835,2.266184091567993,8.838020324707031,-0.24813783168792725,-0.28255367279052734,16.511817932128906,0.03999999910593033,0.03999999910593033
mujoco,policy,244,4.88,-0.002260893117636442,0.20021319389343262,-0.0007796147838234901,-0.22201251983642578,-0.00024193857097998261,-0.04330325126647949,0.0020824670791625977,-4.842877388000488e-07,4.0978193283081055e-07,-0.019818728789687157,-0.6444385647773743,-0.016276786103844643,0.11344954371452332,0.0031721172854304314,0.06901998817920685,0.002448352985084057,1.4546515558322426e-05,-1.2985507964913268e-05,0.4000000059604645,-0.10000000149011612,0.01999996416270733,0.5,0.0,0.30000001192092896,1.0,0.0,0.0,0.0,0.0,0.0,0.0,0.0,0.0,0.0,0.0,0.0,0.0,0.48599109053611755,5.428704261779785,-5.999125957489014,8.27161979675293,2.3209385871887207,3.8010363578796387,-1.0000678300857544,-4.162777423858643,0.24299554526805878,2.1453521251678467,-2.999562978744507,1.3258099555969238,1.1604692935943604,4.937518119812012,0.2409660816192627,0.0,0.0
